; generated by PrusaSlicer 2.5.0+linux-x64-GTK3 on 2023-02-16 at 14:06:24 UTC


;
;

;
;
; 

; external perimeters extrusion width = 0.45mm
; perimeters extrusion width = 0.45mm
; infill extrusion width = 0.45mm
; solid infill extrusion width = 0.45mm
; top infill extrusion width = 0.40mm
; support material extrusion width = 0.35mm
; first layer extrusion width = 0.42mm

M73 P0 R129
M73 Q0 S130
M201 X1000 Y1000 Z200 E5000 ; sets maximum accelerations, mm/sec^2
M203 X200 Y200 Z12 E120 ; sets maximum feedrates, mm / sec
M204 P1250 R1250 T1250 ; sets acceleration (P, T) and retract acceleration (R), mm/sec^2
M205 X8.00 Y8.00 Z0.40 E4.50 ; sets the jerk limits, mm/sec
M205 S0 T0 ; sets the minimum extruding and travel feed rate, mm/sec
M107
;TYPE:Custom
M862.3 P "MK3S" ; printer model check
M862.1 P0.4 ; nozzle diameter check
M115 U3.9.2 ; tell printer latest fw version
G90 ; use absolute coordinates
M83 ; extruder relative mode
M104 S240 ; set extruder temp
M140 S85 ; set bed temp
M190 S85 ; wait for bed temp
M109 S240 ; wait for extruder temp
G28 W ; home all without mesh bed level
G80 ; mesh bed leveling
G1 Y-3.0 F1000.0 ; go outside print area
G92 E0.0
G1 X60.0 E9.0 F1000.0 ; intro line
G1 X100.0 E12.5 F1000.0 ; intro line
G92 E0.0
M221 S95

; Don't change E values below. Excessive value can damage the printer.
M907 E430 ; set extruder motor current
G21 ; set units to millimeters
G90 ; use absolute coordinates
M83 ; use relative distances for extrusion
M900 K0.08 ; Filament gcode LA 1.5
M900 K45 ; Filament gcode LA 1.0
M107
;LAYER_CHANGE
;Z:0.2
;HEIGHT:0.2
;BEFORE_LAYER_CHANGE
G92 E0.0
;0.2


G1 E-1 F2100
G1 Z.2 F720
;AFTER_LAYER_CHANGE
;0.2
G1 Z.4
G1 X93.859 Y72.276 F10800
G1 Z.2 F720
G1 E1 F2100
M204 S800
;TYPE:Skirt/Brim
;WIDTH:0.42
G1 F1200
G1 X106.32 Y58.369 E.58547
G1 X107.178 Y57.582 E.03649
G1 X108.304 Y56.845 E.04221
G1 X109.576 Y56.476 E.04153
G1 X121.443 Y56.493 E.37209
G1 X143.137 Y59.152 E.68528
G1 X143.736 Y59.286 E.01924
G1 X144.34 Y59.548 E.02065
G1 X144.924 Y59.959 E.02239
G1 X145.426 Y60.507 E.02329
G1 X156.347 Y75.536 E.58248
G1 X156.799 Y76.417 E.03107
G1 X156.977 Y77.5 E.0344
G1 X156.975 Y147.607 E2.19817
G1 X156.799 Y148.582 E.03107
M73 P0 R128
G1 X156.347 Y149.464 E.03107
G1 X155.658 Y150.177 E.03108
G1 X154.683 Y150.699 E.03468
G1 X153.6 Y150.877 E.0344
G1 X96.294 Y150.875 E1.7968
G1 X95.318 Y150.699 E.03107
G1 X94.436 Y150.247 E.03107
G1 X93.723 Y149.558 E.03109
G1 X93.202 Y148.585 E.03459
G1 X93.023 Y147.5 E.03449
G1 X93.023 Y74.5 E2.28886
G1 X93.186 Y73.464 E.03288
G1 X93.45 Y72.857 E.02076
G1 X93.825 Y72.325 E.0204
M204 S1000
; printing object Ardusimple_box_bottom.stl id:0 copy 0
;WIPE_START
G1 F8640
G1 X96.569 Y69.26 E-.95
;WIPE_END
G1 E-.05 F2100
G1 Z.4 F720
G1 X121.154 Y62.102 F10800
G1 Z.2 F720
G1 E1 F2100
M204 S800
;TYPE:Support material
G1 F1200
G1 X121.114 Y62.289 E.00601
G1 X121.099 Y62.497 E.00654
G1 X121.099 Y73.02 E.32994
G1 X106.41 Y73.02 E.46058
G1 X107.11 Y71.747 E.04557
G1 X107.11 Y62.466 E.29098
G1 X107.15 Y61.946 E.01636
G1 X107.222 Y61.58 E.01169
G1 X107.33 Y61.224 E.01167
G1 X107.472 Y60.882 E.0116
G1 X107.648 Y60.552 E.01172
G1 X107.854 Y60.243 E.01165
G1 X108.09 Y59.955 E.01167
G1 X108.354 Y59.692 E.01168
G1 X108.641 Y59.456 E.01166
G1 X109.576 Y58.853 E.03488
G1 X121.154 Y58.853 E.36303
G1 X121.154 Y62.045 E.10009
M204 S1000
G1 X120.81 Y72.85 F10800
M204 S800
G1 F1200
G1 X120.81 Y59.192 E.42825
G1 X120.391 Y59.192 E.01314
G1 X120.391 Y72.681 E.42293
G1 X119.972 Y72.681 E.01314
G1 X119.972 Y59.192 E.42292
G1 X119.553 Y59.192 E.01314
G1 X119.553 Y72.681 E.42292
G1 X119.134 Y72.681 E.01314
G1 X119.134 Y59.192 E.42292
G1 X118.715 Y59.192 E.01314
G1 X118.715 Y72.681 E.42292
G1 X118.296 Y72.681 E.01314
G1 X118.296 Y59.192 E.42292
G1 X117.877 Y59.192 E.01314
G1 X117.877 Y72.681 E.42292
G1 X117.458 Y72.681 E.01314
G1 X117.458 Y59.192 E.42292
G1 X117.039 Y59.192 E.01314
G1 X117.039 Y72.681 E.42292
G1 X116.62 Y72.681 E.01314
G1 X116.62 Y59.192 E.42292
G1 X116.201 Y59.192 E.01314
G1 X116.201 Y72.681 E.42292
G1 X115.783 Y72.681 E.01314
G1 X115.783 Y59.192 E.42292
G1 X115.364 Y59.192 E.01314
G1 X115.364 Y72.681 E.42292
G1 X114.945 Y72.681 E.01314
G1 X114.945 Y59.192 E.42292
G1 X114.526 Y59.192 E.01314
G1 X114.526 Y72.681 E.42292
G1 X114.107 Y72.681 E.01314
G1 X114.107 Y59.192 E.42292
G1 X113.688 Y59.192 E.01314
G1 X113.688 Y72.681 E.42292
G1 X113.269 Y72.681 E.01314
G1 X113.269 Y59.192 E.42292
G1 X112.85 Y59.192 E.01314
G1 X112.85 Y72.681 E.42292
G1 X112.431 Y72.681 E.01314
G1 X112.431 Y59.192 E.42292
G1 X112.012 Y59.192 E.01314
G1 X112.012 Y72.681 E.42292
G1 X111.593 Y72.681 E.01314
G1 X111.593 Y59.192 E.42292
G1 X111.174 Y59.192 E.01314
G1 X111.174 Y72.681 E.42292
G1 X110.755 Y72.681 E.01314
G1 X110.755 Y59.192 E.42292
G1 X110.336 Y59.192 E.01314
G1 X110.336 Y72.681 E.42292
G1 X109.917 Y72.681 E.01314
G1 X109.917 Y59.192 E.42292
G1 X109.674 Y59.192 E.0076
G1 X109.498 Y59.304 E.00655
G1 X109.498 Y72.681 E.41942
G1 X109.079 Y72.681 E.01314
G1 X109.079 Y59.569 E.4111
G1 X108.66 Y59.876 E.01627
G1 X108.66 Y72.681 E.40149
G1 X108.241 Y72.681 E.01314
G1 X108.241 Y60.3 E.38818
G1 X108.03 Y60.584 E.01108
G1 X107.822 Y60.941 E.01296
G1 X107.822 Y72.681 E.36809
G1 X107.403 Y72.681 E.01314
G1 X107.403 Y71.918 E.02391
G1 X106.984 Y72.68 E.02726
G1 X106.984 Y72.85 E.00534
M204 S1000
;WIPE_START
G1 F8640
G1 X106.984 Y72.68 E-.03932
G1 X107.403 Y71.918 E-.20077
G1 X107.403 Y72.681 E-.17606
G1 X107.822 Y72.681 E-.09674
G1 X107.822 Y70.788 E-.43711
;WIPE_END
G1 E-.05 F2100
G1 Z.4 F720
G1 X122.345 Y73.805 F10800
G1 Z.2 F720
G1 E1 F2100
M204 S800
;TYPE:Perimeter
;WIDTH:0.419999
G1 F1200
G1 X122.366 Y73.722 E.0027
G1 X122.367 Y62.592 E.34897
G1 X122.392 Y62.466 E.00402
G1 X122.483 Y62.328 E.00519
G1 X122.617 Y62.287 E.0044
G1 X142.634 Y62.288 E.6276
G1 X142.844 Y62.356 E.00694
M73 Q0 S129
G1 X142.912 Y62.532 E.00592
G1 X142.913 Y75.504 E.40672
G1 X142.996 Y76.029 E.01667
G1 X143.22 Y76.494 E.01619
G1 X143.46 Y76.785 E.01183
G1 X143.798 Y77.04 E.01326
G1 X144.199 Y77.213 E.01369
G1 X144.639 Y77.286 E.01398
G1 X153.566 Y77.291 E.27991
G1 X153.716 Y77.336 E.00489
G1 X153.804 Y77.477 E.00523
G1 X153.811 Y128.536 E1.6009
;WIDTH:0.461696
G1 X153.79 Y128.757 E.00774
;WIDTH:0.503393
G1 X153.769 Y128.978 E.00851
;WIDTH:0.54509
G1 X153.748 Y129.199 E.00928
;WIDTH:0.586787
G1 X153.727 Y129.42 E.01005
G1 X153.746 Y130.172 E.03402
;WIDTH:0.551773
G1 X153.745 Y130.896 E.0306
G1 X153.767 Y131.133 E.01008
;WIDTH:0.507849
G1 X153.789 Y131.37 E.00921
;WIDTH:0.463924
G1 X153.811 Y131.607 E.00834
;WIDTH:0.419999
G1 X153.813 Y147.387 E.49478
G1 X153.742 Y147.652 E.0086
G1 X153.562 Y147.713 E.00595
G1 X96.513 Y147.713 E1.78873
G1 X96.248 Y147.642 E.00859
G1 X96.187 Y147.462 E.00596
G1 X96.187 Y132.557 E.46733
;WIDTH:0.464461
G1 X96.209 Y132.451 E.0038
;WIDTH:0.508923
G1 X96.232 Y132.345 E.0042
;WIDTH:0.553385
G1 X96.254 Y132.239 E.0046
;WIDTH:0.597846
G1 X96.276 Y132.133 E.005
G1 X96.262 Y131.642 E.02264
;WIDTH:0.601733
G1 X96.278 Y130.746 E.04165
G1 X96.255 Y130.568 E.00833
;WIDTH:0.5563
G1 X96.233 Y130.39 E.00765
;WIDTH:0.510866
G1 X96.21 Y130.212 E.00697
;WIDTH:0.465433
G1 X96.187 Y130.035 E.0063
;WIDTH:0.419999
G1 X96.187 Y74.573 E1.73896
G1 X96.277 Y74.337 E.00791
G1 X96.438 Y74.287 E.0053
G1 X121.875 Y74.282 E.79757
G1 X122.138 Y74.175 E.00889
G1 X122.299 Y73.99 E.00771
G1 X122.331 Y73.863 E.00408
M204 S1000
G1 X121.989 Y73.721 F10800
M204 S800
;TYPE:External perimeter
G1 F1200
G1 X121.99 Y62.592 E.34897
G1 X122.078 Y62.2 E.01259
G1 X122.286 Y61.992 E.00921
G1 X122.594 Y61.91 E.01001
G1 X142.634 Y61.911 E.62832
G1 X142.792 Y61.931 E.00502
G1 X143.036 Y62.03 E.00826
G1 X143.229 Y62.248 E.00913
G1 X143.289 Y62.485 E.00768
G1 X143.29 Y75.504 E.40817
G1 X143.364 Y75.944 E.014
G1 X143.553 Y76.317 E.0131
G1 X143.74 Y76.532 E.00895
G1 X144.015 Y76.731 E.01066
G1 X144.335 Y76.861 E.01081
G1 X144.639 Y76.909 E.00966
G1 X153.566 Y76.914 E.27991
G1 X153.851 Y76.969 E.00909
G1 X154.067 Y77.154 E.0089
G1 X154.181 Y77.416 E.00898
G1 X154.19 Y147.387 E2.19388
G1 X154.113 Y147.785 E.0127
G1 X153.905 Y148.003 E.00946
G1 X153.585 Y148.09 E.01039
G1 X96.513 Y148.09 E1.78945
G1 X96.115 Y148.013 E.0127
G1 X95.897 Y147.805 E.00946
G1 X95.81 Y147.485 E.01039
G1 X95.81 Y74.613 E2.28484
G1 X95.888 Y74.213 E.01278
M73 P0 R127
G1 X96.098 Y73.996 E.00946
G1 X96.415 Y73.91 E.0103
G1 X121.801 Y73.91 E.79594
G1 X121.928 Y73.86 E.00429
G1 X121.965 Y73.776 E.00287
M204 S1000
G1 X122.376 Y73.618 F10800
;WIPE_START
G1 F8640
G1 X121.974 Y69.662 E-.95
;WIPE_END
G1 E-.05 F2100
G1 Z.4 F720
G1 X100.893 Y127.381 F10800
G1 Z.2 F720
M73 P1 R127
G1 E1 F2100
M204 S800
;TYPE:Perimeter
G1 F1200
G1 X101.658 Y127.428 E.02406
G1 X102.454 Y127.64 E.02582
M73 Q1 S129
G1 X103.192 Y128.006 E.02582
G1 X103.842 Y128.51 E.02582
G1 X104.315 Y129.056 E.02263
G1 X104.444 Y129.227 E.00671
G1 X104.784 Y129.851 E.0223
G1 X105.013 Y130.556 E.02322
G1 X105.127 Y131.343 E.02493
G1 X105.102 Y131.996 E.02049
G1 X104.927 Y132.788 E.02546
G1 X104.595 Y133.542 E.02581
G1 X104.121 Y134.215 E.02581
G1 X103.523 Y134.78 E.02581
G1 X102.825 Y135.216 E.02581
G1 X102.054 Y135.505 E.02581
G1 X101.138 Y135.641 E.02903
G1 X100.531 Y135.618 E.01907
G1 X99.733 Y135.446 E.0256
G1 X98.978 Y135.118 E.02582
G1 X98.303 Y134.646 E.02582
G1 X97.734 Y134.05 E.02582
G1 X97.295 Y133.354 E.02582
G1 X97.003 Y132.584 E.02582
;WIDTH:0.464461
G1 X96.959 Y132.461 E.00458
;WIDTH:0.508923
G1 X96.916 Y132.338 E.00507
;WIDTH:0.553385
G1 X96.872 Y132.214 E.00555
;WIDTH:0.597846
G1 X96.828 Y132.091 E.00603
G1 X96.793 Y131.783 E.01431
;WIDTH:0.587835
G1 X96.816 Y130.944 E.03801
;WIDTH:0.601733
G1 X96.828 Y130.815 E.00605
G1 X96.894 Y130.648 E.00833
;WIDTH:0.5563
G1 X96.96 Y130.481 E.00765
;WIDTH:0.510866
G1 X97.026 Y130.315 E.00697
;WIDTH:0.465433
G1 X97.092 Y130.148 E.0063
;WIDTH:0.419999
G1 X97.439 Y129.401 E.02582
G1 X97.927 Y128.738 E.02582
G1 X98.537 Y128.185 E.02582
G1 X99.244 Y127.764 E.02582
G1 X100.021 Y127.491 E.02582
G1 X100.833 Y127.378 E.02569
M204 S1000
G1 X101.014 Y127.761 F10800
M204 S800
;TYPE:External perimeter
G1 F1200
G1 X101.63 Y127.804 E.01935
G1 X102.352 Y128.003 E.02347
G1 X103.02 Y128.341 E.02347
G1 X103.607 Y128.805 E.02347
G1 X104.026 Y129.298 E.02028
G1 X104.41 Y129.953 E.0238
G1 X104.652 Y130.667 E.02364
G1 X104.752 Y131.385 E.02273
G1 X104.725 Y131.977 E.01858
G1 X104.559 Y132.703 E.02335
G1 X104.252 Y133.385 E.02346
G1 X103.816 Y133.993 E.02346
G1 X103.268 Y134.503 E.02347
G1 X102.63 Y134.894 E.02346
G1 X101.927 Y135.15 E.02347
G1 X101.332 Y135.241 E.01886
G1 X100.545 Y135.241 E.02469
G1 X99.817 Y135.079 E.0234
G1 X99.133 Y134.774 E.02347
G1 X98.523 Y134.34 E.02347
G1 X98.011 Y133.794 E.02347
G1 X97.617 Y133.157 E.02347
G1 X97.358 Y132.455 E.02347
G1 X97.242 Y131.715 E.02347
G1 X97.276 Y130.967 E.02347
G1 X97.457 Y130.241 E.02347
G1 X97.779 Y129.565 E.02347
G1 X98.228 Y128.966 E.02347
G1 X98.786 Y128.468 E.02347
G1 X99.433 Y128.09 E.02347
G1 X100.141 Y127.848 E.02347
G1 X100.883 Y127.752 E.02347
G1 X100.955 Y127.757 E.00224
M204 S1000
G1 X101.219 Y127.417 F10800
;WIPE_START
G1 F8640
G1 X101.63 Y127.804 E-.15639
G1 X102.352 Y128.003 E-.17285
G1 X103.02 Y128.341 E-.17285
G1 X103.607 Y128.805 E-.17285
G1 X104.026 Y129.298 E-.14935
G1 X104.301 Y129.768 E-.12571
;WIPE_END
G1 E-.05 F2100
G1 Z.4 F720
G1 X152.451 Y127.905 F10800
G1 Z.2 F720
G1 E1 F2100
M204 S800
;TYPE:Perimeter
G1 F1200
G1 X152.827 Y128.573 E.02405
;WIDTH:0.467043
G1 X152.976 Y128.958 E.01455
;WIDTH:0.514087
G1 X153.126 Y129.343 E.01617
;WIDTH:0.550437
G1 X153.155 Y129.397 E.0026
;WIDTH:0.586787
G1 X153.185 Y129.451 E.00278
G1 X153.236 Y130.057 E.02752
;WIDTH:0.564399
G1 X153.217 Y130.721 E.0288
G1 X153.135 Y130.984 E.01195
;WIDTH:0.516266
G1 X153.053 Y131.247 E.01085
;WIDTH:0.468133
G1 X152.97 Y131.51 E.00975
;WIDTH:0.419999
G1 X152.639 Y132.264 E.02581
G1 X152.165 Y132.937 E.02581
G1 X151.567 Y133.502 E.02581
G1 X150.868 Y133.938 E.02581
G1 X150.098 Y134.227 E.02581
G1 X149.285 Y134.358 E.0258
G1 X148.574 Y134.34 E.0223
G1 X147.776 Y134.168 E.02559
G1 X147.021 Y133.84 E.02582
G1 X146.346 Y133.368 E.02582
G1 X145.778 Y132.773 E.02582
G1 X145.339 Y132.076 E.02582
G1 X145.047 Y131.306 E.02582
G1 X144.913 Y130.494 E.02582
G1 X144.943 Y129.671 E.02582
G1 X145.115 Y128.95 E.02322
G1 X145.443 Y128.204 E.02556
G1 X145.909 Y127.542 E.02539
G1 X146.047 Y127.378 E.00671
G1 X146.58 Y126.907 E.0223
G1 X147.288 Y126.486 E.02582
G1 X148.065 Y126.213 E.02582
G1 X148.88 Y126.1 E.02582
G1 X149.702 Y126.15 E.02582
G1 X150.498 Y126.362 E.02582
G1 X151.235 Y126.728 E.02582
G1 X151.886 Y127.232 E.02582
G1 X152.421 Y127.853 E.0257
M204 S1000
G1 X152.339 Y128.469 F10800
M204 S800
;TYPE:External perimeter
G1 F1200
G1 X152.496 Y128.754 E.0102
G1 X152.72 Y129.468 E.02347
G1 X152.796 Y130.107 E.02017
G1 X152.769 Y130.699 E.01858
G1 X152.603 Y131.425 E.02335
G1 X152.296 Y132.107 E.02347
G1 X151.859 Y132.715 E.02346
G1 X151.311 Y133.225 E.02347
G1 X150.673 Y133.616 E.02346
G1 X149.97 Y133.872 E.02347
G1 X149.23 Y133.985 E.02346
G1 X148.588 Y133.964 E.02014
G1 X147.86 Y133.801 E.0234
G1 X147.176 Y133.496 E.02347
G1 X146.566 Y133.062 E.02347
G1 X146.054 Y132.516 E.02347
G1 X145.661 Y131.879 E.02347
G1 X145.401 Y131.177 E.02347
G1 X145.286 Y130.437 E.02347
G1 X145.32 Y129.69 E.02347
G1 X145.48 Y129.043 E.02088
G1 X145.783 Y128.368 E.02322
G1 X146.21 Y127.769 E.02304
G1 X146.83 Y127.19 E.02661
G1 X147.476 Y126.813 E.02347
G1 X148.185 Y126.571 E.02347
G1 X148.927 Y126.474 E.02347
G1 X149.674 Y126.526 E.02347
G1 X150.395 Y126.725 E.02347
G1 X151.063 Y127.063 E.02347
G1 X151.651 Y127.527 E.02347
G1 X152.135 Y128.098 E.02347
G1 X152.31 Y128.416 E.01139
M204 S1000
G1 X152.664 Y128.461 F10800
;WIPE_START
G1 F8640
G1 X152.496 Y128.754 E-.08899
G1 X152.72 Y129.468 E-.17285
G1 X152.796 Y130.107 E-.14857
G1 X152.769 Y130.699 E-.1368
G1 X152.603 Y131.425 E-.17198
G1 X152.296 Y132.107 E-.17281
G1 X152.149 Y132.312 E-.058
;WIPE_END
G1 E-.05 F2100
G1 Z.4 F720
G1 X134.9 Y75.476 F10800
G1 Z.2 F720
G1 E1 F2100
M204 S800
;TYPE:Perimeter
G1 F1200
G1 X135.641 Y75.674 E.02405
G1 X136.379 Y76.04 E.02582
G1 X137.03 Y76.544 E.02582
G1 X137.568 Y77.168 E.02582
G1 X137.914 Y77.781 E.02209
G1 X138.094 Y78.244 E.01558
G1 X138.246 Y78.772 E.01722
G1 X138.314 Y79.377 E.01908
G1 X138.289 Y80.03 E.02049
G1 X138.114 Y80.822 E.02546
G1 X137.783 Y81.576 E.02581
G1 X137.309 Y82.249 E.02581
G1 X136.71 Y82.814 E.02581
G1 X136.012 Y83.25 E.02581
G1 X135.241 Y83.539 E.02581
G1 X134.429 Y83.67 E.0258
G1 X133.718 Y83.652 E.0223
G1 X132.92 Y83.48 E.0256
G1 X132.165 Y83.152 E.02582
G1 X131.49 Y82.68 E.02582
G1 X130.922 Y82.084 E.02582
G1 X130.483 Y81.388 E.02582
G1 X130.191 Y80.618 E.02582
G1 X130.051 Y79.754 E.02745
G1 X130.087 Y78.983 E.0242
G1 X130.279 Y78.182 E.02582
G1 X130.626 Y77.435 E.02582
G1 X131.114 Y76.772 E.02582
G1 X131.724 Y76.219 E.02582
G1 X132.432 Y75.798 E.02582
G1 X133.208 Y75.525 E.02582
G1 X134.024 Y75.412 E.02582
G1 X134.842 Y75.462 E.0257
M204 S1000
G1 X134.632 Y75.825 F10800
M204 S800
;TYPE:External perimeter
G1 F1200
G1 X134.818 Y75.838 E.00583
G1 X135.539 Y76.037 E.02347
G1 X136.207 Y76.375 E.02347
G1 X136.795 Y76.839 E.02347
G1 X137.279 Y77.41 E.02347
G1 X137.583 Y77.961 E.01974
G1 X137.839 Y78.698 E.02446
G1 X137.94 Y79.419 E.02281
G1 X137.913 Y80.011 E.01858
G1 X137.747 Y80.737 E.02335
G1 X137.44 Y81.419 E.02346
G1 X137.003 Y82.027 E.02346
G1 X136.455 Y82.537 E.02347
G1 X135.817 Y82.928 E.02346
G1 X135.114 Y83.184 E.02347
G1 X134.374 Y83.296 E.02346
G1 X133.732 Y83.275 E.02014
G1 X133.004 Y83.113 E.0234
G1 X132.32 Y82.808 E.02347
G1 X131.71 Y82.374 E.02347
G1 X131.198 Y81.828 E.02347
G1 X130.805 Y81.191 E.02347
G1 X130.545 Y80.489 E.02347
G1 X130.428 Y79.732 E.02401
G1 X130.463 Y79.002 E.02293
G1 X130.644 Y78.275 E.02347
G1 X130.966 Y77.599 E.02347
G1 X131.415 Y77 E.02347
G1 X131.974 Y76.502 E.02347
G1 X132.62 Y76.124 E.02347
G1 X133.329 Y75.882 E.02347
G1 X134.071 Y75.786 E.02347
G1 X134.572 Y75.821 E.01576
M204 S1000
G1 X134.73 Y75.667 F10800
;WIPE_START
G1 F8640
G1 X134.818 Y75.838 E-.05678
G1 X135.539 Y76.037 E-.17285
