; generated by PrusaSlicer 2.6.0-alpha6+linux-x64-GTK3 on 2023-04-11 at 12:39:57 UTC

; 

; external perimeters extrusion width = 0.65mm
; perimeters extrusion width = 0.65mm
; infill extrusion width = 0.65mm
; solid infill extrusion width = 0.65mm
; top infill extrusion width = 0.60mm
; support material extrusion width = 0.55mm
; first layer extrusion width = 0.65mm

M73 P0 R190
M73 Q0 S192
M201 X1000 Y1000 Z200 E5000 ; sets maximum accelerations, mm/sec^2
M203 X200 Y200 Z12 E120 ; sets maximum feedrates, mm / sec
M204 S1250 T1250 ; sets acceleration (S) and retract acceleration (R), mm/sec^2
M205 X8.00 Y8.00 Z0.40 E4.50 ; sets the jerk limits, mm/sec
M205 S0 T0 ; sets the minimum extruding and travel feed rate, mm/sec
;TYPE:Custom
M862.3 P "MK3S" ; printer model check
M862.1 P0.6 ; nozzle diameter check
M115 U3.10.1 ; tell printer latest fw version
G90 ; use absolute coordinates
M83 ; extruder relative mode
M104 S240 ; set extruder temp
M140 S85 ; set bed temp
M190 S85 ; wait for bed temp
M109 S240 ; wait for extruder temp
G28 W ; home all without mesh bed level
G80 ; mesh bed leveling
G1 Z0.2 F720
G1 Y-3 F1000 ; go outside print area
G92 E0
G1 X60 E9 F1000 ; intro line
G1 X100 E12.5 F1000 ; intro line
G92 E0
M221 S95
G21 ; set units to millimeters
G90 ; use absolute coordinates
M83 ; use relative distances for extrusion
M900 K0.04 ; Filament gcode LA 1.5
M900 K24 ; Filament gcode LA 1.0
M107
;LAYER_CHANGE
;Z:0.2
;HEIGHT:0.2
;BEFORE_LAYER_CHANGE
G92 E0.0
;0.2


G1 E-1 F2100
G1 Z.2 F720
;AFTER_LAYER_CHANGE
;0.2
G1 Z.4
G1 X65.847 Y53.705 F10800
G1 Z.2 F720
G1 E1 F2100
M204 S800
;TYPE:Skirt/Brim
;WIDTH:0.65
G1 F1200
G1 X68 Y51.143 E.16893
G1 X70.436 Y48.757 E.17213
G1 X73.095 Y46.622 E.17214
G1 X75.951 Y44.757 E.17218
G1 X78.312 Y43.495 E.13514
G1 X81.448 Y42.157 E.17211
G1 X84.701 Y41.132 E.17217
G1 X88.039 Y40.432 E.17216
G1 X90.157 Y40.155 E.10782
G1 X93.5 Y39.993 E.16895
G1 X156.588 Y39.994 E3.18461
G1 X159.843 Y40.155 E.16451
G1 X162.025 Y40.442 E.11109
G1 X164.587 Y40.954 E.13188
G1 X167.8 Y41.889 E.16892
G1 X169.86 Y42.664 E.1111
G1 X172.828 Y44.068 E.16574
G1 X175.756 Y45.816 E.17214
G1 X177.494 Y47.059 E.10786
G1 X179.564 Y48.757 E.13515
G1 X181.957 Y51.096 E.16891
G1 X183.408 Y52.75 E.11107
G1 X185.363 Y55.387 E.1657
G1 X186.525 Y57.256 E.11109
G1 X187.755 Y59.562 E.13193
G1 X188.635 Y61.508 E.10781
G1 X189.741 Y64.6 E.16577
G1 X190.576 Y67.907 E.17217
G1 X191.083 Y71.28 E.17218
G1 X202.265 Y167.424 E4.88595
G1 X202.282 Y178.425 E.55532
G1 X201.89 Y179.8 E.07217
G1 X201.161 Y180.571 E.05356
G1 X199.627 Y181.114 E.08214
G1 X188.65 Y181.357 E.55424
G1 X61.35 Y181.357 E6.42596
G1 X50.373 Y181.114 E.55424
M73 P0 R189
G1 X48.839 Y180.571 E.08214
G1 X47.883 Y179.338 E.07876
G1 X47.718 Y178.425 E.04683
G1 X47.735 Y167.424 E.55532
G1 X59.066 Y70.078 E4.94709
G1 X59.424 Y67.907 E.11107
M73 Q0 S191
G1 X59.899 Y65.889 E.10465
G1 X60.639 Y63.45 E.12866
G1 X61.365 Y61.508 E.10466
G1 X62.273 Y59.504 E.11106
G1 X63.475 Y57.256 E.12868
G1 X64.637 Y55.387 E.11109
G1 X65.795 Y53.778 E.10007
M204 S1000
; printing object GPS_cover_R.stl id:0 copy 0
;WIPE_START
G1 F8640
G1 X68 Y51.143 E-.79335
G1 X68.639 Y50.517 E-.20665
;WIPE_END
G1 Z.4 F720
G1 X74.121 Y171.785 F10800
G1 Z.2 F720
G1 E1 F2100
M204 S800
;TYPE:Support material
G1 F1200
G1 X74.31 Y171.828 E.00978
G1 X74.486 Y171.907 E.00974
G1 X74.644 Y172.02 E.00981
G1 X74.776 Y172.162 E.00979
G1 X74.914 Y172.417 E.01464
G1 X74.962 Y172.605 E.00979
G1 X74.972 Y172.799 E.00981
G1 X74.943 Y172.99 E.00975
G1 X74.877 Y173.172 E.00977
G1 X74.776 Y173.337 E.00977
G1 X74.644 Y173.48 E.00982
G1 X74.486 Y173.593 E.00981
G1 X74.31 Y173.672 E.00974
G1 X74.121 Y173.715 E.00978
G1 X73.927 Y173.72 E.0098
G1 X73.736 Y173.687 E.00978
G1 X73.556 Y173.616 E.00977
G1 X73.393 Y173.511 E.00979
G1 X73.255 Y173.375 E.00978
G1 X73.146 Y173.215 E.00977
G1 X73.07 Y173.037 E.00977
G1 X73.032 Y172.847 E.00978
G1 X73.032 Y172.653 E.00979
G1 X73.07 Y172.463 E.00978
G1 X73.146 Y172.285 E.00977
G1 X73.255 Y172.125 E.00977
G1 X73.393 Y171.989 E.00978
G1 X73.556 Y171.884 E.00979
G1 X73.736 Y171.813 E.00977
G1 X74.03 Y171.778 E.01495
M204 S1000
G1 X73.412 Y173.128 F10800
M204 S800
G1 F1200
G1 X74.196 Y173.128 E.03958
G1 X74.282 Y173.069 E.00526
G1 X74.363 Y172.972 E.00638
G1 X74.413 Y172.855 E.00642
G1 X74.425 Y172.729 E.00639
G1 X74.384 Y172.565 E.00853
G1 X74.305 Y172.453 E.00692
G1 X73.368 Y172.453 E.0473
M204 S1000
;WIPE_START
G1 F8640
G1 X74.305 Y172.453 E-.21636
G1 X74.384 Y172.565 E-.03165
G1 X74.425 Y172.729 E-.03903
G1 X74.413 Y172.855 E-.02923
G1 X74.363 Y172.972 E-.02938
G1 X74.282 Y173.069 E-.02918
G1 X74.196 Y173.128 E-.02408
G1 X73.412 Y173.128 E-.18103
;WIPE_END
G1 E-.42006 F2100
G1 Z.4 F720
G1 X59.725 Y178.425 F10800
G1 Z.2 F720
G1 E1 F2100
M204 S800
G1 F1200
G1 X50.325 Y178.425 E.4745
G1 X50.325 Y167.725 E.54012
G1 X59.725 Y167.725 E.4745
G1 X59.725 Y178.334 E.53553
M204 S1000
G1 X50.598 Y177.849 F10800
M204 S800
G1 F1200
G1 X59.179 Y177.849 E.43316
G1 X59.179 Y177.175 E.03402
G1 X50.871 Y177.175 E.41938
G1 X50.871 Y176.5 E.03407
G1 X59.179 Y176.5 E.41938
G1 X59.179 Y175.826 E.03402
G1 X50.871 Y175.826 E.41938
G1 X50.871 Y175.151 E.03407
G1 X59.179 Y175.151 E.41938
G1 X59.179 Y174.477 E.03402
G1 X50.871 Y174.477 E.41938
G1 X50.871 Y173.802 E.03407
G1 X59.179 Y173.802 E.41938
G1 X59.179 Y173.128 E.03402
G1 X50.871 Y173.128 E.41938
G1 X50.871 Y172.453 E.03407
G1 X59.179 Y172.453 E.41938
G1 X59.179 Y171.779 E.03402
G1 X50.871 Y171.779 E.41938
G1 X50.871 Y171.104 E.03407
G1 X59.179 Y171.104 E.41938
G1 X59.179 Y170.43 E.03402
G1 X50.871 Y170.43 E.41938
G1 X50.871 Y169.755 E.03407
G1 X59.179 Y169.755 E.41938
G1 X59.179 Y169.081 E.03402
G1 X50.871 Y169.081 E.41938
G1 X50.871 Y168.406 E.03407
G1 X59.452 Y168.406 E.43316
M204 S1000
;WIPE_START
G1 F8640
G1 X55.121 Y168.406 E-1
;WIPE_END
G1 Z.4 F720
G1 X161.377 Y178.425 F10800
G1 Z.2 F720
G1 E1 F2100
M204 S800
G1 F1200
G1 X88.623 Y178.425 E3.67254
G1 X98.673 Y168.375 E.71745
G1 X151.327 Y168.375 E2.65791
G1 X161.312 Y178.361 E.71284
M204 S1000
G1 X89.585 Y177.849 F10800
M204 S800
G1 F1200
G1 X160.029 Y177.849 E3.55593
G1 X159.354 Y177.175 E.04815
G1 X90.646 Y177.175 E3.4683
G1 X91.32 Y176.5 E.04815
G1 X158.68 Y176.5 E3.40026
G1 X158.005 Y175.826 E.04815
G1 X91.995 Y175.826 E3.33211
G1 X92.669 Y175.151 E.04815
G1 X157.331 Y175.151 E3.26406
G1 X156.656 Y174.477 E.04815
G1 X93.344 Y174.477 E3.19592
G1 X94.019 Y173.802 E.04819
G1 X155.981 Y173.802 E3.12777
G1 X155.307 Y173.128 E.04812
G1 X94.693 Y173.128 E3.05973
G1 X95.368 Y172.453 E.04819
G1 X154.632 Y172.453 E2.99158
G1 X153.958 Y171.779 E.04812
G1 X96.042 Y171.779 E2.92353
G1 X96.717 Y171.104 E.04819
M73 P0 R188
G1 X153.283 Y171.104 E2.85539
G1 X152.609 Y170.43 E.04812
G1 X97.391 Y170.43 E2.78734
M73 Q0 S190
G1 X98.066 Y169.755 E.04819
G1 X151.934 Y169.755 E2.7192
G1 X151.26 Y169.081 E.04812
G1 X98.354 Y169.081 E2.67064
M204 S1000
;WIPE_START
G1 F8640
G1 X102.685 Y169.081 E-1
;WIPE_END
G1 Z.4 F720
G1 X176.121 Y171.785 F10800
G1 Z.2 F720
G1 E1 F2100
M204 S800
G1 F1200
G1 X176.4 Y171.863 E.01462
G1 X176.568 Y171.96 E.00979
G1 X176.713 Y172.088 E.00976
G1 X176.83 Y172.243 E.0098
G1 X176.914 Y172.417 E.00975
G1 X176.962 Y172.605 E.00979
G1 X176.972 Y172.798 E.00976
G1 X176.943 Y172.99 E.0098
G1 X176.877 Y173.172 E.00977
G1 X176.776 Y173.338 E.00981
G1 X176.644 Y173.48 E.00979
G1 X176.486 Y173.593 E.00981
G1 X176.31 Y173.672 E.00974
G1 X176.121 Y173.715 E.00978
G1 X175.927 Y173.72 E.0098
G1 X175.737 Y173.687 E.00973
G1 X175.556 Y173.616 E.00981
G1 X175.393 Y173.511 E.00979
G1 X175.255 Y173.375 E.00978
G1 X175.146 Y173.215 E.00977
G1 X175.07 Y173.037 E.00977
G1 X175.032 Y172.847 E.00978
G1 X175.032 Y172.653 E.00979
G1 X175.07 Y172.463 E.00978
G1 X175.146 Y172.285 E.00977
G1 X175.255 Y172.125 E.00977
G1 X175.393 Y171.989 E.00978
G1 X175.556 Y171.884 E.00979
G1 X175.736 Y171.813 E.00977
G1 X176.03 Y171.778 E.01495
M204 S1000
G1 X175.412 Y173.128 F10800
M204 S800
G1 F1200
G1 X176.196 Y173.128 E.03958
G1 X176.282 Y173.069 E.00526
G1 X176.363 Y172.972 E.00638
G1 X176.413 Y172.855 E.00642
G1 X176.425 Y172.729 E.00639
G1 X176.384 Y172.565 E.00853
G1 X176.305 Y172.453 E.00692
G1 X175.368 Y172.453 E.0473
M204 S1000
;WIPE_START
G1 F8640
G1 X176.305 Y172.453 E-.21636
G1 X176.384 Y172.565 E-.03165
G1 X176.425 Y172.729 E-.03903
G1 X176.413 Y172.855 E-.02923
G1 X176.363 Y172.972 E-.02938
G1 X176.282 Y173.069 E-.02918
G1 X176.196 Y173.128 E-.02408
G1 X175.412 Y173.128 E-.18103
;WIPE_END
G1 E-.42006 F2100
G1 Z.4 F720
G1 X199.675 Y167.725 F10800
G1 Z.2 F720
G1 E1 F2100
M204 S800
G1 F1200
G1 X199.675 Y178.425 E.54012
G1 X190.275 Y178.425 E.4745
G1 X190.275 Y167.725 E.54012
G1 X199.584 Y167.725 E.46991
M204 S1000
G1 X190.548 Y177.849 F10800
M204 S800
G1 F1200
G1 X199.129 Y177.849 E.43316
G1 X199.129 Y177.175 E.03402
G1 X190.821 Y177.175 E.41938
G1 X190.821 Y176.5 E.03407
G1 X199.129 Y176.5 E.41938
G1 X199.129 Y175.826 E.03402
G1 X190.821 Y175.826 E.41938
G1 X190.821 Y175.151 E.03407
G1 X199.129 Y175.151 E.41938
G1 X199.129 Y174.477 E.03402
G1 X190.821 Y174.477 E.41938
G1 X190.821 Y173.802 E.03407
G1 X199.129 Y173.802 E.41938
G1 X199.129 Y173.128 E.03402
G1 X190.821 Y173.128 E.41938
G1 X190.821 Y172.453 E.03407
G1 X199.129 Y172.453 E.41938
G1 X199.129 Y171.779 E.03402
G1 X190.821 Y171.779 E.41938
G1 X190.821 Y171.104 E.03407
G1 X199.129 Y171.104 E.41938
G1 X199.129 Y170.43 E.03402
G1 X190.821 Y170.43 E.41938
G1 X190.821 Y169.755 E.03407
G1 X199.129 Y169.755 E.41938
G1 X199.129 Y169.081 E.03402
G1 X190.821 Y169.081 E.41938
G1 X190.821 Y168.406 E.03407
G1 X199.402 Y168.406 E.43316
M204 S1000
;WIPE_START
G1 F8640
G1 X195.071 Y168.406 E-1
;WIPE_END
G1 Z.4 F720
G1 X97.757 Y165.647 F10800
G1 Z.2 F720
G1 E1 F2100
M204 S800
;TYPE:Perimeter
;WIDTH:0.649999
G1 F1200
G1 X97.547 Y165.692 E.01084
G1 X97.264 Y165.885 E.01729
G1 X85.531 Y177.618 E.83759
G1 X75.829 Y177.618 E.48975
;WIDTH:0.686452
G1 X74.906 Y177.6 E.0494
G1 X73.994 Y177.622 E.04882
;WIDTH:0.659772
G1 X72.404 Y177.618 E.08155
;WIDTH:0.649999
G1 X63.032 Y177.618 E.47309
G1 X63.032 Y74.767 E5.1918
G1 X63.073 Y73.199 E.07918
M73 P1 R188
M73 Q1 S190
G1 X63.179 Y71.764 E.07263
G1 X63.356 Y70.332 E.07284
G1 X63.618 Y68.806 E.07816
G1 X63.96 Y67.296 E.07815
G1 X64.344 Y65.906 E.07279
G1 X64.797 Y64.536 E.07284
G1 X65.352 Y63.091 E.07814
G1 X65.982 Y61.676 E.07819
G1 X66.63 Y60.388 E.07278
G1 X67.341 Y59.133 E.07281
G1 X68.168 Y57.823 E.0782
G1 X68.998 Y56.644 E.07278
G1 X69.949 Y55.421 E.0782
G1 X70.89 Y54.33 E.07273
G1 X71.956 Y53.206 E.0782
G1 X73.08 Y52.14 E.0782
G1 X74.171 Y51.199 E.07273
G1 X75.394 Y50.248 E.0782
G1 X76.573 Y49.417 E.07281
G1 X77.792 Y48.646 E.07281
G1 X79.138 Y47.88 E.07818
G1 X80.522 Y47.186 E.07815
G1 X81.841 Y46.602 E.07282
G1 X83.186 Y46.083 E.07277
G1 X84.656 Y45.594 E.0782
G1 X86.149 Y45.184 E.07815
G1 X87.556 Y44.868 E.07279
G1 X88.977 Y44.621 E.07281
G1 X90.514 Y44.429 E.07819
G1 X91.949 Y44.323 E.07263
G1 X93.517 Y44.282 E.07918
G1 X156.54 Y44.285 E3.18133
G1 X158.051 Y44.323 E.0763
G1 X159.486 Y44.429 E.07263
G1 X160.918 Y44.606 E.07284
G1 X162.445 Y44.868 E.07821
G1 X163.851 Y45.184 E.07274
G1 X165.344 Y45.594 E.07815
G1 X166.814 Y46.083 E.0782
G1 X168.159 Y46.602 E.07277
G1 X169.478 Y47.186 E.07282
G1 X170.863 Y47.88 E.0782
G1 X172.117 Y48.591 E.07277
G1 X173.427 Y49.417 E.07817
G1 X174.691 Y50.311 E.07815
G1 X175.828 Y51.198 E.07279
G1 X176.999 Y52.212 E.07819
G1 X178.043 Y53.206 E.07277
G1 X179.11 Y54.33 E.07823
G1 X180.052 Y55.422 E.0728
G1 X180.939 Y56.559 E.07279
G1 X181.833 Y57.824 E.07819
G1 X182.604 Y59.042 E.07277
G1 X183.37 Y60.388 E.07818
G1 X184.064 Y61.772 E.07815
G1 X184.648 Y63.091 E.07282
G1 X185.167 Y64.436 E.07277
G1 X185.656 Y65.906 E.0782
G1 X186.066 Y67.399 E.07815
G1 X186.382 Y68.806 E.07279
G1 X186.629 Y70.227 E.07281
G1 X186.821 Y71.764 E.07819
G1 X186.927 Y73.199 E.07263
G1 X186.968 Y74.767 E.07918
G1 X186.968 Y177.618 E5.1918
G1 X177.829 Y177.618 E.46133
;WIDTH:0.68645
G1 X176.906 Y177.6 E.0494
G1 X175.994 Y177.622 E.04882
;WIDTH:0.659772
G1 X174.404 Y177.618 E.08155
;WIDTH:0.649999
G1 X164.469 Y177.618 E.50151
G1 X152.731 Y165.88 E.83795
G1 X152.426 Y165.682 E.01836
G1 X152.092 Y165.618 E.01717
G1 X97.845 Y165.627 E2.73832
M204 S1000
G1 X97.906 Y166.225 F10800
M204 S800
;TYPE:External perimeter
G1 F1200
G1 X97.696 Y166.312 E.01147
G1 X85.783 Y178.225 E.85044
G1 X62.425 Y178.225 E1.17908
G1 X62.425 Y74.759 E5.22284
G1 X62.467 Y73.169 E.08029
G1 X62.575 Y71.704 E.07415
G1 X62.755 Y70.244 E.07426
G1 X63.022 Y68.688 E.07969
G1 X63.371 Y67.148 E.07971
G1 X63.763 Y65.729 E.07431
G1 X64.225 Y64.332 E.07428
G1 X64.791 Y62.858 E.0797
G1 X65.433 Y61.416 E.07968
G1 X66.094 Y60.101 E.07429
G1 X66.82 Y58.821 E.07428
G1 X67.662 Y57.486 E.07967
G1 X68.51 Y56.283 E.0743
G1 X69.479 Y55.036 E.07972
G1 X70.44 Y53.922 E.07427
G1 X71.527 Y52.777 E.0797
G1 X72.672 Y51.69 E.0797
G1 X73.786 Y50.729 E.07427
G1 X75.033 Y49.76 E.07972
G1 X76.236 Y48.912 E.0743
G1 X77.479 Y48.125 E.07426
G1 X78.851 Y47.344 E.07969
G1 X80.263 Y46.637 E.07971
G1 X81.608 Y46.041 E.07426
G1 X82.981 Y45.511 E.07429
G1 X84.479 Y45.013 E.07969
G1 X86.002 Y44.595 E.07972
G1 X87.438 Y44.272 E.0743
G1 X88.887 Y44.021 E.07423
G1 X90.454 Y43.825 E.07972
G1 X91.919 Y43.717 E.07415
G1 X93.509 Y43.675 E.08029
G1 X156.547 Y43.678 E3.18208
G1 X158.081 Y43.717 E.07746
M73 P1 R187
G1 X159.546 Y43.825 E.07415
G1 X161.006 Y44.005 E.07426
G1 X162.563 Y44.272 E.07974
G1 X163.998 Y44.595 E.07425
G1 X165.521 Y45.013 E.07972
G1 X167.019 Y45.511 E.07969
G1 X168.392 Y46.041 E.07429
G1 X169.737 Y46.637 E.07426
G1 X171.149 Y47.345 E.07973
G1 X172.429 Y48.07 E.07426
G1 X173.764 Y48.912 E.07967
G1 X175.054 Y49.823 E.07972
G1 X176.213 Y50.729 E.07426
G1 X177.407 Y51.762 E.0797
G1 X178.473 Y52.777 E.0743
M73 Q1 S189
G1 X179.56 Y53.922 E.0797
G1 X180.521 Y55.036 E.07427
G1 X181.426 Y56.196 E.07427
G1 X182.338 Y57.486 E.07975
G1 X183.125 Y58.729 E.07426
G1 X183.906 Y60.101 E.07969
G1 X184.613 Y61.513 E.07971
G1 X185.209 Y62.858 E.07426
G1 X185.739 Y64.231 E.07429
G1 X186.237 Y65.729 E.07969
G1 X186.655 Y67.252 E.07972
G1 X186.978 Y68.688 E.0743
G1 X187.229 Y70.137 E.07423
G1 X187.425 Y71.704 E.07972
G1 X187.533 Y73.169 E.07415
G1 X187.575 Y74.759 E.08029
G1 X187.575 Y178.225 E5.22284
G1 X164.217 Y178.225 E1.17908
G1 X152.287 Y166.296 E.85162
G1 X152.092 Y166.225 E.01048
G1 X97.996 Y166.225 E2.7307
M204 S1000
G1 X97.746 Y166.064 F10800
;WIPE_START
G1 F8640
G1 X97.696 Y166.312 E-.07212
G1 X94.854 Y169.154 E-.92788
;WIPE_END
G1 Z.4 F720
G1 X75.639 Y168.806 F10800
G1 Z.2 F720
G1 E1 F2100
M204 S800
;TYPE:Perimeter
G1 F1200
G1 X76.186 Y169.071 E.03068
G1 X76.857 Y169.566 E.04209
G1 X77.431 Y170.195 E.04298
G1 X77.869 Y170.926 E.04302
G1 X78.154 Y171.729 E.04301
G1 X78.274 Y172.572 E.04298
G1 X78.243 Y173.309 E.03724
G1 X78.051 Y174.128 E.04246
G1 X77.697 Y174.903 E.04301
G1 X77.197 Y175.593 E.04301
G1 X76.571 Y176.17 E.04298
G1 X75.842 Y176.612 E.04303
;WIDTH:0.677906
G1 X75.045 Y176.913 E.04498
G1 X74.197 Y177.021 E.04514
;WIDTH:0.666668
G1 X73.346 Y176.987 E.04417
G1 X72.522 Y176.765 E.04426
;WIDTH:0.649999
G1 X71.755 Y176.393 E.04303
G1 X71.078 Y175.876 E.043
G1 X70.517 Y175.235 E.043
G1 X70.093 Y174.495 E.04305
G1 X69.825 Y173.686 E.04302
G1 X69.722 Y172.841 E.04297
G1 X69.789 Y171.991 E.04304
G1 X70.023 Y171.172 E.043
G1 X70.415 Y170.415 E.04303
G1 X70.948 Y169.751 E.04298
G1 X71.603 Y169.206 E.04301
G1 X72.353 Y168.801 E.04303
G1 X73.168 Y168.553 E.043
G1 X73.905 Y168.472 E.03743
G1 X74.739 Y168.537 E.04223
G1 X75.558 Y168.766 E.04293
M204 S1000
G1 X75.416 Y169.364 F10800
M204 S800
;TYPE:External perimeter
G1 F1200
G1 X75.909 Y169.612 E.02786
G1 X76.488 Y170.048 E.03659
G1 X76.974 Y170.595 E.03694
G1 X77.342 Y171.227 E.03692
G1 X77.578 Y171.919 E.03691
G1 X77.671 Y172.645 E.03695
G1 X77.637 Y173.271 E.03165
G1 X77.462 Y173.978 E.03677
G1 X77.15 Y174.64 E.03694
G1 X76.713 Y175.226 E.0369
G1 X76.169 Y175.715 E.03692
G1 X75.538 Y176.086 E.03695
G1 X74.847 Y176.325 E.03691
G1 X74.122 Y176.422 E.03692
G1 X73.392 Y176.373 E.03693
G1 X72.686 Y176.181 E.03693
G1 X72.032 Y175.852 E.03696
