; generated by PrusaSlicer 2.6.0-alpha6+linux-x64-GTK3 on 2023-04-11 at 15:37:43 UTC

; 

; external perimeters extrusion width = 0.65mm
; perimeters extrusion width = 0.65mm
; infill extrusion width = 0.65mm
; solid infill extrusion width = 0.65mm
; top infill extrusion width = 0.60mm
; support material extrusion width = 0.55mm
; first layer extrusion width = 0.65mm

M73 P0 R139
M73 Q0 S140
M201 X1000 Y1000 Z200 E5000 ; sets maximum accelerations, mm/sec^2
M203 X200 Y200 Z12 E120 ; sets maximum feedrates, mm / sec
M204 S1250 T1250 ; sets acceleration (S) and retract acceleration (R), mm/sec^2
M205 X8.00 Y8.00 Z0.40 E4.50 ; sets the jerk limits, mm/sec
M205 S0 T0 ; sets the minimum extruding and travel feed rate, mm/sec
;TYPE:Custom
M862.3 P "MK3S" ; printer model check
M862.1 P0.6 ; nozzle diameter check
M115 U3.10.1 ; tell printer latest fw version
G90 ; use absolute coordinates
M83 ; extruder relative mode
M104 S240 ; set extruder temp
M140 S85 ; set bed temp
M190 S85 ; wait for bed temp
M109 S240 ; wait for extruder temp
G28 W ; home all without mesh bed level
G80 ; mesh bed leveling
G1 Z0.2 F720
G1 Y-3 F1000 ; go outside print area
G92 E0
G1 X60 E9 F1000 ; intro line
G1 X100 E12.5 F1000 ; intro line
G92 E0
M221 S95
G21 ; set units to millimeters
G90 ; use absolute coordinates
M83 ; use relative distances for extrusion
M900 K0.04 ; Filament gcode LA 1.5
M900 K24 ; Filament gcode LA 1.0
M107
;LAYER_CHANGE
;Z:0.2
;HEIGHT:0.2
;BEFORE_LAYER_CHANGE
G92 E0.0
;0.2


G1 E-1 F2100
G1 Z.2 F720
;AFTER_LAYER_CHANGE
;0.2
G1 Z.4
G1 X50.285 Y31.125 F10800
G1 Z.2 F720
G1 E1 F2100
M204 S800
;TYPE:Skirt/Brim
;WIDTH:0.65
G1 F1200
G1 X51.344 Y30.163 E.07222
G1 X52.5 Y29.893 E.05992
G1 X197.5 Y29.893 E7.31944
G1 X198.875 Y30.285 E.07217
G1 X199.837 Y31.344 E.07222
G1 X200.107 Y32.5 E.05992
G1 X200.107 Y136.5 E5.2498
G1 X200.057 Y138.576 E.10482
G1 X199.903 Y140.711 E.10805
G1 X199.644 Y142.835 E.10801
G1 X199.281 Y144.944 E.10803
G1 X198.784 Y147.158 E.11454
G1 X197.579 Y151.13 E.20953
G1 X196.811 Y153.128 E.10805
G1 X195.947 Y155.086 E.10803
G1 X194.927 Y157.112 E.1145
G1 X193.869 Y158.973 E.10806
G1 X192.722 Y160.78 E.10804
G1 X190.249 Y164.114 E.20954
G1 X188.853 Y165.737 E.10806
G1 X187.38 Y167.289 E.10801
G1 X185.832 Y168.767 E.10804
G1 X184.213 Y170.168 E.10808
G1 X182.528 Y171.487 E.10802
G1 X180.78 Y172.722 E.10804
G1 X178.973 Y173.869 E.10804
G1 X177.112 Y174.927 E.10806
G1 X175.202 Y175.892 E.10802
G1 X173.247 Y176.762 E.10802
G1 X171.251 Y177.536 E.10807
G1 X169.219 Y178.21 E.10807
G1 X167.158 Y178.784 E.108
G1 X165.07 Y179.256 E.10806
G1 X162.962 Y179.625 E.10803
G1 X160.838 Y179.89 E.10805
G1 X158.704 Y180.051 E.10803
G1 X156.5 Y180.107 E.11129
G1 X93.5 Y180.107 E3.18017
G1 X91.296 Y180.051 E.11129
G1 X87.165 Y179.644 E.20954
G1 X84.93 Y179.256 E.11451
G1 X82.842 Y178.784 E.10806
G1 X80.781 Y178.21 E.108
G1 X76.872 Y176.811 E.20958
G1 X74.798 Y175.892 E.11451
G1 X71.137 Y173.935 E.20955
G1 X69.22 Y172.722 E.11451
G1 X65.886 Y170.249 E.20954
G1 X64.263 Y168.853 E.10806
G1 X62.711 Y167.38 E.10801
G1 X61.233 Y165.832 E.10804
G1 X59.832 Y164.213 E.10808
G1 X58.437 Y162.425 E.11448
G1 X56.131 Y158.973 E.20956
G1 X55.073 Y157.112 E.10806
G1 X54.108 Y155.202 E.10802
G1 X53.238 Y153.247 E.10802
G1 X52.464 Y151.251 E.10807
G1 X51.79 Y149.219 E.10807
G1 X51.234 Y147.222 E.10464
G1 X50.719 Y144.944 E.11789
G1 X50.356 Y142.835 E.10803
G1 X50.097 Y140.71 E.10806
G1 X49.943 Y138.576 E.108
G1 X49.893 Y136.5 E.10482
G1 X49.893 Y32.5 E5.2498
G1 X50.261 Y31.211 E.06767
M204 S1000
; printing object GPS_bottom_L.stl id:0 copy 0
;WIPE_START
G1 F8640
G1 X51.344 Y30.163 E-.34798
G1 X52.5 Y29.893 E-.27411
G1 X54.137 Y29.893 E-.37791
;WIPE_END
G1 Z.4 F720
G1 X74.001 Y38.387 F10800
G1 Z.2 F720
G1 E1 F2100
M204 S800
;TYPE:Support material
G1 F1200
G1 X74.024 Y38.406 E.00151
G1 X74.013 Y38.432 E.00143
M204 S1000
;WIPE_START
G1 F8640
G1 X74.024 Y38.406 E-.00652
G1 X74.001 Y38.387 E-.00689
;WIPE_END
G1 E-.98659 F2100
G1 Z.4 F720
G1 X176.001 Y38.387 F10800
G1 Z.2 F720
M73 Q0 S139
G1 E1 F2100
M204 S800
G1 F1200
G1 X176.024 Y38.406 E.00151
G1 X176.013 Y38.432 E.00143
M204 S1000
;WIPE_START
G1 F8640
G1 X176.024 Y38.406 E-.00652
G1 X176.001 Y38.387 E-.00689
;WIPE_END
G1 E-.98659 F2100
G1 Z.4 F720
G1 X53.632 Y33.632 F10800
G1 Z.2 F720
G1 E1 F2100
M204 S800
;TYPE:Perimeter
;WIDTH:0.649999
G1 F1200
G1 X196.368 Y33.632 E7.20515
G1 X196.368 Y136.486 E5.19195
G1 X196.32 Y138.456 E.09947
M73 P0 R138
G1 X196.176 Y140.408 E.0988
G1 X195.936 Y142.35 E.09878
G1 X195.602 Y144.278 E.09877
G1 X195.173 Y146.187 E.09877
G1 X194.651 Y148.073 E.09878
G1 X194.037 Y149.931 E.09878
G1 X193.333 Y151.757 E.09879
G1 X192.54 Y153.546 E.09878
G1 X191.66 Y155.293 E.09874
G1 X190.696 Y156.996 E.09878
G1 X189.649 Y158.649 E.09877
G1 X188.522 Y160.249 E.09879
G1 X187.318 Y161.792 E.09879
G1 X186.04 Y163.273 E.09875
G1 X184.691 Y164.691 E.0988
G1 X183.273 Y166.04 E.0988
G1 X181.792 Y167.318 E.09875
G1 X180.249 Y168.522 E.09879
G1 X178.649 Y169.649 E.09879
G1 X176.996 Y170.696 E.09877
G1 X175.293 Y171.66 E.09878
G1 X173.546 Y172.54 E.09874
G1 X171.757 Y173.333 E.09878
G1 X169.931 Y174.037 E.09879
G1 X168.073 Y174.651 E.09878
G1 X166.187 Y175.173 E.09878
G1 X164.278 Y175.602 E.09877
G1 X162.35 Y175.936 E.09877
G1 X160.408 Y176.176 E.09878
G1 X158.456 Y176.32 E.0988
G1 X156.486 Y176.368 E.09947
G1 X93.514 Y176.368 E3.17875
G1 X91.544 Y176.32 E.09947
G1 X89.592 Y176.176 E.0988
G1 X87.65 Y175.936 E.09878
G1 X85.722 Y175.602 E.09877
G1 X83.813 Y175.173 E.09877
G1 X81.927 Y174.651 E.09878
G1 X80.069 Y174.037 E.09878
G1 X78.243 Y173.333 E.09879
G1 X76.454 Y172.54 E.09878
G1 X74.707 Y171.66 E.09874
G1 X73.004 Y170.696 E.09878
G1 X71.403 Y169.682 E.09566
G1 X69.75 Y168.521 E.10197
G1 X68.208 Y167.318 E.09872
G1 X66.727 Y166.04 E.09875
G1 X65.309 Y164.691 E.0988
G1 X63.96 Y163.273 E.0988
G1 X62.682 Y161.792 E.09875
G1 X61.478 Y160.249 E.09879
G1 X60.351 Y158.649 E.09879
G1 X59.304 Y156.996 E.09877
G1 X58.34 Y155.293 E.09878
G1 X57.46 Y153.546 E.09874
G1 X56.667 Y151.757 E.09878
G1 X55.963 Y149.931 E.09879
G1 X55.349 Y148.073 E.09878
G1 X54.827 Y146.187 E.09878
G1 X54.398 Y144.278 E.09877
G1 X54.064 Y142.35 E.09877
G1 X53.824 Y140.408 E.09878
G1 X53.68 Y138.456 E.0988
G1 X53.632 Y136.486 E.09947
G1 X53.632 Y33.722 E5.18741
M204 S1000
G1 X53.025 Y33.025 F10800
M204 S800
;TYPE:External perimeter
G1 F1200
G1 X196.975 Y33.025 E7.26643
G1 X196.975 Y136.494 E5.22299
G1 X196.926 Y138.486 E.10058
G1 X196.78 Y140.467 E.10027
G1 X196.537 Y142.439 E.1003
G1 X196.197 Y144.396 E.10027
G1 X195.762 Y146.335 E.10031
G1 X195.232 Y148.249 E.10025
G1 X194.609 Y150.136 E.10031
G1 X193.894 Y151.989 E.10026
G1 X193.089 Y153.805 E.10027
G1 X192.196 Y155.58 E.1003
G1 X191.216 Y157.308 E.10028
G1 X190.154 Y158.987 E.10029
G1 X189.01 Y160.611 E.10028
G1 X187.787 Y162.177 E.1003
G1 X186.49 Y163.681 E.10025
G1 X185.12 Y165.12 E.10029
G1 X183.681 Y166.49 E.10029
G1 X182.177 Y167.787 E.10025
G1 X180.611 Y169.01 E.1003
G1 X178.987 Y170.154 E.10028
G1 X177.308 Y171.216 E.10029
G1 X175.58 Y172.196 E.10028
G1 X173.805 Y173.089 E.1003
G1 X171.989 Y173.894 E.10027
G1 X170.136 Y174.609 E.10026
G1 X168.249 Y175.232 E.10031
G1 X166.335 Y175.762 E.10025
G1 X164.396 Y176.197 E.10031
G1 X162.439 Y176.537 E.10027
G1 X160.467 Y176.78 E.1003
G1 X158.486 Y176.926 E.10027
G1 X156.494 Y176.975 E.10058
G1 X93.506 Y176.975 E3.17956
G1 X91.514 Y176.926 E.10058
G1 X89.533 Y176.78 E.10027
G1 X87.561 Y176.537 E.1003
M73 Q1 S139
G1 X85.604 Y176.197 E.10027
G1 X83.665 Y175.762 E.10031
G1 X81.751 Y175.232 E.10025
G1 X79.864 Y174.609 E.10031
G1 X78.011 Y173.894 E.10026
M73 P1 R138
G1 X76.195 Y173.089 E.10027
G1 X74.42 Y172.196 E.1003
G1 X72.692 Y171.216 E.10028
G1 X71.066 Y170.187 E.09713
G1 X69.389 Y169.01 E.10342
G1 X67.823 Y167.787 E.1003
G1 X66.319 Y166.49 E.10025
G1 X64.88 Y165.12 E.10029
G1 X63.51 Y163.681 E.10029
G1 X62.213 Y162.177 E.10025
G1 X60.99 Y160.611 E.1003
G1 X59.846 Y158.987 E.10028
G1 X58.784 Y157.308 E.10029
G1 X57.804 Y155.58 E.10028
G1 X56.911 Y153.805 E.1003
G1 X56.106 Y151.989 E.10027
G1 X55.391 Y150.136 E.10026
G1 X54.768 Y148.249 E.10031
G1 X54.238 Y146.335 E.10025
G1 X53.803 Y144.396 E.10031
G1 X53.463 Y142.439 E.10027
G1 X53.22 Y140.467 E.1003
G1 X53.074 Y138.486 E.10027
G1 X53.025 Y136.494 E.10058
G1 X53.025 Y33.115 E5.21845
M204 S1000
G1 X53.545 Y33.325 F10800
;WIPE_START
G1 F8640
G1 X57.356 Y33.112 E-1
;WIPE_END
G1 Z.4 F720
G1 X71.422 Y37.405 F10800
G1 Z.2 F720
G1 E1 F2100
M204 S800
;TYPE:Perimeter
G1 F1200
G1 X71.583 Y37.041 E.02009
G1 X71.902 Y36.589 E.02793
G1 X72.305 Y36.209 E.02796
G1 X72.775 Y35.917 E.02793
G1 X73.294 Y35.724 E.02795
G1 X73.84 Y35.637 E.02791
G1 X74.393 Y35.66 E.02794
G1 X74.93 Y35.793 E.02793
G1 X75.431 Y36.029 E.02796
G1 X75.875 Y36.36 E.02796
G1 X76.244 Y36.772 E.02792
G1 X76.524 Y37.249 E.02792
G1 X76.705 Y37.772 E.02794
G1 X76.779 Y38.373 E.03057
G1 X76.733 Y38.915 E.02746
G1 X76.579 Y39.447 E.02796
G1 X76.346 Y39.905 E.02594
G1 X76.032 Y40.312 E.02595
G1 X75.644 Y40.656 E.02618
G1 X75.21 Y40.915 E.02551
G1 X74.707 Y41.1 E.02705
G1 X74.16 Y41.186 E.02795
G1 X73.607 Y41.163 E.02794
G1 X73.07 Y41.031 E.02791
G1 X72.569 Y40.794 E.02798
G1 X72.125 Y40.464 E.02793
G1 X71.756 Y40.052 E.02792
G1 X71.492 Y39.616 E.02573
G1 X71.305 Y39.104 E.02752
G1 X71.23 Y38.641 E.02368
G1 X71.24 Y38.087 E.02797
G1 X71.385 Y37.487 E.03116
M204 S1000
G1 X71.974 Y37.628 F10800
M204 S800
;TYPE:External perimeter
G1 F1200
G1 X72.161 Y37.253 E.02115
G1 X72.427 Y36.911 E.02187
G1 X72.756 Y36.629 E.02187
G1 X73.134 Y36.418 E.02185
G1 X73.546 Y36.286 E.02184
G1 X73.976 Y36.238 E.02184
G1 X74.407 Y36.276 E.02184
G1 X74.822 Y36.399 E.02185
G1 X75.205 Y36.602 E.02188
G1 X75.539 Y36.877 E.02184
G1 X75.813 Y37.212 E.02185
G1 X76.015 Y37.595 E.02186
G1 X76.136 Y38.004 E.02153
G1 X76.173 Y38.342 E.01716
G1 X76.145 Y38.766 E.02145
G1 X76.032 Y39.184 E.02186
G1 X75.839 Y39.571 E.02183
G1 X75.573 Y39.912 E.02183
G1 X75.244 Y40.194 E.02187
G1 X74.866 Y40.405 E.02185
G1 X74.454 Y40.538 E.02185
G1 X74.024 Y40.585 E.02184
G1 X73.593 Y40.547 E.02184
G1 X73.178 Y40.424 E.02185
G1 X72.795 Y40.221 E.02188
G1 X72.461 Y39.947 E.02181
G1 X72.191 Y39.618 E.02148
G1 X72.028 Y39.327 E.01684
G1 X71.886 Y38.919 E.02181
G1 X71.831 Y38.55 E.01883
G1 X71.855 Y38.058 E.02487
G1 X71.948 Y37.714 E.01799
M204 S1000
G1 X71.708 Y37.304 F10800
;WIPE_START
G1 F8640
G1 X72.161 Y37.253 E-.11726
G1 X72.427 Y36.911 E-.10004
G1 X72.756 Y36.629 E-.10005
G1 X73.134 Y36.418 E-.09996
G1 X73.546 Y36.286 E-.0999
G1 X73.976 Y36.238 E-.0999
G1 X74.407 Y36.276 E-.09991
G1 X74.822 Y36.399 E-.09994
G1 X75.205 Y36.602 E-.10009
G1 X75.482 Y36.83 E-.08295
;WIPE_END
G1 Z.4 F720
G1 X158.026 Y67.837 F10800
G1 Z.2 F720
G1 E1 F2100
M204 S800
;TYPE:Perimeter
G1 F1200
G1 X157.799 Y68.626 E.04144
G1 X157.375 Y69.444 E.04651
G1 X157.045 Y69.864 E.02696
G1 X156.699 Y70.26 E.02654
G1 X155.954 Y70.838 E.0476
G1 X155.466 Y71.104 E.02806
G1 X154.618 Y71.403 E.04539
G1 X153.706 Y71.536 E.04652
G1 X153.1 Y71.508 E.03062
G1 X152.607 Y71.453 E.02504
G1 X151.894 Y71.253 E.03738
G1 X151.065 Y70.848 E.04657
G1 X150.334 Y70.288 E.04648
G1 X149.728 Y69.594 E.04651
G1 X149.271 Y68.793 E.04655
G1 X148.982 Y67.918 E.04652
G1 X148.872 Y67.002 E.04657
G1 X148.946 Y66.084 E.04649
G1 X149.201 Y65.198 E.04654
G1 X149.625 Y64.38 E.04651
G1 X150.204 Y63.662 E.04656
G1 X150.913 Y63.073 E.04653
G1 X151.534 Y62.72 E.03606
G1 X152.382 Y62.42 E.04541
M73 Q1 S138
G1 X153.294 Y62.288 E.04652
G1 X154.214 Y62.339 E.04651
G1 X155.106 Y62.571 E.04653
G1 X155.608 Y62.808 E.02802
G1 X156.05 Y63.046 E.02534
G1 X156.666 Y63.536 E.03973
G1 X157.272 Y64.23 E.04651
G1 X157.729 Y65.031 E.04655
G1 X158.018 Y65.906 E.04652
G1 X158.128 Y66.821 E.04652
G1 X158.051 Y67.751 E.04711
M204 S1000
G1 X157.453 Y67.644 F10800
M204 S800
;TYPE:External perimeter
G1 F1200
G1 X157.219 Y68.447 E.04222
G1 X156.841 Y69.153 E.04042
G1 X156.331 Y69.771 E.04045
G1 X155.804 Y70.199 E.03427
G1 X155.176 Y70.57 E.03682
G1 X154.425 Y70.828 E.04008
G1 X153.631 Y70.933 E.04043
G1 X152.831 Y70.879 E.04047
G1 X152.145 Y70.693 E.03588
G1 X151.342 Y70.308 E.04495
G1 X150.712 Y69.813 E.04044
G1 X150.193 Y69.203 E.04043
G1 X149.804 Y68.502 E.04047
G1 X149.562 Y67.739 E.04041
G1 X149.476 Y66.942 E.04047
G1 X149.55 Y66.144 E.04045
G1 X149.781 Y65.377 E.04044
G1 X150.159 Y64.67 E.04047
G1 X150.669 Y64.052 E.04045
G1 X151.292 Y63.548 E.04045
G1 X151.824 Y63.253 E.03071
G1 X152.575 Y62.996 E.04007
G1 X153.369 Y62.89 E.04044
G1 X154.169 Y62.944 E.04047
G1 X154.942 Y63.155 E.04045
G1 X155.658 Y63.515 E.04045
G1 X156.288 Y64.01 E.04044
G1 X156.807 Y64.62 E.04043
G1 X157.196 Y65.321 E.04047
G1 X157.438 Y66.085 E.04045
G1 X157.524 Y66.882 E.04047
G1 X157.461 Y67.554 E.03407
M204 S1000
G1 X157.908 Y68.034 F10800
;WIPE_START
G1 F8640
G1 X157.219 Y68.447 E-.21363
G1 X156.841 Y69.153 E-.18491
G1 X156.331 Y69.771 E-.18501
G1 X155.804 Y70.199 E-.15676
G1 X155.176 Y70.57 E-.16842
G1 X154.802 Y70.698 E-.09127
;WIPE_END
G1 Z.4 F720
G1 X152.114 Y78.463 F10800
G1 Z.2 F720
G1 E1 F2100
M204 S800
;TYPE:Perimeter
G1 F1200
G1 X152.336 Y78.405 E.01158
G1 X153.269 Y78.288 E.04747
G1 X154.388 Y78.354 E.05658
G1 X155.465 Y78.637 E.05621
G1 X156.161 Y78.957 E.03867
G1 X156.895 Y79.445 E.04449
G1 X157.292 Y79.752 E.02533
G1 X157.931 Y80.442 E.04747
G1 X158.531 Y81.388 E.05655
G1 X158.931 Y82.435 E.05658
G1 X159.116 Y83.541 E.05661
G1 X159.078 Y84.661 E.05657
G1 X158.819 Y85.751 E.05655
G1 X158.349 Y86.769 E.0566
G1 X157.687 Y87.673 E.05656
G1 X156.859 Y88.428 E.05656
G1 X155.897 Y89.004 E.0566
G1 X154.926 Y89.349 E.05202
G1 X154.664 Y89.418 E.01368
G1 X153.731 Y89.535 E.04747
G1 X152.612 Y89.47 E.05658
G1 X151.528 Y89.183 E.0566
G1 X150.486 Y88.668 E.05867
G1 X149.826 Y88.178 E.04149
G1 X149.069 Y87.382 E.05545
G1 X148.469 Y86.435 E.05659
G1 X148.069 Y85.388 E.05658
G1 X147.884 Y84.283 E.05656
G1 X147.922 Y83.163 E.05657
G1 X148.192 Y82.033 E.05865
G1 X148.651 Y81.055 E.05454
G1 X149.313 Y80.15 E.0566
G1 X150.141 Y79.395 E.05656
G1 X151.103 Y78.819 E.0566
G1 X152.028 Y78.49 E.04956
M204 S1000
G1 X152.143 Y79.092 F10800
M204 S800
;TYPE:External perimeter
G1 F1200
G1 X152.267 Y79.05 E.00661
G1 X153.405 Y78.889 E.05802
G1 X154.343 Y78.959 E.04748
G1 X155.301 Y79.222 E.05015
G1 X155.898 Y79.504 E.03333
G1 X156.847 Y80.165 E.05838
G1 X157.486 Y80.854 E.04744
G1 X158.013 Y81.705 E.05053
G1 X158.361 Y82.643 E.0505
G1 X158.516 Y83.631 E.05048
G1 X158.472 Y84.631 E.05053
G1 X158.231 Y85.602 E.0505
G1 X157.802 Y86.505 E.05046
G1 X157.203 Y87.306 E.05049
G1 X156.457 Y87.973 E.05051
G1 X155.594 Y88.478 E.05047
G1 X154.733 Y88.774 E.04596
G1 X153.595 Y88.935 E.05802
G1 X152.657 Y88.864 E.04748
G1 X151.693 Y88.599 E.05047
G1 X150.776 Y88.134 E.0519
G1 X150.193 Y87.694 E.03687
G1 X149.514 Y86.969 E.05014
G1 X148.987 Y86.119 E.05048
G1 X148.639 Y85.181 E.0505
G1 X148.484 Y84.192 E.05053
G1 X148.528 Y83.193 E.05048
G1 X148.782 Y82.183 E.05257
G1 X149.198 Y81.318 E.04845
G1 X149.797 Y80.517 E.05049
G1 X150.543 Y79.851 E.05048
G1 X151.406 Y79.345 E.0505
G1 X152.058 Y79.121 E.0348
M204 S1000
G1 X152.163 Y78.962 F10800
;WIPE_START
G1 F8640
G1 X152.267 Y79.05 E-.05097
G1 X153.405 Y78.889 E-.26538
G1 X154.343 Y78.959 E-.21719
G1 X155.301 Y79.222 E-.22939
G1 X155.898 Y79.504 E-.15245
G1 X156.199 Y79.713 E-.08462
;WIPE_END
G1 Z.4 F720
G1 X158.03 Y99.994 F10800
G1 Z.2 F720
G1 E1 F2100
M204 S800
;TYPE:Perimeter
G1 F1200
G1 X158.054 Y100.084 E.0047
G1 X158.128 Y100.821 E.03739
G1 X158.054 Y101.74 E.04654
G1 X157.799 Y102.626 E.04654
G1 X157.315 Y103.539 E.05216
G1 X156.796 Y104.161 E.04089
G1 X156.087 Y104.75 E.04653
G1 X155.466 Y105.104 E.03608
G1 X154.618 Y105.403 E.04539
G1 X153.766 Y105.528 E.04347
G1 X152.885 Y105.492 E.04451
G1 X152.321 Y105.373 E.0291
G1 X151.804 Y105.222 E.02719
G1 X151.065 Y104.848 E.04181
G1 X150.334 Y104.288 E.04648
G1 X149.728 Y103.594 E.04651
G1 X149.424 Y103.074 E.03041
G1 X149.201 Y102.626 E.02526
G1 X148.982 Y101.918 E.03741
G1 X148.872 Y101.002 E.04657
G1 X148.946 Y100.084 E.04649
G1 X149.201 Y99.198 E.04654
G1 X149.625 Y98.38 E.04651
G1 X149.955 Y97.959 E.027
