; generated by PrusaSlicer 2.6.0-alpha6+linux-x64-GTK3 on 2023-04-11 at 12:48:40 UTC

; 

; external perimeters extrusion width = 0.65mm
; perimeters extrusion width = 0.65mm
; infill extrusion width = 0.65mm
; solid infill extrusion width = 0.65mm
; top infill extrusion width = 0.60mm
; support material extrusion width = 0.55mm
; first layer extrusion width = 0.65mm

M73 P0 R192
M73 Q0 S195
M201 X1000 Y1000 Z200 E5000 ; sets maximum accelerations, mm/sec^2
M203 X200 Y200 Z12 E120 ; sets maximum feedrates, mm / sec
M204 S1250 T1250 ; sets acceleration (S) and retract acceleration (R), mm/sec^2
M205 X8.00 Y8.00 Z0.40 E4.50 ; sets the jerk limits, mm/sec
M205 S0 T0 ; sets the minimum extruding and travel feed rate, mm/sec
;TYPE:Custom
M862.3 P "MK3S" ; printer model check
M862.1 P0.6 ; nozzle diameter check
M115 U3.10.1 ; tell printer latest fw version
G90 ; use absolute coordinates
M83 ; extruder relative mode
M104 S240 ; set extruder temp
M140 S85 ; set bed temp
M190 S85 ; wait for bed temp
M109 S240 ; wait for extruder temp
G28 W ; home all without mesh bed level
G80 ; mesh bed leveling
G1 Z0.2 F720
G1 Y-3 F1000 ; go outside print area
G92 E0
G1 X60 E9 F1000 ; intro line
G1 X100 E12.5 F1000 ; intro line
G92 E0
M221 S95
G21 ; set units to millimeters
G90 ; use absolute coordinates
M83 ; use relative distances for extrusion
M900 K0.04 ; Filament gcode LA 1.5
M900 K24 ; Filament gcode LA 1.0
M107
;LAYER_CHANGE
;Z:0.2
;HEIGHT:0.2
;BEFORE_LAYER_CHANGE
G92 E0.0
;0.2


G1 E-1 F2100
G1 Z.2 F720
;AFTER_LAYER_CHANGE
;0.2
G1 Z.4
G1 X45.11 Y27.2 F10800
G1 Z.2 F720
G1 E1 F2100
M204 S800
;TYPE:Skirt/Brim
;WIDTH:0.65
G1 F1200
G1 X46.169 Y26.238 E.07222
G1 X47.325 Y25.968 E.05992
G1 X202.675 Y25.968 E7.84189
G1 X204.05 Y26.36 E.07217
G1 X205.012 Y27.419 E.07222
G1 X205.282 Y28.575 E.05992
G1 X205.253 Y45.666 E.86274
G1 X190.817 Y140.72 E4.85324
G1 X190.296 Y143.337 E.1347
G1 X189.361 Y146.55 E.16892
G1 X188.586 Y148.61 E.1111
G1 X187.182 Y151.578 E.16574
G1 X186.082 Y153.483 E.11104
G1 X184.628 Y155.655 E.13194
G1 X183.326 Y157.349 E.10785
G1 X181.122 Y159.781 E.16568
G1 X178.599 Y162.076 E.17217
G1 X175.863 Y164.113 E.17218
G1 X172.94 Y165.872 E.17221
G1 X169.86 Y167.336 E.17214
G1 X166.65 Y168.491 E.17221
G1 X163.343 Y169.326 E.17217
G1 X159.97 Y169.833 E.17218
G1 X156.5 Y170.007 E.17538
G1 X93.5 Y170.007 E3.18017
G1 X90.03 Y169.833 E.17538
G1 X86.782 Y169.351 E.16575
G1 X84.639 Y168.851 E.11108
G1 X81.448 Y167.843 E.16892
G1 X78.975 Y166.819 E.13511
G1 X77.06 Y165.872 E.10784
G1 X74.137 Y164.113 E.17221
G1 X71.401 Y162.076 E.17218
G1 X68.969 Y159.872 E.16568
G1 X67.465 Y158.266 E.11107
G1 X65.809 Y156.244 E.13193
G1 X64.566 Y154.506 E.10786
G1 X62.878 Y151.69 E.16573
G1 X61.905 Y149.717 E.11105
G1 X60.907 Y147.302 E.13191
G1 X60.222 Y145.278 E.10786
G1 X59.399 Y141.968 E.17217
G1 X44.747 Y45.666 E4.91716
G1 X44.718 Y28.575 E.86274
M73 P0 R191
M73 Q0 S194
G1 X45.086 Y27.286 E.06767
M204 S1000
; printing object GPS_cover_L.stl id:0 copy 0
;WIPE_START
G1 F8640
G1 X46.169 Y26.238 E-.34798
G1 X47.325 Y25.968 E-.27411
G1 X48.962 Y25.968 E-.37791
;WIPE_END
G1 Z.4 F720
G1 X62.725 Y29.625 F10800
G1 Z.2 F720
G1 E1 F2100
M204 S800
;TYPE:Support material
G1 F1200
G1 X61.227 Y29.625 E.07562
G1 X60.275 Y30.577 E.06796
G1 X60.275 Y45.275 E.74194
G1 X47.325 Y45.275 E.6537
G1 X47.325 Y28.575 E.843
G1 X62.725 Y28.575 E.77737
G1 X62.725 Y29.534 E.04841
M204 S1000
;WIPE_START
G1 F8640
G1 X62.725 Y28.575 E-.22144
G1 X59.353 Y28.575 E-.77856
;WIPE_END
G1 Z.4 F720
G1 X47.598 Y44.292 F10800
G1 Z.2 F720
G1 E1 F2100
M204 S800
G1 F1200
G1 X59.729 Y44.292 E.61236
G1 X59.729 Y43.618 E.03402
G1 X47.871 Y43.618 E.59858
G1 X47.871 Y42.943 E.03407
G1 X59.729 Y42.943 E.59858
G1 X59.729 Y42.269 E.03402
G1 X47.871 Y42.269 E.59858
G1 X47.871 Y41.594 E.03407
G1 X59.729 Y41.594 E.59858
G1 X59.729 Y40.919 E.03407
G1 X47.871 Y40.919 E.59858
G1 X47.871 Y40.245 E.03402
G1 X59.729 Y40.245 E.59858
G1 X59.729 Y39.57 E.03407
G1 X47.871 Y39.57 E.59858
G1 X47.871 Y38.896 E.03402
G1 X59.729 Y38.896 E.59858
G1 X59.729 Y38.221 E.03407
G1 X47.871 Y38.221 E.59858
G1 X47.871 Y37.547 E.03402
G1 X59.729 Y37.547 E.59858
G1 X59.729 Y36.872 E.03407
G1 X47.871 Y36.872 E.59858
G1 X47.871 Y36.198 E.03402
G1 X59.729 Y36.198 E.59858
G1 X59.729 Y35.523 E.03407
G1 X47.871 Y35.523 E.59858
G1 X47.871 Y34.849 E.03402
G1 X59.729 Y34.849 E.59858
G1 X59.729 Y34.174 E.03407
G1 X47.871 Y34.174 E.59858
G1 X47.871 Y33.5 E.03402
G1 X59.729 Y33.5 E.59858
G1 X59.729 Y32.825 E.03407
G1 X47.871 Y32.825 E.59858
G1 X47.871 Y32.151 E.03402
G1 X59.729 Y32.151 E.59858
G1 X59.729 Y31.476 E.03407
G1 X47.871 Y31.476 E.59858
G1 X47.871 Y30.801 E.03407
G1 X59.729 Y30.801 E.59858
G1 X59.729 Y30.351 E.02272
G1 X59.952 Y30.127 E.01596
G1 X47.871 Y30.127 E.60984
G1 X47.871 Y29.452 E.03407
G1 X61.013 Y29.452 E.66339
M204 S1000
;WIPE_START
G1 F8640
G1 X56.682 Y29.452 E-1
;WIPE_END
G1 Z.4 F720
G1 X74.068 Y35.727 F10800
G1 Z.2 F720
G1 E1 F2100
M204 S800
G1 F1200
G1 X74.339 Y35.764 E.01381
G1 X74.627 Y35.86 E.01532
G1 X74.89 Y36.012 E.01533
G1 X75.118 Y36.213 E.01534
G1 X75.301 Y36.455 E.01532
G1 X75.433 Y36.729 E.01535
G1 X75.507 Y37.023 E.0153
G1 X75.523 Y37.296 E.0138
G1 X75.477 Y37.626 E.01682
G1 X75.374 Y37.911 E.0153
G1 X75.215 Y38.17 E.01534
G1 X75.031 Y38.372 E.01379
G1 X74.762 Y38.57 E.01686
G1 X74.514 Y38.685 E.0138
G1 X74.31 Y38.742 E.01069
G1 X74.008 Y38.774 E.01533
G1 X73.735 Y38.751 E.01383
G1 X73.443 Y38.669 E.01531
G1 X73.173 Y38.531 E.01531
G1 X72.936 Y38.341 E.01533
G1 X72.74 Y38.109 E.01533
G1 X72.595 Y37.842 E.01534
G1 X72.506 Y37.552 E.01531
G1 X72.476 Y37.25 E.01532
G1 X72.506 Y36.948 E.01532
G1 X72.595 Y36.658 E.01531
G1 X72.74 Y36.391 E.01534
G1 X72.936 Y36.159 E.01533
G1 X73.173 Y35.969 E.01533
G1 X73.443 Y35.831 E.01531
G1 X73.735 Y35.749 E.01531
G1 X73.977 Y35.727 E.01227
M204 S1000
G1 X73.212 Y38.221 F10800
M204 S800
G1 F1200
G1 X74.112 Y38.221 E.04543
G1 X74.321 Y38.174 E.01081
G1 X74.563 Y38.05 E.01373
G1 X74.717 Y37.915 E.01034
G1 X74.834 Y37.76 E.0098
G1 X74.931 Y37.547 E.01181
G1 X73.068 Y37.547 E.09404
G1 X73.022 Y37.24 E.01567
G1 X73.041 Y37.056 E.00934
G1 X73.098 Y36.872 E.00972
G1 X75.192 Y36.872 E.1057
M204 S1000
;WIPE_START
G1 F8640
G1 X73.098 Y36.872 E-.48351
G1 X73.041 Y37.056 E-.04448
G1 X73.022 Y37.24 E-.04271
G1 X73.068 Y37.547 E-.07168
G1 X74.617 Y37.547 E-.35762
;WIPE_END
G1 Z.4 F720
G1 X164.919 Y29.625 F10800
G1 Z.2 F720
G1 E1 F2100
M204 S800
G1 F1200
G1 X163.677 Y29.625 E.06269
G1 X163.08 Y29.872 E.03261
G1 X151.327 Y41.625 E.83902
G1 X98.673 Y41.625 E2.65791
G1 X86.92 Y29.872 E.83902
G1 X86.323 Y29.625 E.03261
G1 X85.081 Y29.625 E.06269
G1 X85.29 Y28.575 E.05404
G1 X164.71 Y28.575 E4.00903
G1 X164.902 Y29.536 E.04947
M204 S1000
G1 X98.354 Y40.919 F10800
M204 S800
G1 F1200
G1 X151.26 Y40.919 E2.67064
G1 X151.934 Y40.245 E.04812
G1 X98.066 Y40.245 E2.7192
G1 X97.391 Y39.57 E.04819
G1 X152.609 Y39.57 E2.78734
G1 X153.283 Y38.896 E.04812
G1 X96.717 Y38.896 E2.85539
G1 X96.042 Y38.221 E.04819
G1 X153.958 Y38.221 E2.92353
G1 X154.632 Y37.547 E.04812
G1 X95.368 Y37.547 E2.99158
G1 X94.693 Y36.872 E.04819
G1 X155.307 Y36.872 E3.05973
G1 X155.981 Y36.198 E.04812
G1 X94.019 Y36.198 E3.12777
G1 X93.344 Y35.523 E.04819
G1 X156.656 Y35.523 E3.19592
G1 X157.331 Y34.849 E.04815
M73 Q0 S193
G1 X92.669 Y34.849 E3.26406
G1 X91.995 Y34.174 E.04815
M73 P0 R190
G1 X158.005 Y34.174 E3.33211
G1 X158.68 Y33.5 E.04815
G1 X91.32 Y33.5 E3.40026
G1 X90.646 Y32.825 E.04815
G1 X159.354 Y32.825 E3.4683
G1 X160.029 Y32.151 E.04815
G1 X89.971 Y32.151 E3.53645
G1 X89.297 Y31.476 E.04815
G1 X160.703 Y31.476 E3.60449
G1 X161.378 Y30.801 E.04819
G1 X88.622 Y30.801 E3.67264
G1 X87.948 Y30.127 E.04812
M73 P1 R190
G1 X162.052 Y30.127 E3.74069
G1 X162.727 Y29.452 E.04819
M73 Q1 S193
G1 X86.62 Y29.452 E3.8418
M204 S1000
;WIPE_START
G1 F8640
G1 X90.951 Y29.452 E-1
;WIPE_END
G1 Z.4 F720
G1 X176.068 Y35.727 F10800
G1 Z.2 F720
G1 E1 F2100
M204 S800
G1 F1200
G1 X176.339 Y35.764 E.01381
G1 X176.627 Y35.86 E.01532
G1 X176.89 Y36.012 E.01533
G1 X177.118 Y36.213 E.01534
G1 X177.301 Y36.455 E.01532
G1 X177.433 Y36.729 E.01535
G1 X177.507 Y37.023 E.0153
G1 X177.523 Y37.296 E.0138
G1 X177.484 Y37.597 E.01532
G1 X177.421 Y37.8 E.01073
G1 X177.301 Y38.045 E.01377
G1 X177.096 Y38.309 E.01687
G1 X176.89 Y38.488 E.01378
G1 X176.627 Y38.64 E.01533
G1 X176.339 Y38.736 E.01532
G1 X176.008 Y38.774 E.01682
G1 X175.735 Y38.751 E.01383
G1 X175.443 Y38.669 E.01531
G1 X175.173 Y38.531 E.01531
G1 X174.936 Y38.341 E.01533
G1 X174.74 Y38.109 E.01533
G1 X174.595 Y37.842 E.01534
G1 X174.506 Y37.552 E.01531
G1 X174.476 Y37.25 E.01532
G1 X174.506 Y36.948 E.01532
G1 X174.595 Y36.658 E.01531
G1 X174.74 Y36.391 E.01534
G1 X174.936 Y36.159 E.01533
G1 X175.173 Y35.969 E.01533
G1 X175.443 Y35.831 E.01531
G1 X175.735 Y35.749 E.01531
G1 X175.977 Y35.727 E.01227
M204 S1000
G1 X175.212 Y38.221 F10800
M204 S800
G1 F1200
G1 X176.112 Y38.221 E.04543
G1 X176.321 Y38.174 E.01081
G1 X176.563 Y38.05 E.01373
G1 X176.717 Y37.915 E.01034
G1 X176.834 Y37.76 E.0098
G1 X176.931 Y37.547 E.01181
G1 X175.068 Y37.547 E.09404
G1 X175.022 Y37.24 E.01567
G1 X175.041 Y37.056 E.00934
G1 X175.098 Y36.872 E.00972
G1 X177.192 Y36.872 E.1057
M204 S1000
;WIPE_START
G1 F8640
G1 X175.098 Y36.872 E-.48351
G1 X175.041 Y37.056 E-.04448
G1 X175.022 Y37.24 E-.04271
G1 X175.068 Y37.547 E-.07168
G1 X176.617 Y37.547 E-.35762
;WIPE_END
G1 Z.4 F720
G1 X202.675 Y45.275 F10800
G1 Z.2 F720
G1 E1 F2100
M204 S800
G1 F1200
G1 X189.725 Y45.275 E.6537
G1 X189.725 Y30.577 E.74194
G1 X188.773 Y29.625 E.06796
G1 X187.275 Y29.625 E.07562
G1 X187.275 Y28.575 E.053
G1 X202.675 Y28.575 E.77737
G1 X202.675 Y45.184 E.8384
M204 S1000
G1 X189.998 Y44.292 F10800
M204 S800
G1 F1200
G1 X202.129 Y44.292 E.61236
G1 X202.129 Y43.618 E.03402
G1 X190.271 Y43.618 E.59858
G1 X190.271 Y42.943 E.03407
G1 X202.129 Y42.943 E.59858
G1 X202.129 Y42.269 E.03402
G1 X190.271 Y42.269 E.59858
G1 X190.271 Y41.594 E.03407
G1 X202.129 Y41.594 E.59858
G1 X202.129 Y40.919 E.03407
G1 X190.271 Y40.919 E.59858
G1 X190.271 Y40.245 E.03402
G1 X202.129 Y40.245 E.59858
G1 X202.129 Y39.57 E.03407
G1 X190.271 Y39.57 E.59858
G1 X190.271 Y38.896 E.03402
G1 X202.129 Y38.896 E.59858
G1 X202.129 Y38.221 E.03407
G1 X190.271 Y38.221 E.59858
G1 X190.271 Y37.547 E.03402
G1 X202.129 Y37.547 E.59858
G1 X202.129 Y36.872 E.03407
G1 X190.271 Y36.872 E.59858
G1 X190.271 Y36.198 E.03402
G1 X202.129 Y36.198 E.59858
G1 X202.129 Y35.523 E.03407
G1 X190.271 Y35.523 E.59858
G1 X190.271 Y34.849 E.03402
G1 X202.129 Y34.849 E.59858
G1 X202.129 Y34.174 E.03407
G1 X190.271 Y34.174 E.59858
G1 X190.271 Y33.5 E.03402
G1 X202.129 Y33.5 E.59858
G1 X202.129 Y32.825 E.03407
G1 X190.271 Y32.825 E.59858
G1 X190.271 Y32.151 E.03402
G1 X202.129 Y32.151 E.59858
G1 X202.129 Y31.476 E.03407
G1 X190.271 Y31.476 E.59858
G1 X190.271 Y30.801 E.03407
G1 X202.129 Y30.801 E.59858
G1 X202.129 Y30.127 E.03402
G1 X190.048 Y30.127 E.60984
G1 X189.373 Y29.452 E.04819
G1 X202.402 Y29.452 E.65769
M204 S1000
;WIPE_START
G1 F8640
G1 X198.071 Y29.452 E-1
;WIPE_END
G1 Z.4 F720
G1 X152.634 Y44.183 F10800
G1 Z.2 F720
G1 E1 F2100
M204 S800
;TYPE:Perimeter
;WIDTH:0.649999
G1 F1200
G1 X152.731 Y44.12 E.00584
G1 X164.469 Y32.382 E.83795
G1 X174.404 Y32.382 E.50151
;WIDTH:0.667271
G1 X176.099 Y32.378 E.088
;WIDTH:0.664316
G1 X177.691 Y32.382 E.08226
;WIDTH:0.649999
G1 X186.968 Y32.382 E.46829
G1 X186.968 Y135.233 E5.1918
G1 X186.927 Y136.801 E.07918
M73 P1 R189
M73 Q1 S192
G1 X186.821 Y138.236 E.07263
G1 X186.629 Y139.773 E.07819
G1 X186.382 Y141.193 E.07276
G1 X186.04 Y142.704 E.0782
G1 X185.656 Y144.094 E.07279
G1 X185.203 Y145.464 E.07284
G1 X184.648 Y146.91 E.07818
G1 X184.064 Y148.228 E.07277
G1 X183.37 Y149.612 E.07815
G1 X182.604 Y150.958 E.07818
G1 X181.833 Y152.177 E.07281
G1 X181.002 Y153.356 E.07281
G1 X180.051 Y154.579 E.0782
G1 X179.11 Y155.67 E.07273
G1 X178.043 Y156.794 E.07823
G1 X176.999 Y157.788 E.07277
G1 X175.828 Y158.802 E.07819
G1 X174.691 Y159.689 E.07279
G1 X173.427 Y160.583 E.07815
G1 X172.117 Y161.409 E.07817
G1 X170.862 Y162.12 E.07281
G1 X169.574 Y162.768 E.07278
G1 X168.159 Y163.398 E.07819
G1 X166.714 Y163.953 E.07814
G1 X165.344 Y164.406 E.07284
G1 X163.954 Y164.79 E.07279
G1 X162.444 Y165.132 E.07815
G1 X160.918 Y165.394 E.07816
G1 X159.486 Y165.571 E.07284
G1 X158.05 Y165.677 E.07268
G1 X156.483 Y165.718 E.07913
G1 X93.517 Y165.718 E3.17845
G1 X91.949 Y165.677 E.07918
G1 X90.514 Y165.571 E.07263
G1 X88.977 Y165.379 E.07819
G1 X87.557 Y165.132 E.07276
G1 X86.046 Y164.79 E.0782
G1 X84.656 Y164.406 E.07279
G1 X83.286 Y163.953 E.07284
G1 X81.84 Y163.398 E.07818
G1 X80.522 Y162.814 E.07277
G1 X79.138 Y162.12 E.07815
G1 X77.792 Y161.354 E.07818
G1 X76.573 Y160.583 E.07281
G1 X75.394 Y159.752 E.07281
G1 X74.171 Y158.801 E.0782
G1 X73.08 Y157.86 E.07273
G1 X71.956 Y156.794 E.0782
G1 X70.89 Y155.67 E.0782
G1 X69.949 Y154.579 E.07273
G1 X68.998 Y153.356 E.0782
G1 X68.168 Y152.177 E.07278
G1 X67.341 Y150.867 E.0782
G1 X66.63 Y149.612 E.07281
G1 X65.982 Y148.324 E.07278
G1 X65.352 Y146.909 E.07819
G1 X64.797 Y145.464 E.07814
G1 X64.344 Y144.094 E.07284
G1 X63.96 Y142.704 E.07279
G1 X63.618 Y141.194 E.07815
G1 X63.356 Y139.668 E.07816
G1 X63.179 Y138.236 E.07284
G1 X63.073 Y136.801 E.07263
G1 X63.032 Y135.233 E.07918
G1 X63.032 Y32.382 E5.1918
G1 X72.404 Y32.382 E.47309
;WIDTH:0.667271
G1 X74.099 Y32.378 E.088
;WIDTH:0.664315
G1 X75.691 Y32.382 E.08226
;WIDTH:0.649999
G1 X85.531 Y32.382 E.49671
G1 X97.277 Y44.128 E.83852
G1 X97.574 Y44.319 E.01782
G1 X97.908 Y44.382 E.01716
G1 X152.092 Y44.382 E2.73514
G1 X152.426 Y44.318 E.01717
G1 X152.559 Y44.232 E.00799
M204 S1000
G1 X152.333 Y43.659 F10800
M204 S800
;TYPE:External perimeter
G1 F1200
G1 X164.217 Y31.775 E.84837
G1 X187.575 Y31.775 E1.17908
G1 X187.575 Y135.241 E5.22284
G1 X187.533 Y136.831 E.08029
G1 X187.425 Y138.296 E.07415
G1 X187.229 Y139.863 E.07972
G1 X186.978 Y141.312 E.07423
G1 X186.629 Y142.852 E.07971
G1 X186.237 Y144.271 E.07431
G1 X185.775 Y145.668 E.07428
G1 X185.209 Y147.142 E.0797
G1 X184.613 Y148.487 E.07426
G1 X183.906 Y149.899 E.07971
G1 X183.125 Y151.271 E.07969
G1 X182.338 Y152.514 E.07426
G1 X181.49 Y153.717 E.0743
G1 X180.521 Y154.964 E.07972
G1 X179.56 Y156.078 E.07427
G1 X178.473 Y157.223 E.0797
G1 X177.407 Y158.238 E.0743
G1 X176.213 Y159.271 E.0797
G1 X175.054 Y160.177 E.07426
G1 X173.764 Y161.088 E.07972
G1 X172.429 Y161.93 E.07967
G1 X171.149 Y162.656 E.07428
G1 X169.834 Y163.317 E.07429
G1 X168.392 Y163.959 E.07968
G1 X166.918 Y164.525 E.0797
G1 X165.521 Y164.987 E.07428
G1 X164.102 Y165.379 E.07431
G1 X162.562 Y165.728 E.07971
G1 X161.006 Y165.995 E.07969
G1 X159.546 Y166.175 E.07426
G1 X158.081 Y166.283 E.07415
G1 X156.491 Y166.325 E.08029
G1 X93.509 Y166.325 E3.17926
G1 X91.919 Y166.283 E.08029
G1 X90.454 Y166.175 E.07415
G1 X88.887 Y165.979 E.07972
G1 X87.438 Y165.728 E.07423
G1 X85.898 Y165.379 E.07971
G1 X84.479 Y164.987 E.07431
G1 X83.082 Y164.525 E.07428
G1 X81.608 Y163.959 E.0797
G1 X80.263 Y163.363 E.07426
G1 X78.851 Y162.656 E.07971
G1 X77.479 Y161.875 E.07969
G1 X76.236 Y161.088 E.07426
G1 X75.033 Y160.24 E.0743
G1 X73.786 Y159.271 E.07972
G1 X72.672 Y158.31 E.07427
G1 X71.527 Y157.223 E.0797
G1 X70.44 Y156.078 E.0797
G1 X69.479 Y154.964 E.07427
G1 X68.51 Y153.717 E.07972
G1 X67.662 Y152.514 E.0743
G1 X66.82 Y151.179 E.07967
G1 X66.094 Y149.899 E.07428
G1 X65.433 Y148.584 E.07429
G1 X64.791 Y147.142 E.07968
G1 X64.225 Y145.668 E.0797
G1 X63.763 Y144.271 E.07428
G1 X63.371 Y142.852 E.07431
G1 X63.022 Y141.312 E.07971
G1 X62.755 Y139.756 E.07969
G1 X62.575 Y138.296 E.07426
G1 X62.467 Y136.831 E.07415
G1 X62.425 Y135.241 E.08029
G1 X62.425 Y31.775 E5.22284
G1 X85.783 Y31.775 E1.17908
G1 X97.713 Y43.704 E.85162
G1 X97.908 Y43.775 E.01048
G1 X152.092 Y43.775 E2.73514
G1 X152.26 Y43.709 E.00911
M204 S1000
G1 X152.853 Y43.959 F10800
;WIPE_START
G1 F8640
G1 X155.325 Y40.65 E-1
;WIPE_END
G1 Z.4 F720
G1 X74.943 Y41.414 F10800
G1 Z.2 F720
G1 E1 F2100
M204 S800
;TYPE:Perimeter
G1 F1200
G1 X74.197 Y41.524 E.03806
G1 X73.346 Y41.478 E.04302
G1 X72.522 Y41.265 E.04296
