; generated by PrusaSlicer 2.6.0-alpha6+linux-x64-GTK3 on 2023-04-11 at 15:38:41 UTC

; 

; external perimeters extrusion width = 0.65mm
; perimeters extrusion width = 0.65mm
; infill extrusion width = 0.65mm
; solid infill extrusion width = 0.65mm
; top infill extrusion width = 0.60mm
; support material extrusion width = 0.55mm
; first layer extrusion width = 0.65mm

M73 P0 R140
M73 Q0 S141
M201 X1000 Y1000 Z200 E5000 ; sets maximum accelerations, mm/sec^2
M203 X200 Y200 Z12 E120 ; sets maximum feedrates, mm / sec
M204 S1250 T1250 ; sets acceleration (S) and retract acceleration (R), mm/sec^2
M205 X8.00 Y8.00 Z0.40 E4.50 ; sets the jerk limits, mm/sec
M205 S0 T0 ; sets the minimum extruding and travel feed rate, mm/sec
;TYPE:Custom
M862.3 P "MK3S" ; printer model check
M862.1 P0.6 ; nozzle diameter check
M115 U3.10.1 ; tell printer latest fw version
G90 ; use absolute coordinates
M83 ; extruder relative mode
M104 S240 ; set extruder temp
M140 S85 ; set bed temp
M190 S85 ; wait for bed temp
M109 S240 ; wait for extruder temp
G28 W ; home all without mesh bed level
G80 ; mesh bed leveling
G1 Z0.2 F720
G1 Y-3 F1000 ; go outside print area
G92 E0
G1 X60 E9 F1000 ; intro line
G1 X100 E12.5 F1000 ; intro line
G92 E0
M221 S95
G21 ; set units to millimeters
G90 ; use absolute coordinates
M83 ; use relative distances for extrusion
M900 K0.04 ; Filament gcode LA 1.5
M900 K24 ; Filament gcode LA 1.0
M107
;LAYER_CHANGE
;Z:0.2
;HEIGHT:0.2
;BEFORE_LAYER_CHANGE
G92 E0.0
;0.2


G1 E-1 F2100
M73 P0 R139
G1 Z.2 F720
;AFTER_LAYER_CHANGE
;0.2
G1 Z.4
G1 X59.324 Y46.437 F10800
G1 Z.2 F720
G1 E1 F2100
M204 S800
;TYPE:Skirt/Brim
;WIDTH:0.65
G1 F1200
G1 X59.832 Y45.787 E.04164
G1 X61.233 Y44.168 E.10808
G1 X62.711 Y42.62 E.10804
G1 X64.263 Y41.147 E.10801
G1 X65.886 Y39.751 E.10806
G1 X67.575 Y38.437 E.10802
G1 X69.327 Y37.207 E.10806
G1 X71.137 Y36.065 E.10803
G1 X73.001 Y35.013 E.10804
G1 X74.914 Y34.053 E.10804
G1 X76.872 Y33.189 E.10803
M73 Q0 S140
G1 X78.87 Y32.421 E.10805
G1 X80.903 Y31.753 E.10802
G1 X82.967 Y31.185 E.10806
G1 X85.056 Y30.719 E.10804
G1 X87.165 Y30.356 E.10803
G1 X89.289 Y30.097 E.10801
G1 X91.424 Y29.943 E.10805
G1 X93.5 Y29.893 E.10482
G1 X156.564 Y29.894 E3.1834
G1 X160.711 Y30.097 E.20959
G1 X163.028 Y30.387 E.11787
G1 X165.07 Y30.744 E.10464
G1 X167.158 Y31.216 E.10806
G1 X171.13 Y32.421 E.20953
G1 X173.247 Y33.238 E.11455
G1 X176.999 Y35.013 E.20952
G1 X178.863 Y36.065 E.10804
G1 X180.673 Y37.207 E.10803
G1 X182.528 Y38.513 E.11452
G1 X185.737 Y41.147 E.20957
G1 X187.289 Y42.62 E.10801
G1 X188.767 Y44.168 E.10804
G1 X190.249 Y45.886 E.11453
G1 X192.722 Y49.22 E.20954
G1 X193.935 Y51.137 E.11451
G1 X195.892 Y54.798 E.20955
G1 X196.762 Y56.753 E.10802
G1 X197.536 Y58.749 E.10807
G1 X198.247 Y60.903 E.1145
G1 X199.256 Y64.93 E.20956
G1 X199.644 Y67.165 E.11451
G1 X200.051 Y71.296 E.20954
G1 X200.106 Y73.436 E.10806
G1 X200.107 Y177.5 E5.25303
G1 X199.715 Y178.875 E.07217
G1 X198.656 Y179.837 E.07222
G1 X197.5 Y180.107 E.05992
G1 X52.5 Y180.107 E7.31944
G1 X51.125 Y179.715 E.07217
G1 X50.163 Y178.656 E.07222
G1 X49.893 Y177.5 E.05992
G1 X49.943 Y71.424 E5.3546
G1 X50.11 Y69.162 E.11449
G1 X50.708 Y65.122 E.20616
G1 X51.185 Y62.967 E.11141
G1 X51.79 Y60.781 E.11449
G1 X53.189 Y56.872 E.20958
G1 X54.108 Y54.798 E.11451
G1 X56.065 Y51.137 E.20955
G1 X57.278 Y49.22 E.11451
G1 X58.513 Y47.472 E.10804
G1 X59.269 Y46.507 E.06188
M204 S1000
; printing object GPS_bottom_R.stl id:0 copy 0
;WIPE_START
G1 F8640
G1 X59.832 Y45.787 E-.21104
G1 X61.233 Y44.168 E-.49437
G1 X62.114 Y43.245 E-.29459
;WIPE_END
G1 Z.4 F720
G1 X74.002 Y171.564 F10800
G1 Z.2 F720
G1 E1 F2100
M204 S800
;TYPE:Support material
G1 F1200
G1 X74.024 Y171.583 E.00147
G1 X74.012 Y171.61 E.00149
M204 S1000
;WIPE_START
G1 F8640
G1 X74.024 Y171.583 E-.00682
G1 X74.002 Y171.564 E-.00671
;WIPE_END
G1 E-.98647 F2100
G1 Z.4 F720
G1 X176.002 Y171.564 F10800
G1 Z.2 F720
G1 E1 F2100
M204 S800
G1 F1200
G1 X176.024 Y171.584 E.0015
G1 X176.012 Y171.61 E.00145
M204 S1000
;WIPE_START
G1 F8640
G1 X176.024 Y171.584 E-.00661
G1 X176.002 Y171.564 E-.00687
;WIPE_END
G1 E-.98652 F2100
G1 Z.4 F720
G1 X196.368 Y176.368 F10800
G1 Z.2 F720
G1 E1 F2100
M204 S800
;TYPE:Perimeter
;WIDTH:0.649999
G1 F1200
G1 X53.632 Y176.368 E7.20515
G1 X53.632 Y73.514 E5.19195
G1 X53.68 Y71.544 E.09947
G1 X53.824 Y69.592 E.0988
G1 X54.064 Y67.65 E.09878
G1 X54.398 Y65.722 E.09877
G1 X54.827 Y63.813 E.09877
G1 X55.349 Y61.927 E.09878
G1 X55.963 Y60.069 E.09878
G1 X56.667 Y58.243 E.09879
G1 X57.46 Y56.454 E.09878
G1 X58.34 Y54.707 E.09874
G1 X59.304 Y53.004 E.09878
G1 X60.351 Y51.351 E.09877
G1 X61.478 Y49.751 E.09879
G1 X62.682 Y48.208 E.09879
G1 X63.96 Y46.727 E.09875
G1 X65.309 Y45.309 E.0988
G1 X66.727 Y43.96 E.0988
G1 X68.208 Y42.682 E.09875
G1 X69.751 Y41.478 E.09879
G1 X71.351 Y40.351 E.09879
G1 X73.004 Y39.304 E.09877
G1 X74.707 Y38.34 E.09878
G1 X76.454 Y37.46 E.09874
G1 X78.243 Y36.667 E.09878
G1 X80.069 Y35.963 E.09879
G1 X81.927 Y35.349 E.09878
G1 X83.813 Y34.827 E.09878
G1 X85.722 Y34.398 E.09877
G1 X87.65 Y34.064 E.09877
G1 X89.592 Y33.824 E.09878
G1 X91.544 Y33.68 E.0988
G1 X93.514 Y33.632 E.09947
G1 X156.551 Y33.634 E3.18203
G1 X158.456 Y33.68 E.09619
G1 X160.408 Y33.824 E.0988
G1 X162.35 Y34.064 E.09878
G1 X164.278 Y34.398 E.09877
G1 X166.187 Y34.827 E.09877
G1 X168.073 Y35.349 E.09878
G1 X169.931 Y35.963 E.09878
G1 X171.757 Y36.667 E.09879
G1 X173.546 Y37.46 E.09878
G1 X175.293 Y38.34 E.09874
G1 X176.996 Y39.304 E.09878
G1 X178.649 Y40.351 E.09877
G1 X180.249 Y41.478 E.09879
G1 X181.792 Y42.682 E.09879
G1 X183.273 Y43.96 E.09875
G1 X184.691 Y45.309 E.0988
G1 X186.04 Y46.727 E.0988
G1 X187.318 Y48.208 E.09875
G1 X188.522 Y49.751 E.09879
G1 X189.649 Y51.351 E.09879
G1 X190.695 Y53.003 E.0987
G1 X191.688 Y54.761 E.10192
G1 X192.54 Y56.454 E.09567
G1 X193.333 Y58.243 E.09878
G1 X194.037 Y60.069 E.09879
G1 X194.651 Y61.927 E.09878
G1 X195.173 Y63.813 E.09878
G1 X195.602 Y65.722 E.09877
G1 X195.936 Y67.65 E.09877
G1 X196.176 Y69.592 E.09878
G1 X196.32 Y71.544 E.0988
G1 X196.368 Y73.514 E.09947
G1 X196.368 Y176.278 E5.18741
M204 S1000
G1 X196.975 Y176.975 F10800
M204 S800
;TYPE:External perimeter
G1 F1200
G1 X53.025 Y176.975 E7.26643
G1 X53.025 Y73.506 E5.22299
M73 P0 R138
M73 Q0 S139
G1 X53.074 Y71.514 E.10058
G1 X53.22 Y69.533 E.10027
G1 X53.463 Y67.561 E.1003
G1 X53.803 Y65.604 E.10027
G1 X54.238 Y63.665 E.10031
G1 X54.768 Y61.751 E.10025
G1 X55.391 Y59.864 E.10031
G1 X56.106 Y58.011 E.10026
G1 X56.911 Y56.195 E.10027
G1 X57.804 Y54.42 E.1003
G1 X58.784 Y52.692 E.10028
G1 X59.846 Y51.013 E.10029
G1 X60.99 Y49.389 E.10028
G1 X62.213 Y47.823 E.1003
G1 X63.51 Y46.319 E.10025
G1 X64.88 Y44.88 E.10029
G1 X66.319 Y43.51 E.10029
G1 X67.823 Y42.213 E.10025
G1 X69.389 Y40.99 E.1003
G1 X71.013 Y39.846 E.10028
G1 X72.692 Y38.784 E.10029
G1 X74.42 Y37.804 E.10028
G1 X76.195 Y36.911 E.1003
G1 X78.011 Y36.106 E.10027
G1 X79.864 Y35.391 E.10026
G1 X81.751 Y34.768 E.10031
G1 X83.665 Y34.238 E.10025
G1 X85.604 Y33.803 E.10031
G1 X87.561 Y33.463 E.10027
G1 X89.533 Y33.22 E.1003
G1 X91.514 Y33.074 E.10027
G1 X93.506 Y33.025 E.10058
G1 X156.558 Y33.027 E3.18279
G1 X158.486 Y33.074 E.09735
G1 X160.467 Y33.22 E.10027
G1 X162.439 Y33.463 E.1003
G1 X164.396 Y33.803 E.10027
G1 X166.335 Y34.238 E.10031
G1 X168.249 Y34.768 E.10025
M73 Q1 S139
G1 X170.136 Y35.391 E.10031
G1 X171.989 Y36.106 E.10026
G1 X173.805 Y36.911 E.10027
G1 X175.58 Y37.804 E.1003
M73 P1 R138
G1 X177.308 Y38.784 E.10028
G1 X178.987 Y39.846 E.10029
G1 X180.611 Y40.99 E.10028
G1 X182.177 Y42.213 E.1003
G1 X183.681 Y43.51 E.10025
G1 X185.12 Y44.88 E.10029
G1 X186.49 Y46.319 E.10029
G1 X187.787 Y47.823 E.10025
G1 X189.01 Y49.389 E.1003
G1 X190.154 Y51.013 E.10028
G1 X191.216 Y52.692 E.10029
G1 X192.223 Y54.476 E.10341
G1 X193.089 Y56.195 E.09716
G1 X193.894 Y58.011 E.10027
G1 X194.609 Y59.864 E.10026
G1 X195.232 Y61.751 E.10031
G1 X195.762 Y63.665 E.10025
G1 X196.197 Y65.604 E.10031
G1 X196.537 Y67.561 E.10027
G1 X196.78 Y69.533 E.1003
G1 X196.926 Y71.514 E.10027
G1 X196.975 Y73.506 E.10058
G1 X196.975 Y176.885 E5.21845
M204 S1000
G1 X196.455 Y176.675 F10800
;WIPE_START
G1 F8640
G1 X192.644 Y176.888 E-1
;WIPE_END
G1 Z.4 F720
G1 X88.273 Y80.115 F10800
G1 Z.2 F720
G1 E1 F2100
M204 S800
;TYPE:Perimeter
G1 F1200
G1 X88.359 Y79.723 E.02026
G1 X88.583 Y79.217 E.02793
G1 X88.902 Y78.765 E.02793
G1 X89.305 Y78.386 E.02793
G1 X89.775 Y78.094 E.02793
G1 X90.294 Y77.9 E.02797
G1 X90.84 Y77.814 E.0279
G1 X91.393 Y77.837 E.02794
G1 X91.93 Y77.969 E.02791
G1 X92.431 Y78.206 E.02798
G1 X92.875 Y78.536 E.02793
G1 X93.244 Y78.949 E.02796
G1 X93.524 Y79.426 E.02792
G1 X93.705 Y79.949 E.02794
G1 X93.779 Y80.456 E.02586
G1 X93.757 Y80.96 E.02547
G1 X93.641 Y81.453 E.02557
G1 X93.417 Y81.959 E.02793
G1 X93.098 Y82.411 E.02793
G1 X92.695 Y82.791 E.02796
G1 X92.225 Y83.083 E.02793
G1 X91.706 Y83.276 E.02795
G1 X91.16 Y83.363 E.02791
G1 X90.607 Y83.34 E.02794
G1 X90.07 Y83.207 E.02793
G1 X89.569 Y82.971 E.02796
G1 X89.125 Y82.64 E.02796
G1 X88.756 Y82.228 E.02792
G1 X88.489 Y81.786 E.02607
G1 X88.309 Y81.293 E.02649
G1 X88.23 Y80.817 E.02436
G1 X88.253 Y80.203 E.03102
M204 S1000
G1 X88.89 Y80.105 F10800
M204 S800
;TYPE:External perimeter
G1 F1200
G1 X88.968 Y79.816 E.01511
G1 X89.242 Y79.322 E.02852
G1 X89.427 Y79.088 E.01506
G1 X89.756 Y78.806 E.02187
G1 X90.134 Y78.595 E.02185
G1 X90.546 Y78.462 E.02185
G1 X90.976 Y78.415 E.02184
G1 X91.407 Y78.453 E.02184
G1 X91.822 Y78.576 E.02185
G1 X92.205 Y78.779 E.02188
G1 X92.539 Y79.053 E.02181
G1 X92.813 Y79.389 E.02189
G1 X93.015 Y79.772 E.02186
G1 X93.136 Y80.181 E.02153
G1 X93.173 Y80.523 E.01736
G1 X93.145 Y80.942 E.0212
G1 X93.032 Y81.36 E.02186
G1 X92.839 Y81.747 E.02183
G1 X92.573 Y82.089 E.02187
G1 X92.244 Y82.371 E.02187
G1 X91.866 Y82.582 E.02185
G1 X91.454 Y82.714 E.02184
G1 X91.024 Y82.762 E.02184
G1 X90.593 Y82.724 E.02184
G1 X90.178 Y82.601 E.02185
G1 X89.795 Y82.398 E.02188
G1 X89.461 Y82.123 E.02184
G1 X89.191 Y81.795 E.02145
G1 X89.028 Y81.504 E.01684
G1 X88.886 Y81.095 E.02185
G1 X88.831 Y80.727 E.01878
G1 X88.867 Y80.191 E.02712
M204 S1000
G1 X88.662 Y79.912 F10800
;WIPE_START
G1 F8640
G1 X88.968 Y79.816 E-.08967
G1 X89.242 Y79.322 E-.13044
G1 X89.427 Y79.088 E-.06888
G1 X89.756 Y78.806 E-.10005
G1 X90.134 Y78.595 E-.09996
G1 X90.546 Y78.462 E-.09997
G1 X90.976 Y78.415 E-.09988
G1 X91.407 Y78.453 E-.09991
G1 X91.822 Y78.576 E-.09994
G1 X92.205 Y78.779 E-.10009
G1 X92.243 Y78.81 E-.01121
;WIPE_END
G1 Z.4 F720
G1 X148.97 Y109.993 F10800
G1 Z.2 F720
G1 E1 F2100
M204 S800
;TYPE:Perimeter
G1 F1200
G1 X148.872 Y109.179 E.04139
G1 X148.946 Y108.26 E.04654
G1 X149.201 Y107.374 E.04654
G1 X149.625 Y106.556 E.04651
G1 X150.204 Y105.839 E.04652
G1 X150.906 Y105.255 E.0461
G1 X151.532 Y104.897 E.0364
G1 X152.382 Y104.597 E.0455
G1 X153.294 Y104.464 E.04652
G1 X154.214 Y104.515 E.04651
G1 X154.845 Y104.674 E.03285
G1 X155.37 Y104.862 E.02815
G1 X155.935 Y105.152 E.03206
G1 X156.666 Y105.712 E.04648
G1 X157.272 Y106.406 E.04651
G1 X157.566 Y106.907 E.02932
G1 X157.799 Y107.374 E.02634
G1 X158.018 Y108.082 E.03741
G1 X158.128 Y108.998 E.04657
G1 X158.054 Y109.916 E.04649
G1 X157.799 Y110.802 E.04654
G1 X157.375 Y111.62 E.04651
G1 X157.045 Y112.041 E.027
G1 X156.716 Y112.421 E.02537
G1 X156.087 Y112.927 E.04075
G1 X155.545 Y113.237 E.03152
G1 X154.618 Y113.58 E.04989
G1 X153.706 Y113.712 E.04652
G1 X153.1 Y113.685 E.03062
G1 X152.607 Y113.63 E.02504
G1 X151.894 Y113.429 E.03739
G1 X151.065 Y113.025 E.04655
G1 X150.334 Y112.464 E.04651
G1 X149.728 Y111.77 E.04651
G1 X149.271 Y110.969 E.04655
G1 X148.981 Y110.083 E.04706
M204 S1000
G1 X149.554 Y109.839 F10800
M204 S800
;TYPE:External perimeter
G1 F1200
G1 X149.476 Y109.118 E.03661
G1 X149.55 Y108.321 E.0404
G1 X149.781 Y107.553 E.04048
G1 X150.159 Y106.847 E.04042
G1 X150.669 Y106.229 E.04045
G1 X151.285 Y105.73 E.04002
G1 X151.824 Y105.43 E.03114
G1 X152.575 Y105.172 E.04008
G1 X153.369 Y105.067 E.04043
G1 X154.169 Y105.121 E.04047
G1 X154.681 Y105.258 E.02675
G1 X155.093 Y105.402 E.02203
G1 X155.658 Y105.692 E.03206
G1 X156.288 Y106.187 E.04044
G1 X156.807 Y106.797 E.04043
G1 X157.196 Y107.498 E.04047
G1 X157.438 Y108.261 E.04041
G1 X157.524 Y109.058 E.04047
G1 X157.45 Y109.856 E.04045
G1 X157.219 Y110.623 E.04044
G1 X156.841 Y111.33 E.04047
G1 X156.331 Y111.948 E.04045
G1 X155.708 Y112.452 E.04045
G1 X155.255 Y112.704 E.02617
G1 X154.425 Y113.004 E.04455
G1 X153.631 Y113.11 E.04044
G1 X152.831 Y113.056 E.04047
G1 X152.145 Y112.869 E.03589
G1 X151.342 Y112.485 E.04493
G1 X150.712 Y111.99 E.04044
G1 X150.193 Y111.38 E.04043
G1 X149.804 Y110.679 E.04047
G1 X149.566 Y109.928 E.03977
M204 S1000
G1 X148.985 Y109.649 F10800
;WIPE_START
G1 F8640
G1 X149.476 Y109.118 E-.18818
G1 X149.55 Y108.321 E-.18482
G1 X149.781 Y107.553 E-.18518
G1 X150.159 Y106.847 E-.18491
G1 X150.669 Y106.229 E-.18501
G1 X150.911 Y106.033 E-.0719
;WIPE_END
G1 Z.4 F720
G1 X154.886 Y131.537 F10800
G1 Z.2 F720
G1 E1 F2100
M204 S800
;TYPE:Perimeter
G1 F1200
G1 X154.664 Y131.595 E.01158
G1 X153.731 Y131.712 E.04747
G1 X152.612 Y131.646 E.05658
G1 X151.528 Y131.36 E.05659
G1 X150.485 Y130.844 E.05874
G1 X149.826 Y130.354 E.04145
G1 X149.069 Y129.559 E.05541
G1 X148.469 Y128.612 E.05659
G1 X148.069 Y127.565 E.05658
G1 X147.884 Y126.459 E.05661
G1 X147.922 Y125.339 E.05657
G1 X148.147 Y124.38 E.04972
G1 X148.243 Y124.078 E.016
G1 X148.651 Y123.231 E.04746
G1 X149.313 Y122.327 E.05656
G1 X150.141 Y121.572 E.05656
G1 X151.103 Y120.996 E.0566
G1 X152.074 Y120.651 E.05202
G1 X152.336 Y120.582 E.01368
G1 X153.269 Y120.465 E.04747
G1 X154.388 Y120.53 E.05658
G1 X155.472 Y120.816 E.05659
G1 X156.514 Y121.332 E.05869
G1 X157.174 Y121.822 E.04149
G1 X157.931 Y122.618 E.05545
G1 X158.531 Y123.565 E.05659
G1 X158.931 Y124.612 E.05658
G1 X159.116 Y125.717 E.05656
G1 X159.078 Y126.837 E.05657
G1 X158.819 Y127.928 E.0566
G1 X158.349 Y128.945 E.05655
G1 X157.687 Y129.85 E.0566
G1 X156.859 Y130.605 E.05656
G1 X155.897 Y131.181 E.0566
G1 X154.972 Y131.51 E.04956
M204 S1000
G1 X154.857 Y130.908 F10800
M204 S800
;TYPE:External perimeter
G1 F1200
G1 X154.733 Y130.95 E.00661
G1 X153.595 Y131.111 E.05802
G1 X152.657 Y131.041 E.04748
G1 X151.693 Y130.776 E.05047
G1 X150.755 Y130.296 E.05319
G1 X150.193 Y129.871 E.03557
G1 X149.514 Y129.146 E.05014
G1 X148.987 Y128.295 E.05053
G1 X148.639 Y127.357 E.0505
G1 X148.484 Y126.369 E.05048
G1 X148.522 Y125.498 E.04401
G1 X148.601 Y125.059 E.02252
G1 X148.77 Y124.395 E.03459
G1 X149.198 Y123.495 E.05031
G1 X149.797 Y122.694 E.05049
G1 X150.543 Y122.027 E.05051
G1 X151.406 Y121.522 E.05047
G1 X152.267 Y121.226 E.04596
G1 X153.405 Y121.065 E.05802
G1 X154.343 Y121.136 E.04748
G1 X155.307 Y121.401 E.05047
G1 X156.224 Y121.866 E.0519
G1 X156.807 Y122.306 E.03687
G1 X157.486 Y123.031 E.05014
G1 X158.013 Y123.881 E.05048
G1 X158.361 Y124.819 E.0505
G1 X158.516 Y125.808 E.05053
G1 X158.472 Y126.807 E.05048
G1 X158.231 Y127.778 E.0505
G1 X157.802 Y128.682 E.05051
G1 X157.203 Y129.483 E.05049
G1 X156.457 Y130.149 E.05048
G1 X155.594 Y130.655 E.0505
G1 X154.942 Y130.879 E.0348
M204 S1000
G1 X154.837 Y131.038 F10800
;WIPE_START
G1 F8640
G1 X154.733 Y130.95 E-.05097
G1 X153.595 Y131.111 E-.26538
G1 X152.657 Y131.041 E-.21719
G1 X151.693 Y130.776 E-.23085
G1 X150.785 Y130.311 E-.23561
;WIPE_END
G1 Z.4 F720
G1 X157.76 Y141.3 F10800
G1 Z.2 F720
G1 E1 F2100
M204 S800
;TYPE:Perimeter
G1 F1200
G1 X157.946 Y141.849 E.02926
G1 X158.054 Y142.26 E.02145
G1 X158.128 Y142.998 E.03744
G1 X158.054 Y143.916 E.04649
G1 X157.799 Y144.802 E.04654
G1 X157.375 Y145.62 E.04651
G1 X156.796 Y146.338 E.04656
G1 X156.31 Y146.748 E.0321
G1 X155.954 Y147.014 E.02243
G1 X155.466 Y147.28 E.02806
G1 X154.618 Y147.58 E.04541
G1 X153.706 Y147.712 E.04652
G1 X152.786 Y147.661 E.04651
G1 X151.894 Y147.429 E.04653
G1 X151.065 Y147.025 E.04655
G1 X150.334 Y146.464 E.04651
G1 X149.728 Y145.77 E.04651
G1 X149.271 Y144.969 E.04655
G1 X148.982 Y144.094 E.04652
G1 X148.872 Y143.179 E.04652
G1 X148.946 Y142.26 E.04654
G1 X149.201 Y141.374 E.04654
G1 X149.625 Y140.556 E.04651
G1 X149.955 Y140.135 E.027
G1 X150.284 Y139.755 E.02537
