; generated by PrusaSlicer 2.5.0+linux-x64-GTK3 on 2022-10-24 at 22:26:48 UTC

; 

; external perimeters extrusion width = 0.65mm
; perimeters extrusion width = 0.65mm
; infill extrusion width = 0.65mm
; solid infill extrusion width = 0.65mm
; top infill extrusion width = 0.60mm
; first layer extrusion width = 0.65mm

M73 P0 R19
M73 Q0 S20
M201 X1000 Y1000 Z200 E5000 ; sets maximum accelerations, mm/sec^2
M203 X200 Y200 Z12 E120 ; sets maximum feedrates, mm / sec
M204 P1250 R1250 T1250 ; sets acceleration (P, T) and retract acceleration (R), mm/sec^2
M205 X8.00 Y8.00 Z0.40 E4.50 ; sets the jerk limits, mm/sec
M205 S0 T0 ; sets the minimum extruding and travel feed rate, mm/sec
M107
;TYPE:Custom
M862.3 P "MK3S" ; printer model check
M862.1 P0.6 ; nozzle diameter check
M115 U3.10.1 ; tell printer latest fw version
G90 ; use absolute coordinates
M83 ; extruder relative mode
M104 S240 ; set extruder temp
M140 S85 ; set bed temp
M190 S85 ; wait for bed temp
M109 S240 ; wait for extruder temp
G28 W ; home all without mesh bed level
G80 ; mesh bed leveling
G1 Z0.2 F720
G1 Y-3 F1000 ; go outside print area
G92 E0
G1 X60 E9 F1000 ; intro line
G1 X100 E12.5 F1000 ; intro line
G92 E0
M221 S95
G21 ; set units to millimeters
G90 ; use absolute coordinates
M83 ; use relative distances for extrusion
M900 K0.04 ; Filament gcode LA 1.5
M900 K24 ; Filament gcode LA 1.0
M107
;LAYER_CHANGE
;Z:0.2
;HEIGHT:0.2
;BEFORE_LAYER_CHANGE
G92 E0.0
;0.2


M73 Q0 S19
G1 E-1 F2100
G1 Z.2 F720
;AFTER_LAYER_CHANGE
;0.2
; printing object BottomClamp.stl id:0 copy 0
G1 Z.4
G1 X104.132 Y88.132 F10800
G1 Z.2 F720
G1 E1 F2100
M204 S800
;TYPE:Perimeter
;WIDTH:0.649999
G1 F1200
G1 X145.868 Y88.132 E2.10678
G1 X145.868 Y100.868 E.64289
G1 X104.132 Y100.868 E2.10678
G1 X104.132 Y88.222 E.63835
M204 S1000
M73 P1 R19
M73 Q1 S19
G1 X103.525 Y87.525 F10800
M204 S800
;TYPE:External perimeter
G1 F1200
G1 X146.475 Y87.525 E2.16807
G1 X146.475 Y101.475 E.70418
G1 X103.525 Y101.475 E2.16807
G1 X103.525 Y87.615 E.69964
M204 S1000
G1 X104.122 Y87.588 F10800
;WIPE_START
G1 F8640
G1 X107.639 Y87.606 E-.95
;WIPE_END
G1 E-.05 F2100
G1 Z.4 F720
G1 X111.357 Y92.475 F10800
G1 Z.2 F720
G1 E1 F2100
M204 S800
;TYPE:Perimeter
G1 F1200
G1 X111.44 Y92.431 E.00474
G1 X111.926 Y92.278 E.02571
G1 X112.453 Y92.218 E.02678
G1 X113.072 Y92.28 E.03137
G1 X113.599 Y92.447 E.02794
G1 X114.083 Y92.716 E.02795
G1 X114.505 Y93.075 E.02794
G1 X114.846 Y93.51 E.02793
G1 X115.095 Y94.005 E.02794
G1 X115.241 Y94.539 E.02794
G1 X115.278 Y95.091 E.02793
G1 X115.205 Y95.639 E.02794
G1 X115.024 Y96.163 E.02794
G1 X114.744 Y96.64 E.02794
G1 X114.375 Y97.052 E.02794
G1 X113.951 Y97.372 E.02679
G1 X113.56 Y97.569 E.02214
G1 X113.074 Y97.722 E.02569
G1 X112.547 Y97.782 E.02678
G1 X111.928 Y97.72 E.03137
G1 X111.401 Y97.553 E.02794
G1 X110.917 Y97.284 E.02793
G1 X110.496 Y96.925 E.02794
G1 X110.154 Y96.49 E.02794
G1 X109.905 Y95.995 E.02793
G1 X109.759 Y95.462 E.02794
G1 X109.722 Y95.091 E.01881
G1 X109.759 Y94.538 E.02794
G1 X109.905 Y94.005 E.02794
G1 X110.154 Y93.51 E.02792
G1 X110.526 Y93.044 E.03012
G1 X110.952 Y92.692 E.02791
G1 X111.278 Y92.517 E.01866
M204 S1000
;WIPE_START
G1 F8640
G1 X111.44 Y92.431 E-.04246
G1 X111.926 Y92.278 E-.1176
G1 X112.453 Y92.218 E-.12251
G1 X113.072 Y92.28 E-.14349
G1 X113.599 Y92.447 E-.12778
G1 X114.083 Y92.716 E-.12783
G1 X114.505 Y93.075 E-.12778
G1 X114.846 Y93.51 E-.12777
G1 X114.871 Y93.56 E-.01279
;WIPE_END
G1 E-.05 F2100
G1 Z.4 F720
G1 X112.907 Y92.865 F10800
G1 Z.2 F720
G1 E1 F2100
M204 S800
;TYPE:External perimeter
G1 F1200
G1 X113.322 Y92.988 E.02185
G1 X113.705 Y93.191 E.02186
G1 X114.039 Y93.465 E.02185
G1 X114.313 Y93.801 E.02185
G1 X114.515 Y94.184 E.02185
G1 X114.637 Y94.599 E.02186
G1 X114.674 Y95.03 E.02185
G1 X114.625 Y95.46 E.02185
G1 X114.491 Y95.872 E.02185
G1 X114.279 Y96.249 E.02185
G1 X113.996 Y96.577 E.02185
G1 X113.661 Y96.839 E.02146
G1 X113.366 Y96.994 E.01681
G1 X112.954 Y97.126 E.02184
G1 X112.524 Y97.174 E.02185
G1 X112.093 Y97.135 E.02185
G1 X111.678 Y97.012 E.02186
G1 X111.295 Y96.81 E.02185
G1 X110.961 Y96.535 E.02185
G1 X110.687 Y96.199 E.02186
G1 X110.485 Y95.816 E.02185
G1 X110.363 Y95.401 E.02185
G1 X110.326 Y95.03 E.01881
G1 X110.375 Y94.54 E.02489
G1 X110.509 Y94.128 E.02185
G1 X110.716 Y93.757 E.02146
G1 X110.927 Y93.499 E.01682
G1 X111.256 Y93.218 E.02183
G1 X111.634 Y93.006 E.02185
G1 X112.046 Y92.874 E.02185
G1 X112.476 Y92.826 E.02185
G1 X112.818 Y92.857 E.01731
M204 S1000
G1 X113.19 Y92.537 F10800
;WIPE_START
G1 F8640
G1 X113.322 Y92.988 E-.12039
G1 X113.705 Y93.191 E-.09999
G1 X114.039 Y93.465 E-.09995
G1 X114.313 Y93.801 E-.09994
G1 X114.515 Y94.184 E-.09995
G1 X114.637 Y94.599 E-.09998
G1 X114.674 Y95.03 E-.09993
G1 X114.625 Y95.46 E-.09996
G1 X114.491 Y95.872 E-.09995
G1 X114.428 Y95.985 E-.02996
;WIPE_END
G1 E-.05 F2100
G1 Z.4 F720
G1 X134.8 Y94.388 F10800
G1 Z.2 F720
G1 E1 F2100
M204 S800
;TYPE:Perimeter
G1 F1200
G1 X134.905 Y94.005 E.02008
G1 X135.154 Y93.51 E.02792
G1 X135.526 Y93.044 E.03012
G1 X135.952 Y92.692 E.02791
G1 X136.44 Y92.431 E.02794
G1 X136.926 Y92.278 E.02571
G1 X137.453 Y92.218 E.02678
G1 X138.072 Y92.28 E.03137
G1 X138.599 Y92.447 E.02794
G1 X139.083 Y92.716 E.02795
G1 X139.505 Y93.075 E.02794
G1 X139.846 Y93.51 E.02793
G1 X140.095 Y94.005 E.02794
G1 X140.241 Y94.539 E.02794
G1 X140.278 Y95.091 E.02793
G1 X140.205 Y95.639 E.02794
G1 X140.024 Y96.163 E.02794
G1 X139.744 Y96.64 E.02794
G1 X139.375 Y97.052 E.02794
G1 X138.951 Y97.372 E.02679
G1 X138.56 Y97.569 E.02214
G1 X138.074 Y97.722 E.02569
G1 X137.547 Y97.782 E.02678
G1 X136.928 Y97.72 E.03137
G1 X136.401 Y97.553 E.02794
G1 X135.917 Y97.284 E.02793
G1 X135.496 Y96.925 E.02794
G1 X135.154 Y96.49 E.02794
G1 X134.905 Y95.995 E.02793
G1 X134.759 Y95.462 E.02794
G1 X134.722 Y95.091 E.01881
G1 X134.777 Y94.475 E.03119
M204 S1000
G1 X135.375 Y94.54 F10800
M204 S800
;TYPE:External perimeter
G1 F1200
G1 X135.509 Y94.128 E.02185
G1 X135.716 Y93.757 E.02146
G1 X135.927 Y93.499 E.01682
G1 X136.256 Y93.218 E.02183
G1 X136.634 Y93.006 E.02185
G1 X137.046 Y92.874 E.02185
G1 X137.476 Y92.826 E.02185
G1 X137.907 Y92.865 E.02185
G1 X138.322 Y92.988 E.02185
G1 X138.705 Y93.191 E.02186
G1 X139.039 Y93.465 E.02185
G1 X139.313 Y93.801 E.02185
G1 X139.515 Y94.184 E.02185
G1 X139.637 Y94.599 E.02186
G1 X139.674 Y95.03 E.02185
G1 X139.625 Y95.46 E.02185
G1 X139.451 Y95.947 E.02607
G1 X139.279 Y96.249 E.01758
G1 X138.996 Y96.577 E.02185
G1 X138.661 Y96.839 E.02146
G1 X138.366 Y96.994 E.01681
G1 X137.954 Y97.126 E.02184
G1 X137.524 Y97.174 E.02185
G1 X137.093 Y97.135 E.02185
G1 X136.678 Y97.012 E.02186
G1 X136.295 Y96.81 E.02185
G1 X135.961 Y96.535 E.02185
G1 X135.687 Y96.199 E.02186
G1 X135.485 Y95.816 E.02185
G1 X135.363 Y95.401 E.02185
G1 X135.326 Y95.03 E.01881
G1 X135.366 Y94.629 E.02034
M204 S1000
G1 X135.055 Y94.249 F10800
;WIPE_START
G1 F8640
G1 X135.509 Y94.128 E-.12034
G1 X135.716 Y93.757 E-.09818
G1 X135.927 Y93.499 E-.07692
G1 X136.256 Y93.218 E-.09986
G1 X136.634 Y93.006 E-.09997
G1 X137.046 Y92.874 E-.09995
G1 X137.476 Y92.826 E-.09996
G1 X137.907 Y92.865 E-.09996
G1 X138.322 Y92.988 E-.09995
G1 X138.532 Y93.099 E-.05491
;WIPE_END
G1 E-.05 F2100
G1 Z.4 F720
G1 X145.686 Y89.557 F10800
G1 Z.2 F720
G1 E1 F2100
M204 S800
;TYPE:Solid infill
;WIDTH:0.657243
G1 F1200
G1 X144.716 Y88.587 E.07003
G1 X143.848 Y88.587 E.04438
G1 X145.413 Y90.152 E.11305
G1 X145.413 Y91.021 E.04438
M73 Q2 S19
G1 X142.979 Y88.587 E.17581
G1 X142.11 Y88.587 E.04438
G1 X145.413 Y91.89 E.23857
M73 P2 R19
G1 X145.413 Y92.759 E.04438
G1 X141.241 Y88.587 E.30133
G1 X140.373 Y88.587 E.04438
G1 X145.413 Y93.627 E.36409
G1 X145.413 Y94.496 E.04438
G1 X139.504 Y88.587 E.42685
G1 X138.635 Y88.587 E.04438
G1 X145.413 Y95.365 E.48962
G1 X145.413 Y96.234 E.04438
G1 X137.766 Y88.587 E.55238
G1 X136.897 Y88.587 E.04438
G1 X145.413 Y97.103 E.61514
G1 X145.413 Y97.971 E.04438
G1 X136.029 Y88.587 E.6779
G1 X135.16 Y88.587 E.04438
G1 X138.5 Y91.928 E.24132
G1 X138.8 Y92.039 E.01633
G1 X139.145 Y92.216 E.01982
G1 X139.361 Y92.355 E.01313
G1 X139.665 Y92.597 E.01981
G1 X139.849 Y92.777 E.01316
G1 X140.162 Y93.157 E.02514
G1 X140.427 Y93.625 E.02751
G1 X140.569 Y93.996 E.02028
G1 X145.413 Y98.84 E.34992
G1 X145.413 Y99.709 E.04438
G1 X140.735 Y95.032 E.33789
G1 X140.68 Y95.609 E.02964
G1 X140.627 Y95.792 E.00974
G1 X145.248 Y100.413 E.33377
G1 X144.379 Y100.413 E.04438
G1 X140.397 Y96.431 E.28765
G1 X140.242 Y96.714 E.01649
G1 X140.064 Y96.967 E.01579
G1 X143.51 Y100.413 E.24894
G1 X142.641 Y100.413 E.04438
G1 X139.646 Y97.418 E.21636
G1 X139.359 Y97.646 E.01875
G1 X139.138 Y97.778 E.01315
G1 X141.772 Y100.413 E.19032
G1 X140.904 Y100.413 E.04438
G1 X138.542 Y98.051 E.1706
G1 X138.157 Y98.17 E.02057
G1 X137.829 Y98.206 E.01689
G1 X140.308 Y100.686 E.17911
M204 S1000
;WIPE_START
G1 F8640
G1 X137.829 Y98.206 E-.80962
G1 X138.157 Y98.17 E-.07636
G1 X138.422 Y98.088 E-.06402
;WIPE_END
G1 E-.05 F2100
G1 Z.4 F720
G1 X137.761 Y92.057 F10800
G1 Z.2 F720
G1 E1 F2100
M204 S800
G1 F1200
G1 X134.291 Y88.587 E.25066
G1 X133.422 Y88.587 E.04438
G1 X136.701 Y91.867 E.23689
G1 X136.288 Y92.002 E.02222
G1 X136.067 Y92.101 E.01237
G1 X132.553 Y88.587 E.25384
G1 X131.685 Y88.587 E.04438
G1 X135.532 Y92.435 E.27794
G1 X135.082 Y92.853 E.0314
G1 X130.816 Y88.587 E.30815
G1 X129.947 Y88.587 E.04438
G1 X134.718 Y93.358 E.34465
G1 X134.572 Y93.626 E.01559
G1 X134.445 Y93.954 E.01796
G1 X129.078 Y88.587 E.38771
G1 X128.21 Y88.587 E.04438
G1 X134.539 Y94.917 E.45725
M204 S1000
;WIPE_START
G1 F8640
G1 X131.63 Y92.008 E-.95
;WIPE_END
G1 E-.05 F2100
G1 Z.4 F720
G1 X139.439 Y100.686 F10800
G1 Z.2 F720
G1 E1 F2100
M204 S800
G1 F1200
G1 X136.935 Y98.182 E.18089
G1 X136.439 Y98.055 E.02617
G1 X136.2 Y97.961 E.01312
G1 X135.855 Y97.784 E.01981
G1 X135.639 Y97.645 E.01312
G1 X135.336 Y97.403 E.01981
G1 X135.152 Y97.224 E.01313
G1 X134.902 Y96.926 E.01982
G1 X134.758 Y96.714 E.01312
G1 X134.572 Y96.374 E.01981
G1 X134.472 Y96.137 E.01312
G1 X134.358 Y95.766 E.01981
G1 X134.317 Y95.564 E.01056
G1 X127.341 Y88.587 E.50396
G1 X126.472 Y88.587 E.04438
M73 Q3 S19
G1 X138.297 Y100.413 E.85425
G1 X137.428 Y100.413 E.04438
M73 P3 R19
G1 X125.603 Y88.587 E.85425
G1 X124.734 Y88.587 E.04438
G1 X136.56 Y100.413 E.85425
G1 X135.691 Y100.413 E.04438
G1 X123.866 Y88.587 E.85425
G1 X122.997 Y88.587 E.04438
G1 X134.822 Y100.413 E.85425
G1 X133.953 Y100.413 E.04438
G1 X122.128 Y88.587 E.85425
G1 X121.259 Y88.587 E.04438
G1 X133.085 Y100.413 E.85425
G1 X132.216 Y100.413 E.04438
G1 X120.391 Y88.587 E.85425
G1 X119.522 Y88.587 E.04438
G1 X131.347 Y100.413 E.85425
G1 X130.478 Y100.413 E.04438
G1 X118.653 Y88.587 E.85425
G1 X117.784 Y88.587 E.04438
G1 X129.609 Y100.413 E.85425
G1 X128.741 Y100.413 E.04438
G1 X116.915 Y88.587 E.85425
G1 X116.047 Y88.587 E.04438
G1 X127.872 Y100.413 E.85425
G1 X127.003 Y100.413 E.04438
G1 X115.178 Y88.587 E.85425
G1 X114.309 Y88.587 E.04438
M73 P4 R19
M73 Q4 S19
G1 X126.134 Y100.413 E.85425
G1 X125.265 Y100.413 E.04438
G1 X113.44 Y88.587 E.85425
G1 X112.571 Y88.587 E.04438
G1 X124.397 Y100.413 E.85425
G1 X123.528 Y100.413 E.04438
G1 X111.703 Y88.587 E.85425
G1 X110.834 Y88.587 E.04438
G1 X122.659 Y100.413 E.85425
G1 X121.79 Y100.413 E.04438
G1 X115.647 Y94.27 E.44377
G1 X115.528 Y93.864 E.02159
M73 P4 R18
G1 X115.428 Y93.626 E.01318
G1 X115.242 Y93.286 E.01981
G1 X115.098 Y93.074 E.01312
G1 X114.848 Y92.776 E.01981
G1 X114.665 Y92.597 E.01312
G1 X114.361 Y92.355 E.01981
G1 X114.145 Y92.216 E.01313
G1 X113.8 Y92.039 E.01982
G1 X113.561 Y91.945 E.01312
G1 X113.229 Y91.852 E.0176
G1 X109.965 Y88.587 E.23581
G1 X109.096 Y88.587 E.04438
G1 X112.283 Y91.774 E.23018
G1 X111.845 Y91.83 E.02253
G1 X111.553 Y91.913 E.01552
G1 X108.228 Y88.587 E.24022
G1 X107.359 Y88.587 E.04438
G1 X110.943 Y92.171 E.25891
G1 X110.718 Y92.301 E.01326
G1 X110.429 Y92.526 E.01871
G1 X106.49 Y88.587 E.28455
G1 X105.621 Y88.587 E.04438
G1 X109.996 Y92.962 E.31603
G1 X109.759 Y93.284 E.0204
G1 X109.649 Y93.484 E.01169
G1 X104.752 Y88.587 E.35376
G1 X104.587 Y88.587 E.00843
G1 X104.587 Y89.291 E.03595
G1 X109.399 Y94.102 E.34756
G1 X109.307 Y94.487 E.02018
G1 X109.275 Y94.848 E.01852
G1 X104.314 Y89.887 E.35838
M204 S1000
;WIPE_START
G1 F8640
G1 X107.223 Y92.796 E-.95
;WIPE_END
G1 E-.05 F2100
G1 Z.4 F720
G1 X115.459 Y94.95 F10800
G1 Z.2 F720
G1 E1 F2100
M204 S800
G1 F1200
G1 X120.922 Y100.413 E.39462
G1 X120.053 Y100.413 E.04438
G1 X115.586 Y95.946 E.32265
G1 X115.428 Y96.374 E.02328
G1 X115.328 Y96.557 E.01065
G1 X119.184 Y100.413 E.27855
G1 X118.315 Y100.413 E.04438
G1 X114.975 Y97.073 E.24129
G1 X114.848 Y97.224 E.01008
G1 X114.538 Y97.504 E.02137
G1 X117.446 Y100.413 E.21012
G1 X116.578 Y100.413 E.04438
G1 X114.016 Y97.851 E.18508
G1 X113.709 Y98 E.01741
G1 X113.393 Y98.097 E.01688
G1 X115.709 Y100.413 E.16728
G1 X114.84 Y100.413 E.04438
G1 X112.38 Y97.952 E.17774
M204 S1000
;WIPE_START
G1 F8640
G1 X114.84 Y100.413 E-.80343
G1 X115.475 Y100.413 E-.14657
;WIPE_END
G1 E-.05 F2100
G1 Z.4 F720
G1 X114.244 Y100.686 F10800
G1 Z.2 F720
G1 E1 F2100
M204 S800
G1 F1200
G1 X111.682 Y98.123 E.1851
G1 X111.439 Y98.055 E.01292
G1 X111.2 Y97.961 E.01312
G1 X110.855 Y97.784 E.01981
G1 X110.639 Y97.645 E.01312
M73 P5 R18
M73 Q5 S19
G1 X110.336 Y97.403 E.01981
G1 X110.152 Y97.224 E.01313
G1 X109.902 Y96.926 E.01982
G1 X109.758 Y96.714 E.01312
G1 X109.572 Y96.374 E.01981
G1 X109.472 Y96.136 E.01319
G1 X109.382 Y95.823 E.01663
G1 X104.587 Y91.029 E.34633
G1 X104.587 Y91.897 E.04438
G1 X113.103 Y100.413 E.61513
G1 X112.234 Y100.413 E.04438
G1 X104.587 Y92.766 E.55237
G1 X104.587 Y93.635 E.04438
M73 Q5 S18
G1 X111.365 Y100.413 E.48961
G1 X110.496 Y100.413 E.04438
G1 X104.587 Y94.504 E.42685
G1 X104.587 Y95.373 E.04438
G1 X109.627 Y100.413 E.36409
G1 X108.759 Y100.413 E.04438
G1 X104.587 Y96.241 E.30133
G1 X104.587 Y97.11 E.04438
G1 X107.89 Y100.413 E.23857
G1 X107.021 Y100.413 E.04438
G1 X104.587 Y97.979 E.17581
G1 X104.587 Y98.848 E.04438
G1 X106.152 Y100.413 E.11304
G1 X105.283 Y100.413 E.04438
G1 X104.314 Y99.443 E.07002
M204 S1000
; stop printing object BottomClamp.stl id:0 copy 0
; printing object BottomClamp.stl id:0 copy 1
;WIPE_START
G1 F8640
G1 X105.283 Y100.413 E-.31651
G1 X106.152 Y100.413 E-.2006
G1 X104.827 Y99.087 E-.43289
;WIPE_END
G1 E-.05 F2100
G1 Z.4 F720
G1 X104.132 Y109.132 F10800
G1 Z.2 F720
G1 E1 F2100
M204 S800
;TYPE:Perimeter
;WIDTH:0.649999
G1 F1200
G1 X145.868 Y109.132 E2.10678
G1 X145.868 Y121.868 E.64289
G1 X104.132 Y121.868 E2.10678
G1 X104.132 Y109.222 E.63835
M204 S1000
G1 X103.525 Y108.525 F10800
M204 S800
;TYPE:External perimeter
G1 F1200
G1 X146.475 Y108.525 E2.16807
G1 X146.475 Y122.475 E.70418
M73 P6 R18
M73 Q6 S18
G1 X103.525 Y122.475 E2.16807
G1 X103.525 Y108.615 E.69964
M204 S1000
G1 X104.122 Y108.588 F10800
;WIPE_START
G1 F8640
G1 X107.639 Y108.606 E-.95
;WIPE_END
G1 E-.05 F2100
G1 Z.4 F720
G1 X111.357 Y113.475 F10800
G1 Z.2 F720
G1 E1 F2100
M204 S800
;TYPE:Perimeter
G1 F1200
G1 X111.44 Y113.431 E.00474
G1 X111.926 Y113.278 E.02571
G1 X112.453 Y113.218 E.02678
G1 X113.072 Y113.28 E.03137
G1 X113.599 Y113.447 E.02794
G1 X114.083 Y113.716 E.02795
G1 X114.505 Y114.075 E.02794
G1 X114.846 Y114.51 E.02793
G1 X115.095 Y115.005 E.02794
G1 X115.241 Y115.539 E.02794
G1 X115.278 Y116.091 E.02793
G1 X115.205 Y116.639 E.02794
G1 X115.024 Y117.163 E.02794
G1 X114.744 Y117.64 E.02794
G1 X114.375 Y118.052 E.02794
G1 X113.951 Y118.372 E.02679
G1 X113.56 Y118.569 E.02214
G1 X113.074 Y118.722 E.02569
G1 X112.547 Y118.782 E.02678
G1 X111.928 Y118.72 E.03137
G1 X111.401 Y118.553 E.02794
G1 X110.917 Y118.284 E.02793
G1 X110.496 Y117.925 E.02794
G1 X110.154 Y117.49 E.02794
G1 X109.905 Y116.995 E.02793
G1 X109.759 Y116.462 E.02794
G1 X109.722 Y116.091 E.01881
G1 X109.759 Y115.538 E.02794
G1 X109.905 Y115.005 E.02794
G1 X110.154 Y114.51 E.02792
G1 X110.526 Y114.044 E.03012
G1 X110.952 Y113.692 E.02791
G1 X111.278 Y113.517 E.01866
M204 S1000
;WIPE_START
G1 F8640
G1 X111.44 Y113.431 E-.04246
G1 X111.926 Y113.278 E-.1176
G1 X112.453 Y113.218 E-.12251
G1 X113.072 Y113.28 E-.14349
G1 X113.599 Y113.447 E-.12778
G1 X114.083 Y113.716 E-.12783
