; generated by PrusaSlicer 2.5.0+linux-x64-GTK3 on 2022-10-24 at 22:19:58 UTC

; 

; external perimeters extrusion width = 0.65mm
; perimeters extrusion width = 0.65mm
; infill extrusion width = 0.65mm
; solid infill extrusion width = 0.65mm
; top infill extrusion width = 0.60mm
; first layer extrusion width = 0.65mm

M73 P0 R183
M73 Q0 S184
M201 X1000 Y1000 Z200 E5000 ; sets maximum accelerations, mm/sec^2
M203 X200 Y200 Z12 E120 ; sets maximum feedrates, mm / sec
M204 P1250 R1250 T1250 ; sets acceleration (P, T) and retract acceleration (R), mm/sec^2
M205 X8.00 Y8.00 Z0.40 E4.50 ; sets the jerk limits, mm/sec
M205 S0 T0 ; sets the minimum extruding and travel feed rate, mm/sec
M107
;TYPE:Custom
M862.3 P "MK3S" ; printer model check
M862.1 P0.6 ; nozzle diameter check
M115 U3.10.1 ; tell printer latest fw version
G90 ; use absolute coordinates
M83 ; extruder relative mode
M104 S240 ; set extruder temp
M140 S85 ; set bed temp
M190 S85 ; wait for bed temp
M109 S240 ; wait for extruder temp
G28 W ; home all without mesh bed level
G80 ; mesh bed leveling
G1 Z0.2 F720
G1 Y-3 F1000 ; go outside print area
G92 E0
G1 X60 E9 F1000 ; intro line
G1 X100 E12.5 F1000 ; intro line
G92 E0
M221 S95
G21 ; set units to millimeters
G90 ; use absolute coordinates
M83 ; use relative distances for extrusion
M900 K0.04 ; Filament gcode LA 1.5
M900 K24 ; Filament gcode LA 1.0
M107
;LAYER_CHANGE
;Z:0.2
;HEIGHT:0.2
;BEFORE_LAYER_CHANGE
G92 E0.0
;0.2


G1 E-1 F2100
G1 Z.2 F720
;AFTER_LAYER_CHANGE
;0.2
; printing object MotorCap.stl id:0 copy 2
G1 Z.4
G1 X130.77 Y100.89 F10800
G1 Z.2 F720
G1 E1 F2100
M204 S800
;TYPE:Perimeter
;WIDTH:0.649999
G1 F1200
G1 X129.146 Y92.622 E.42534
G1 X129.118 Y35.048 E2.90625
G1 X129.151 Y34.359 E.0348
G1 X129.248 Y33.702 E.03352
G1 X129.406 Y33.069 E.03297
G1 X129.768 Y32.13 E.05081
G1 X130.264 Y31.254 E.0508
G1 X130.653 Y30.729 E.03296
G1 X131.098 Y30.237 E.03352
G1 X131.59 Y29.791 E.03352
G1 X132.123 Y29.395 E.03352
G1 X132.693 Y29.053 E.03352
G1 X133.283 Y28.774 E.03297
G1 X133.905 Y28.568 E.03306
G1 X134.605 Y28.383 E.03655
G1 X135.312 Y28.284 E.03605
G1 X135.896 Y28.251 E.02952
G1 X220.195 Y28.219 E4.25534
G1 X221.213 Y28.343 E.05177
G1 X221.847 Y28.501 E.03294
G1 X222.472 Y28.725 E.03352
G1 X223.072 Y29.008 E.03352
G1 X223.642 Y29.35 E.03352
G1 X224.161 Y29.734 E.03258
G1 X224.904 Y30.44 E.05176
G1 X225.319 Y30.944 E.03294
G1 X225.688 Y31.496 E.03352
G1 X226.001 Y32.082 E.03353
G1 X226.249 Y32.678 E.03258
G1 X226.523 Y33.666 E.05176
G1 X226.619 Y34.311 E.03294
G1 X226.653 Y35 E.0348
G1 X226.682 Y92.573 E2.90625
G1 X225.066 Y100.843 E.42534
G1 X130.86 Y100.89 E4.75544
M204 S1000
G1 X130.27 Y101.497 F10800
M204 S800
;TYPE:External perimeter
G1 F1200
G1 X128.539 Y92.681 E.45354
G1 X128.51 Y35.033 E2.90997
G1 X128.546 Y34.3 E.03706
G1 X128.652 Y33.584 E.03653
G1 X128.827 Y32.885 E.03636
G1 X129.218 Y31.87 E.05495
G1 X129.754 Y30.922 E.05494
G1 X130.183 Y30.344 E.03635
G1 X130.668 Y29.807 E.03653
G1 X131.204 Y29.321 E.03653
G1 X131.785 Y28.89 E.03653
G1 X132.406 Y28.517 E.03653
G1 X133.057 Y28.209 E.03636
G1 X133.714 Y27.992 E.03494
G1 X134.486 Y27.788 E.04031
G1 X135.252 Y27.68 E.03905
G1 X135.888 Y27.644 E.03216
G1 X220.232 Y27.612 E4.25759
G1 X221.324 Y27.745 E.05553
M73 Q0 S183
G1 X222.023 Y27.92 E.03634
G1 X222.704 Y28.163 E.03653
G1 X223.359 Y28.472 E.03653
G1 X223.98 Y28.844 E.03653
G1 X224.552 Y29.268 E.03596
G1 X225.35 Y30.026 E.05553
G1 X225.807 Y30.582 E.03634
G1 X226.209 Y31.183 E.03653
G1 X226.55 Y31.821 E.03653
G1 X226.824 Y32.479 E.03596
G1 X227.118 Y33.539 E.05553
G1 X227.224 Y34.251 E.03634
G1 X227.26 Y34.985 E.03706
G1 X227.289 Y92.632 E2.90997
G1 X225.566 Y101.45 E.45354
G1 X130.36 Y101.497 E4.80589
M204 S1000
G1 X130.484 Y100.936 F10800
;WIPE_START
M73 P0 R182
G1 F8640
G1 X129.528 Y97.468 E-.95
;WIPE_END
G1 E-.05 F2100
G1 Z.4 F720
G1 X135.839 Y49.366 F10800
G1 Z.2 F720
G1 E1 F2100
M204 S800
;TYPE:Perimeter
G1 F1200
G1 X135.492 Y49.558 E.02003
G1 X134.964 Y49.726 E.02794
G1 X134.414 Y49.786 E.02794
G1 X133.863 Y49.735 E.02794
G1 X133.333 Y49.576 E.02794
G1 X132.845 Y49.315 E.02793
G1 X132.418 Y48.963 E.02792
G1 X132.046 Y48.497 E.03011
G1 X131.797 Y48.003 E.02792
G1 X131.651 Y47.469 E.02794
G1 X131.614 Y47.098 E.01881
G1 X131.651 Y46.546 E.02794
G1 X131.796 Y46.012 E.02794
G1 X132.045 Y45.518 E.02794
G1 X132.386 Y45.082 E.02794
G1 X132.807 Y44.723 E.02794
G1 X133.291 Y44.454 E.02794
G1 X133.818 Y44.287 E.02793
G1 X134.355 Y44.227 E.02728
G1 X134.887 Y44.269 E.02692
G1 X135.407 Y44.416 E.0273
G1 X135.901 Y44.669 E.02799
G1 X136.312 Y44.994 E.02646
G1 X136.673 Y45.415 E.02799
G1 X136.944 Y45.899 E.02799
G1 X137.109 Y46.412 E.02721
G1 X137.169 Y46.914 E.02553
G1 X137.132 Y47.467 E.02794
G1 X136.987 Y48.001 E.02794
G1 X136.738 Y48.495 E.02794
G1 X136.397 Y48.93 E.0279
G1 X135.918 Y49.322 E.03127
M204 S1000
G1 X135.546 Y48.848 F10800
M204 S800
;TYPE:External perimeter
G1 F1200
G1 X135.158 Y49.04 E.02185
G1 X134.74 Y49.152 E.02185
G1 X134.308 Y49.179 E.02185
G1 X133.879 Y49.119 E.02185
G1 X133.471 Y48.976 E.02185
G1 X133.099 Y48.754 E.02185
G1 X132.783 Y48.47 E.02146
G1 X132.579 Y48.207 E.01681
G1 X132.377 Y47.824 E.02184
G1 X132.255 Y47.409 E.02185
G1 X132.218 Y47.038 E.01881
G1 X132.267 Y46.547 E.02489
G1 X132.4 Y46.135 E.02185
G1 X132.612 Y45.758 E.02185
G1 X132.895 Y45.43 E.02185
G1 X133.237 Y45.165 E.02185
G1 X133.624 Y44.972 E.02185
G1 X134.042 Y44.861 E.02182
G1 X134.455 Y44.833 E.02089
G1 X134.929 Y44.908 E.0242
G1 X135.213 Y44.994 E.01499
G1 X135.595 Y45.196 E.02185
G1 X135.93 Y45.471 E.02185
G1 X136.204 Y45.806 E.02185
G1 X136.406 Y46.189 E.02185
G1 X136.528 Y46.604 E.02185
G1 X136.565 Y47.036 E.02185
G1 X136.516 Y47.466 E.02185
G1 X136.383 Y47.878 E.02185
G1 X136.171 Y48.255 E.02185
G1 X135.888 Y48.583 E.02185
G1 X135.617 Y48.793 E.01731
M204 S1000
G1 X135.562 Y49.281 F10800
;WIPE_START
G1 F8640
G1 X135.158 Y49.04 E-.1204
G1 X134.74 Y49.152 E-.09996
G1 X134.308 Y49.179 E-.09995
G1 X133.879 Y49.119 E-.09996
G1 X133.471 Y48.976 E-.09996
G1 X133.099 Y48.754 E-.09995
G1 X132.783 Y48.47 E-.09817
G1 X132.579 Y48.207 E-.07689
G1 X132.377 Y47.824 E-.0999
G1 X132.31 Y47.596 E-.05485
;WIPE_END
G1 E-.05 F2100
G1 Z.4 F720
G1 X137.137 Y88.521 F10800
G1 Z.2 F720
G1 E1 F2100
M204 S800
;TYPE:Perimeter
G1 F1200
G1 X137.19 Y88.914 E.02003
G1 X137.153 Y89.467 E.02794
G1 X137.007 Y90.001 E.02794
G1 X136.759 Y90.495 E.02794
G1 X136.418 Y90.931 E.02793
G1 X135.996 Y91.29 E.02794
G1 X135.513 Y91.558 E.02793
G1 X134.985 Y91.726 E.02792
G1 X134.468 Y91.788 E.02629
G1 X133.842 Y91.726 E.03178
G1 X133.314 Y91.56 E.02794
G1 X132.83 Y91.291 E.02793
G1 X132.409 Y90.933 E.02794
G1 X132.067 Y90.497 E.02794
G1 X131.818 Y90.003 E.02794
G1 X131.672 Y89.469 E.02794
G1 X131.63 Y89.008 E.02339
G1 X131.707 Y88.368 E.03251
G1 X131.887 Y87.845 E.02794
G1 X132.167 Y87.368 E.02794
G1 X132.537 Y86.956 E.02793
G1 X132.98 Y86.625 E.02794
G1 X133.48 Y86.388 E.02794
G1 X133.998 Y86.257 E.02696
G1 X134.445 Y86.227 E.02262
G1 X134.983 Y86.286 E.02728
G1 X135.51 Y86.453 E.02794
G1 X135.963 Y86.698 E.02597
G1 X136.36 Y87.02 E.02585
G1 X136.684 Y87.402 E.02527
G1 X136.936 Y87.843 E.02561
G1 X137.125 Y88.432 E.03124
M204 S1000
G1 X136.549 Y88.604 F10800
M204 S800
;TYPE:External perimeter
G1 F1200
G1 X136.586 Y89.036 E.02185
G1 X136.537 Y89.466 E.02185
G1 X136.404 Y89.878 E.02185
G1 X136.192 Y90.255 E.02185
G1 X135.909 Y90.583 E.02185
G1 X135.567 Y90.848 E.02185
G1 X135.179 Y91.04 E.02185
G1 X134.769 Y91.151 E.02146
G1 X134.437 Y91.18 E.01681
G1 X134.006 Y91.142 E.02184
G1 X133.591 Y91.019 E.02185
G1 X133.208 Y90.817 E.02185
G1 X132.874 Y90.542 E.02185
G1 X132.6 Y90.207 E.02185
G1 X132.398 Y89.824 E.02185
G1 X132.276 Y89.409 E.02185
G1 X132.237 Y89.007 E.02034
G1 X132.287 Y88.547 E.02338
G1 X132.421 Y88.135 E.02185
G1 X132.633 Y87.758 E.02185
G1 X132.915 Y87.43 E.02185
G1 X133.257 Y87.165 E.02185
G1 X133.645 Y86.972 E.02185
G1 X134.057 Y86.861 E.02152
G1 X134.399 Y86.833 E.01733
G1 X134.818 Y86.871 E.02126
G1 X135.233 Y86.994 E.02185
G1 X135.616 Y87.196 E.02185
G1 X135.951 Y87.471 E.02185
G1 X136.225 Y87.806 E.02185
G1 X136.426 Y88.189 E.02185
G1 X136.523 Y88.518 E.01731
M204 S1000
G1 X136.957 Y88.748 F10800
;WIPE_START
G1 F8640
G1 X136.586 Y89.036 E-.1204
G1 X136.537 Y89.466 E-.09996
G1 X136.404 Y89.878 E-.09995
G1 X136.192 Y90.255 E-.09995
G1 X135.909 Y90.583 E-.09996
G1 X135.567 Y90.848 E-.09996
G1 X135.179 Y91.04 E-.09995
G1 X134.769 Y91.151 E-.09817
G1 X134.437 Y91.18 E-.07689
G1 X134.201 Y91.159 E-.0548
;WIPE_END
G1 E-.05 F2100
G1 Z.4 F720
G1 X180.44 Y34.057 F10800
G1 Z.2 F720
G1 E1 F2100
M204 S800
;TYPE:Perimeter
G1 F1200
G1 X180.409 Y34.146 E.00474
G1 X180.154 Y34.593 E.02598
G1 X179.818 Y34.986 E.0261
G1 X179.416 Y35.308 E.02599
G1 X178.973 Y35.543 E.02534
G1 X178.457 Y35.704 E.02724
G1 X177.907 Y35.764 E.02794
G1 X177.356 Y35.713 E.02794
G1 X176.838 Y35.56 E.02727
G1 X176.381 Y35.326 E.0259
G1 X175.973 Y35.005 E.02624
G1 X175.641 Y34.626 E.02543
G1 X175.361 Y34.149 E.02794
G1 X175.18 Y33.626 E.02794
G1 X175.107 Y33.077 E.02794
G1 X175.144 Y32.525 E.02794
G1 X175.289 Y31.991 E.02794
G1 X175.538 Y31.496 E.02794
G1 X175.879 Y31.061 E.02794
G1 X176.3 Y30.702 E.02794
G1 X176.784 Y30.433 E.02794
G1 X177.311 Y30.265 E.02793
G1 X177.848 Y30.206 E.02727
G1 X178.455 Y30.265 E.03076
G1 X178.982 Y30.432 E.02792
G1 X179.467 Y30.7 E.02794
G1 X179.888 Y31.059 E.02794
G1 X180.23 Y31.494 E.02794
G1 X180.479 Y31.988 E.02794
G1 X180.625 Y32.522 E.02794
G1 X180.662 Y33.074 E.02794
G1 X180.589 Y33.623 E.02794
G1 X180.469 Y33.972 E.01866
M204 S1000
G1 X179.876 Y33.856 F10800
M204 S800
;TYPE:External perimeter
G1 F1200
G1 X179.664 Y34.233 E.02185
G1 X179.281 Y34.641 E.02825
G1 X179.039 Y34.827 E.01537
G1 X178.651 Y35.019 E.02185
G1 X178.233 Y35.131 E.02185
G1 X177.801 Y35.157 E.02185
G1 X177.373 Y35.098 E.02182
G1 X176.982 Y34.963 E.02089
G1 X176.68 Y34.795 E.01741
G1 X176.346 Y34.521 E.02184
G1 X176.072 Y34.185 E.02185
G1 X175.87 Y33.802 E.02185
G1 X175.748 Y33.387 E.02185
G1 X175.711 Y33.016 E.01882
G1 X175.76 Y32.526 E.02489
G1 X175.893 Y32.114 E.02185
G1 X176.105 Y31.736 E.02185
G1 X176.388 Y31.408 E.02185
G1 X176.73 Y31.143 E.02185
G1 X177.117 Y30.951 E.02185
G1 X177.535 Y30.839 E.02182
G1 X177.948 Y30.812 E.02089
G1 X178.291 Y30.849 E.01741
G1 X178.706 Y30.972 E.02184
G1 X179.088 Y31.175 E.02185
G1 X179.423 Y31.449 E.02185
G1 X179.697 Y31.785 E.02185
G1 X179.899 Y32.167 E.02185
G1 X180.021 Y32.583 E.02185
G1 X180.058 Y33.014 E.02185
G1 X180.009 Y33.444 E.02185
G1 X179.904 Y33.77 E.01731
M204 S1000
G1 X180.133 Y34.205 F10800
;WIPE_START
G1 F8640
G1 X179.664 Y34.233 E-.12039
G1 X179.281 Y34.641 E-.1292
G1 X179.039 Y34.827 E-.07032
G1 X178.651 Y35.019 E-.09996
G1 X178.233 Y35.131 E-.09996
G1 X177.801 Y35.157 E-.09995
G1 X177.373 Y35.098 E-.0998
G1 X176.982 Y34.963 E-.09556
G1 X176.68 Y34.795 E-.07966
G1 X176.496 Y34.643 E-.0552
;WIPE_END
G1 E-.05 F2100
G1 Z.4 F720
G1 X218.866 Y45.829 F10800
G1 Z.2 F720
G1 E1 F2100
M204 S800
;TYPE:Perimeter
G1 F1200
G1 X219.045 Y45.475 E.02003
G1 X219.386 Y45.039 E.02794
G1 X219.807 Y44.68 E.02794
G1 X220.291 Y44.411 E.02794
G1 X220.818 Y44.244 E.02793
G1 X221.355 Y44.184 E.02728
G1 X221.962 Y44.243 E.03076
G1 X222.489 Y44.41 E.02792
G1 X222.973 Y44.678 E.02794
G1 X223.395 Y45.037 E.02794
G1 X223.737 Y45.472 E.02794
G1 X223.986 Y45.967 E.02794
G1 X224.132 Y46.501 E.02794
G1 X224.169 Y47.053 E.02794
G1 X224.096 Y47.601 E.02794
G1 X223.916 Y48.125 E.02794
G1 X223.636 Y48.602 E.02794
G1 X223.267 Y49.014 E.02793
G1 X222.823 Y49.345 E.02794
G1 X222.323 Y49.582 E.02794
G1 X221.786 Y49.714 E.02794
G1 X221.233 Y49.738 E.02793
G1 X220.686 Y49.652 E.02794
G1 X220.168 Y49.459 E.02794
G1 X219.727 Y49.192 E.02599
G1 X219.342 Y48.845 E.02614
G1 X219.036 Y48.444 E.02549
G1 X218.81 Y47.996 E.0253
G1 X218.663 Y47.506 E.02583
G1 X218.614 Y47.055 E.0229
G1 X218.651 Y46.503 E.02794
G1 X218.826 Y45.91 E.03124
M204 S1000
G1 X219.4 Y46.092 F10800
M204 S800
;TYPE:External perimeter
G1 F1200
G1 X219.612 Y45.715 E.02185
G1 X219.895 Y45.387 E.02185
G1 X220.237 Y45.122 E.02185
G1 X220.624 Y44.929 E.02185
G1 X221.042 Y44.818 E.02182
G1 X221.455 Y44.79 E.02089
G1 X221.798 Y44.828 E.01741
G1 X222.213 Y44.951 E.02184
G1 X222.595 Y45.153 E.02185
G1 X222.93 Y45.428 E.02185
G1 X223.204 Y45.763 E.02185
G1 X223.406 Y46.146 E.02185
G1 X223.528 Y46.561 E.02185
G1 X223.565 Y46.993 E.02185
G1 X223.516 Y47.423 E.02185
G1 X223.383 Y47.835 E.02185
G1 X223.171 Y48.212 E.02185
G1 X222.888 Y48.54 E.02185
G1 X222.546 Y48.805 E.02185
G1 X222.158 Y48.997 E.02185
G1 X221.74 Y49.109 E.02185
G1 X221.308 Y49.136 E.02185
G1 X220.879 Y49.076 E.02185
G1 X220.471 Y48.933 E.02185
G1 X220.099 Y48.711 E.02185
G1 X219.778 Y48.421 E.02185
G1 X219.522 Y48.073 E.02182
G1 X219.332 Y47.653 E.02322
G1 X219.255 Y47.365 E.01505
G1 X219.218 Y46.995 E.0188
G1 X219.267 Y46.504 E.02489
G1 X219.372 Y46.178 E.01731
M204 S1000
G1 X219.141 Y45.745 F10800
;WIPE_START
G1 F8640
G1 X219.612 Y45.715 E-.1204
G1 X219.895 Y45.387 E-.09996
G1 X220.237 Y45.122 E-.09995
G1 X220.624 Y44.929 E-.09995
G1 X221.042 Y44.818 E-.0998
G1 X221.455 Y44.79 E-.09556
G1 X221.798 Y44.828 E-.07965
G1 X222.213 Y44.951 E-.0999
G1 X222.595 Y45.153 E-.09995
G1 X222.779 Y45.304 E-.05487
;WIPE_END
G1 E-.05 F2100
G1 Z.4 F720
G1 X218.887 Y87.829 F10800
G1 Z.2 F720
G1 E1 F2100
M204 S800
;TYPE:Perimeter
G1 F1200
G1 X219.065 Y87.475 E.02003
G1 X219.407 Y87.039 E.02794
G1 X219.828 Y86.68 E.02794
G1 X220.312 Y86.411 E.02794
G1 X220.839 Y86.244 E.02794
G1 X221.376 Y86.184 E.02728
G1 X221.983 Y86.243 E.03076
G1 X222.51 Y86.41 E.02793
G1 X222.994 Y86.678 E.02794
G1 X223.416 Y87.037 E.02794
G1 X223.758 Y87.472 E.02794
G1 X224.006 Y87.967 E.02794
G1 X224.153 Y88.5 E.02794
G1 X224.19 Y89.053 E.02794
G1 X224.117 Y89.601 E.02794
G1 X223.937 Y90.125 E.02793
G1 X223.657 Y90.602 E.02794
G1 X223.288 Y91.014 E.02794
G1 X222.844 Y91.345 E.02794
G1 X222.344 Y91.582 E.02794
G1 X221.807 Y91.714 E.02794
G1 X221.276 Y91.741 E.02679
G1 X220.842 Y91.683 E.02214
G1 X220.314 Y91.517 E.02792
G1 X219.83 Y91.248 E.02794
G1 X219.409 Y90.89 E.02794
G1 X219.067 Y90.454 E.02794
G1 X218.818 Y89.96 E.02794
G1 X218.672 Y89.426 E.02794
G1 X218.634 Y89.055 E.01881
G1 X218.671 Y88.503 E.02794
G1 X218.847 Y87.91 E.03124
M204 S1000
G1 X219.42 Y88.092 F10800
M204 S800
;TYPE:External perimeter
G1 F1200
G1 X219.633 Y87.715 E.02185
G1 X219.915 Y87.387 E.02185
G1 X220.257 Y87.122 E.02185
G1 X220.645 Y86.929 E.02185
G1 X221.063 Y86.818 E.02182
G1 X221.476 Y86.79 E.02089
G1 X221.819 Y86.828 E.01741
G1 X222.233 Y86.951 E.02184
G1 X222.616 Y87.153 E.02185
G1 X222.951 Y87.428 E.02185
G1 X223.225 Y87.763 E.02185
G1 X223.426 Y88.146 E.02185
G1 X223.549 Y88.561 E.02185
G1 X223.586 Y88.993 E.02185
G1 X223.537 Y89.423 E.02185
G1 X223.404 Y89.835 E.02185
G1 X223.192 Y90.212 E.02185
G1 X222.909 Y90.54 E.02185
G1 X222.567 Y90.805 E.02185
G1 X222.179 Y90.997 E.02185
G1 X221.761 Y91.109 E.02185
G1 X221.337 Y91.136 E.02146
G1 X221.006 Y91.099 E.01681
G1 X220.591 Y90.976 E.02184
G1 X220.208 Y90.774 E.02185
G1 X219.874 Y90.499 E.02185
G1 X219.6 Y90.164 E.02185
G1 X219.398 Y89.781 E.02185
G1 X219.276 Y89.366 E.02185
G1 X219.239 Y88.995 E.01881
G1 X219.287 Y88.504 E.02489
G1 X219.393 Y88.178 E.01731
M204 S1000
G1 X219.162 Y87.745 F10800
;WIPE_START
G1 F8640
G1 X219.633 Y87.715 E-.1204
G1 X219.915 Y87.387 E-.09995
G1 X220.257 Y87.122 E-.09996
G1 X220.645 Y86.929 E-.09995
G1 X221.063 Y86.818 E-.0998
G1 X221.476 Y86.79 E-.09558
G1 X221.819 Y86.828 E-.07964
G1 X222.233 Y86.951 E-.09991
G1 X222.616 Y87.153 E-.09995
G1 X222.8 Y87.304 E-.05486
;WIPE_END
G1 E-.05 F2100
G1 Z.4 F720
G1 X226.222 Y33.261 F10800
G1 Z.2 F720
G1 E1 F2100
M204 S800
;TYPE:Solid infill
;WIDTH:0.650413
G1 F1200
G1 X222.001 Y29.04 E.30152
G1 X221.714 Y28.938 E.01536
G1 X221.13 Y28.792 E.03041
G1 X220.86 Y28.759 E.01374
G1 X226.115 Y34.013 E.37534
G1 X226.166 Y34.356 E.01752
G1 X226.195 Y34.953 E.03018
G1 X219.917 Y28.674 E.44851
G1 X219.058 Y28.675 E.04338
G1 X226.199 Y35.815 E.5101
G1 X226.199 Y36.675 E.04342
G1 X218.199 Y28.675 E.57147
G1 X217.34 Y28.675 E.04338
G1 X226.199 Y37.534 E.63285
