; generated by PrusaSlicer 2.5.0+linux-x64-GTK3 on 2022-10-24 at 23:18:52 UTC


;
;

;
;
; 

; external perimeters extrusion width = 0.35mm
; perimeters extrusion width = 0.35mm
; infill extrusion width = 0.35mm
; solid infill extrusion width = 0.35mm
; top infill extrusion width = 0.35mm
; first layer extrusion width = 0.35mm

M73 P0 R18
M73 Q0 S19
M201 X1000 Y1000 Z200 E5000 ; sets maximum accelerations, mm/sec^2
M203 X200 Y200 Z12 E120 ; sets maximum feedrates, mm / sec
M204 P1250 R1250 T1250 ; sets acceleration (P, T) and retract acceleration (R), mm/sec^2
M205 X8.00 Y8.00 Z0.40 E4.50 ; sets the jerk limits, mm/sec
M205 S0 T0 ; sets the minimum extruding and travel feed rate, mm/sec
M107
;TYPE:Custom
M862.3 P "MK3S" ; printer model check
M862.1 P0.4 ; nozzle diameter check
M115 U3.9.2 ; tell printer latest fw version
G90 ; use absolute coordinates
M83 ; extruder relative mode
M104 S232 ; set extruder temp
M140 S40 ; set bed temp
M190 S40 ; wait for bed temp
M109 S232 ; wait for extruder temp
G28 W ; home all without mesh bed level
G80 ; mesh bed leveling
G1 Y-3.0 F1000.0 ; go outside print area
G92 E0.0
G1 X60.0 E9.0 F1000.0 ; intro line
G1 X100.0 E12.5 F1000.0 ; intro line
G92 E0.0
M221 S95

; Don't change E values below. Excessive value can damage the printer.

G21 ; set units to millimeters
G90 ; use absolute coordinates
M83 ; use relative distances for extrusion
M900 K45 ; Filament gcode
M107
;LAYER_CHANGE
;Z:0.25
;HEIGHT:0.25
;BEFORE_LAYER_CHANGE
G92 E0.0
;0.25


G1 E-3.4 F1500
G1 Z.5 F9000
;AFTER_LAYER_CHANGE
;0.25
G1 X58.87 Y49.716
G1 Z.25
G1 E3.4 F1500
;TYPE:Skirt/Brim
;WIDTH:0.35
G1 F1200
G1 X61.708 Y46.488 E.13503
G1 X64.704 Y43.406 E.13503
G1 X67.849 Y40.477 E.13503
G1 X71.136 Y37.708 E.13503
G1 X74.557 Y35.107 E.13503
G1 X78.104 Y32.68 E.13503
G1 X81.767 Y30.432 E.13503
G1 X85.538 Y28.37 E.13503
G1 X89.406 Y26.498 E.13503
G1 X93.656 Y24.707 E.14489
G1 X97.697 Y23.244 E.13503
G1 X101.806 Y21.985 E.13503
G1 X105.973 Y20.932 E.13503
G1 X110.187 Y20.088 E.13503
G1 X114.438 Y19.455 E.13503
G1 X118.715 Y19.035 E.13503
G1 X123.008 Y18.828 E.13503
G1 X127.306 Y18.836 E.13503
G1 X131.598 Y19.058 E.13503
G1 X135.873 Y19.494 E.13503
G1 X140.122 Y20.142 E.13503
M73 P1 R18
G1 X144.333 Y21.002 E.13503
G1 X148.496 Y22.07 E.13503
M73 Q1 S19
G1 X152.601 Y23.344 E.13503
G1 X156.636 Y24.821 E.13503
G1 X160.594 Y26.498 E.13503
G1 X164.462 Y28.37 E.13503
G1 X168.233 Y30.432 E.13503
G1 X171.896 Y32.68 E.13503
G1 X175.443 Y35.107 E.13503
G1 X178.864 Y37.708 E.13503
G1 X182.151 Y40.477 E.13503
G1 X185.296 Y43.406 E.13503
G1 X188.292 Y46.488 E.13503
G1 X190.928 Y49.475 E.12517
G1 X193.614 Y52.83 E.13503
G1 X196.129 Y56.315 E.13503
G1 X198.467 Y59.921 E.13503
G1 X200.623 Y63.639 E.13503
G1 X202.59 Y67.46 E.13503
G1 X204.365 Y71.374 E.13503
G1 X205.943 Y75.372 E.13503
G1 X207.319 Y79.444 E.13503
G1 X208.49 Y83.579 E.13503
G1 X209.454 Y87.767 E.13503
G1 X210.208 Y91.998 E.13503
G1 X210.75 Y96.262 E.13503
G1 X211.079 Y100.547 E.13503
G1 X211.194 Y104.843 E.13503
G1 X211.095 Y109.14 E.13503
G1 X210.782 Y113.426 E.13503
G1 X210.255 Y117.691 E.13503
G1 X209.516 Y121.925 E.13503
G1 X208.568 Y126.117 E.13503
G1 X207.411 Y130.256 E.13503
G1 X206.05 Y134.333 E.13503
G1 X204.487 Y138.336 E.13503
G1 X202.727 Y142.257 E.13503
G1 X200.773 Y146.085 E.13503
G1 X198.631 Y149.811 E.13503
G1 X196.306 Y153.425 E.13503
G1 X193.803 Y156.919 E.13503
G1 X191.13 Y160.284 E.13503
G1 X188.292 Y163.512 E.13503
G1 X185.296 Y166.594 E.13503
G1 X182.151 Y169.523 E.13503
G1 X178.864 Y172.292 E.13503
G1 X175.443 Y174.893 E.13503
G1 X171.896 Y177.32 E.13503
G1 X168.233 Y179.568 E.13503
G1 X164.183 Y181.774 E.14489
G1 X160.308 Y183.631 E.13503
G1 X156.344 Y185.293 E.13503
G1 X152.303 Y186.756 E.13502
M73 P2 R18
G1 X148.194 Y188.015 E.13503
G1 X144.027 Y189.068 E.13502
G1 X139.813 Y189.912 E.13503
G1 X135.562 Y190.545 E.13503
M73 Q2 S19
G1 X131.285 Y190.965 E.13503
G1 X126.992 Y191.172 E.13503
G1 X122.694 Y191.164 E.13503
G1 X118.402 Y190.942 E.13503
G1 X114.127 Y190.506 E.13503
G1 X109.878 Y189.858 E.13503
G1 X105.667 Y188.998 E.13502
G1 X101.504 Y187.93 E.13503
G1 X97.399 Y186.656 E.13502
G1 X93.363 Y185.179 E.13503
G1 X89.406 Y183.502 E.13503
G1 X85.538 Y181.63 E.13503
G1 X81.767 Y179.568 E.13503
G1 X78.104 Y177.32 E.13503
G1 X74.557 Y174.893 E.13503
G1 X71.136 Y172.292 E.13503
G1 X67.849 Y169.523 E.13503
G1 X64.704 Y166.594 E.13503
G1 X61.708 Y163.512 E.13503
G1 X58.87 Y160.284 E.13503
G1 X56.197 Y156.919 E.13503
G1 X53.694 Y153.425 E.13503
G1 X51.369 Y149.811 E.13503
G1 X49.227 Y146.085 E.13503
G1 X47.273 Y142.257 E.13503
G1 X45.513 Y138.336 E.13503
G1 X43.95 Y134.333 E.13503
G1 X42.589 Y130.256 E.13503
G1 X41.432 Y126.117 E.13503
G1 X40.484 Y121.925 E.13503
G1 X39.745 Y117.691 E.13503
G1 X39.218 Y113.426 E.13503
G1 X38.921 Y109.453 E.12517
G1 X38.806 Y105.157 E.13503
G1 X38.905 Y100.86 E.13503
G1 X39.218 Y96.574 E.13503
G1 X39.745 Y92.309 E.13503
G1 X40.484 Y88.075 E.13503
G1 X41.432 Y83.883 E.13503
G1 X42.589 Y79.744 E.13503
G1 X43.95 Y75.667 E.13503
G1 X45.513 Y71.664 E.13503
G1 X47.273 Y67.743 E.13503
G1 X49.227 Y63.915 E.13503
G1 X51.369 Y60.189 E.13503
G1 X53.694 Y56.575 E.13503
G1 X56.197 Y53.081 E.13503
G1 X58.833 Y49.763 E.13314
;WIPE_START
G1 F7200
M73 P3 R18
G1 X61.708 Y46.488 E-.86246
G1 X64.704 Y43.406 E-.8506
G1 X67.849 Y40.477 E-.8506
G1 X70.424 Y38.308 E-.66634
;WIPE_END
G1 E-.17 F1500
G1 Z.75 F9000
G1 X55.161 Y66.968
G1 X53.352 Y70.496
G1 X51.721 Y74.11
G1 X50.273 Y77.801
G1 X49.01 Y81.56
G1 X47.936 Y85.377
G1 X47.053 Y89.243
G1 X46.365 Y93.148
G1 X45.872 Y97.082
G1 X45.576 Y101.036
M73 Q3 S19
G1 X45.477 Y105
G1 X45.576 Y108.964
G1 X45.872 Y112.918
G1 X46.365 Y116.852
G1 X47.053 Y120.757
G1 X47.936 Y124.623
G1 X49.01 Y128.44
G1 X50.273 Y132.199
G1 X51.721 Y135.89
G1 X53.352 Y139.504
G1 X55.161 Y143.032
G1 X57.143 Y146.466
G1 X59.295 Y149.797
G1 X61.609 Y153.017
G1 X64.082 Y156.117
G1 X64.298 Y156.362
G1 X66.253 Y158.577
G1 X66.168 Y158.653
G1 Z.25
G1 E3.4 F1500
;TYPE:External perimeter
;WIDTH:0.524906
G1 F1200
G1 X63.99 Y156.185 E.16439
G1 X61.515 Y153.081 E.19839
G1 X59.197 Y149.856 E.19839
G1 X57.043 Y146.521 E.19839
G1 X55.058 Y143.082 E.19839
G1 X53.247 Y139.548 E.19839
G1 X51.618 Y135.939 E.1978
G1 X50.167 Y132.243 E.19839
G1 X48.899 Y128.468 E.19897
G1 X47.824 Y124.645 E.19839
G1 X46.94 Y120.774 E.19838
G1 X46.253 Y116.875 E.1978
G1 X45.759 Y112.935 E.19839
G1 X45.462 Y108.975 E.19839
G1 X45.363 Y105 E.19868
G1 X45.363 Y104.994 E.00029
;WIDTH:0.524806
G1 X45.462 Y101.025 E.19834
G1 X45.758 Y97.077 E.19776
G1 X46.253 Y93.125 E.19893
G1 X46.943 Y89.214 E.19835
G1 X47.827 Y85.343 E.19834
G1 X48.899 Y81.532 E.19776
G1 X50.163 Y77.768 E.19834
G1 X51.618 Y74.061 E.19893
G1 X53.247 Y70.452 E.19776
G1 X55.058 Y66.918 E.19834
G1 X57.043 Y63.479 E.19834
G1 X59.204 Y60.134 E.19893
G1 X61.515 Y56.919 E.19776
G1 X63.99 Y53.815 E.19835
G1 X66.626 Y50.829 E.19893
G1 X69.398 Y47.986 E.19834
G1 X72.301 Y45.293 E.19776
G1 X75.352 Y42.733 E.19893
G1 X78.517 Y40.336 E.19834
G1 X81.788 Y38.106 E.19776
G1 X85.176 Y36.035 E.19834
G1 X88.674 Y34.13 E.19893
G1 X92.252 Y32.408 E.19834
G1 X95.911 Y30.866 E.19834
G1 X99.631 Y29.511 E.19776
G1 X103.437 Y28.338 E.19893
G1 X107.285 Y27.358 E.19835
G1 X111.177 Y26.572 E.19834
G1 X115.092 Y25.981 E.19776
G1 X119.055 Y25.585 E.19893
G1 X123.02 Y25.387 E.19834
G1 X126.98 Y25.387 E.19776
G1 X130.945 Y25.585 E.19834
G1 X134.908 Y25.981 E.19893
G1 X138.823 Y26.572 E.19776
G1 X142.715 Y27.358 E.19834
M73 P4 R18
G1 X146.563 Y28.338 E.19835
G1 X150.369 Y29.511 E.19893
G1 X154.089 Y30.866 E.19776
M73 Q4 S19
G1 X157.748 Y32.408 E.19834
G1 X161.337 Y34.136 E.19893
G1 X164.824 Y36.035 E.19835
G1 X168.202 Y38.099 E.19776
G1 X171.493 Y40.343 E.19893
G1 X174.658 Y42.741 E.19834
G1 X177.691 Y45.286 E.19776
G1 X180.602 Y47.986 E.19834
M73 Q4 S18
G1 X183.382 Y50.837 E.19893
G1 X186.002 Y53.806 E.19776
G1 X188.478 Y56.91 E.19835
G1 X190.803 Y60.144 E.19893
G1 X192.957 Y63.479 E.19835
G1 X194.936 Y66.908 E.19776
G1 X196.748 Y70.441 E.19834
G1 X198.386 Y74.071 E.19893
G1 X199.837 Y77.768 E.19835
G1 X201.101 Y81.532 E.19834
G1 X202.173 Y85.343 E.19776
G1 X203.06 Y89.226 E.19893
G1 X203.747 Y93.125 E.19776
G1 X204.241 Y97.065 E.19834
G1 X204.538 Y101.025 E.19834
G1 X204.637 Y105.006 E.19893
G1 X204.538 Y108.975 E.19834
G1 X204.242 Y112.923 E.19776
G1 X203.747 Y116.875 E.19893
G1 X203.057 Y120.786 E.19835
G1 X202.173 Y124.657 E.19834
G1 X201.101 Y128.468 E.19776
G1 X199.833 Y132.243 E.19893
G1 X198.382 Y135.939 E.19834
G1 X196.753 Y139.548 E.19776
G1 X194.936 Y143.092 E.19893
G1 X192.951 Y146.531 E.19834
G1 X190.803 Y149.856 E.19776
G1 X188.485 Y153.081 E.19834
G1 X186.002 Y156.194 E.19893
G1 X183.374 Y159.171 E.19834
G1 X180.61 Y162.006 E.19776
G1 X177.699 Y164.707 E.19835
G1 X174.648 Y167.267 E.19893
G1 X171.493 Y169.657 E.19776
G1 X168.212 Y171.894 E.19834
G1 X164.814 Y173.971 E.19893
G1 X161.326 Y175.87 E.19835
G1 X157.759 Y177.587 E.19776
G1 X154.1 Y179.13 E.19834
G1 X150.358 Y180.492 E.19893
;WIDTH:0.524906
G1 X146.563 Y181.662 E.19839
G1 X142.727 Y182.639 E.1978
G1 X138.823 Y183.429 E.19897
G1 X134.908 Y184.019 E.1978
G1 X130.957 Y184.414 E.19839
M73 P5 R18
G1 X126.98 Y184.613 E.19897
G1 X123.02 Y184.613 E.1978
G1 X119.055 Y184.415 E.19839
G1 X115.092 Y184.019 E.19897
G1 X111.165 Y183.426 E.19839
M73 Q5 S18
G1 X107.273 Y182.639 E.19838
G1 X103.437 Y181.662 E.1978
G1 X99.631 Y180.489 E.19897
G1 X95.911 Y179.134 E.1978
M73 P5 R17
G1 X92.252 Y177.592 E.19839
G1 X88.663 Y175.864 E.19897
G1 X85.176 Y173.965 E.19839
G1 X81.798 Y171.901 E.1978
G1 X78.507 Y169.657 E.19897
G1 X75.342 Y167.259 E.19839
G1 X72.309 Y164.714 E.1978
G1 X69.39 Y162.006 E.19897
G1 X66.626 Y159.171 E.1978
G1 X66.207 Y158.698 E.03158
G1 X66.29 Y158.272 F9000
;LAYER_CHANGE
;Z:0.45
;HEIGHT:0.2
;BEFORE_LAYER_CHANGE
G92 E0.0
;0.45


;WIPE_START
G1 F7200
G1 X63.99 Y156.185 E-.66311
G1 X61.515 Y153.081 E-.7859
G1 X59.197 Y149.856 E-.78589
G1 X57.043 Y146.521 E-.7859
G1 X56.515 Y145.605 E-.20921
;WIPE_END
G1 E-.17 F1500
G1 Z.75 F9000
;AFTER_LAYER_CHANGE
;0.45
G1 X56.512 Y145.607
G1 X51.367 Y135.308
G1 X48.837 Y128.259
G1 X48.798 Y128.117
G1 X48.738 Y128.134
G1 Z.45
G1 E3.4 F1500
;WIDTH:0.396393
G1 X47.76 Y124.654 E.10836
G1 X46.878 Y120.788 E.11887
G1 X46.187 Y116.866 E.1194
G1 X45.693 Y112.923 E.11914
G1 X45.397 Y108.96 E.11914
G1 X45.298 Y105 E.11874
G1 X45.398 Y101.014 E.11953
G1 X45.696 Y97.051 E.11914
G1 X46.188 Y93.121 E.11874
G1 X46.881 Y89.194 E.11954
G1 X47.766 Y85.32 E.11914
G1 X48.843 Y81.495 E.11914
G1 X50.106 Y77.736 E.11887
G1 X51.562 Y74.029 E.1194
G1 X53.193 Y70.415 E.11887
G1 X55.011 Y66.871 E.1194
G1 X56.998 Y63.43 E.11914
G1 X59.155 Y60.092 E.11914
G1 X61.475 Y56.865 E.11914
G1 X63.945 Y53.769 E.11874
G1 X66.578 Y50.786 E.11927
G1 X69.359 Y47.935 E.1194
G1 X72.273 Y45.233 E.11914
G1 X75.307 Y42.687 E.11874
G1 X78.486 Y40.28 E.11953
G1 X81.762 Y38.046 E.11888
G1 X85.138 Y35.983 E.11861
G1 X88.643 Y34.074 E.11967
G1 X92.224 Y32.35 E.11914
G1 X95.894 Y30.803 E.1194
G1 X99.629 Y29.445 E.11914
G1 X103.414 Y28.277 E.11874
G1 X107.269 Y27.296 E.11927
G1 X111.164 Y26.508 E.11914
G1 X115.103 Y25.915 E.1194
G1 X119.057 Y25.52 E.11914
G1 X123.013 Y25.323 E.11874
G1 X126.991 Y25.323 E.11927
G1 X130.96 Y25.522 E.11914
G1 X134.915 Y25.917 E.11914
G1 X138.844 Y26.51 E.11914
G1 X142.74 Y27.298 E.11914
G1 X146.574 Y28.274 E.11861
M73 P6 R17
G1 X150.371 Y29.445 E.11914
G1 X154.106 Y30.803 E.11914
G1 X157.784 Y32.353 E.11967
G1 X161.365 Y34.078 E.11914
G1 X164.839 Y35.97 E.11861
G1 X168.242 Y38.048 E.11953
G1 X171.514 Y40.28 E.11874
G1 X174.703 Y42.695 E.11993
G1 X177.738 Y45.241 E.11874
G1 X180.66 Y47.954 E.11953
M73 Q6 S18
G1 X183.428 Y50.792 E.11887
G1 X186.058 Y53.772 E.11914
G1 X188.541 Y56.886 E.1194
G1 X190.853 Y60.102 E.11874
G1 X193.015 Y63.452 E.11953
G1 X194.998 Y66.886 E.11887
G1 X196.814 Y70.431 E.1194
G1 X198.448 Y74.053 E.11914
G1 X199.899 Y77.753 E.11914
G1 X201.162 Y81.512 E.11887
G1 X202.24 Y85.346 E.1194
G1 X203.122 Y89.212 E.11887
G1 X203.813 Y93.134 E.1194
G1 X204.307 Y97.077 E.11914
G1 X204.603 Y101.04 E.11914
G1 X204.702 Y105 E.11874
G1 X204.602 Y108.986 E.11953
G1 X204.304 Y112.949 E.11914
G1 X203.812 Y116.879 E.11874
G1 X203.119 Y120.806 E.11954
G1 X202.234 Y124.68 E.11914
G1 X201.159 Y128.497 E.11888
G1 X199.894 Y132.264 E.11914
G1 X198.438 Y135.971 E.1194
G1 X196.803 Y139.593 E.11914
G1 X194.989 Y143.129 E.11914
G1 X193.002 Y146.57 E.11914
G1 X190.85 Y149.901 E.11887
G1 X188.53 Y153.128 E.11914
G1 X186.046 Y156.241 E.1194
G1 X183.434 Y159.201 E.11835
G1 X180.651 Y162.056 E.11953
G1 X177.727 Y164.767 E.11954
G1 X174.69 Y167.316 E.11887
G1 X171.514 Y169.72 E.1194
G1 X168.231 Y171.958 E.11914
G1 X164.847 Y174.026 E.11887
G1 X161.349 Y175.93 E.1194
G1 X157.776 Y177.65 E.11887
G1 X154.114 Y179.194 E.11914
G1 X150.396 Y180.547 E.11861
G1 X146.586 Y181.723 E.11953
G1 X142.748 Y182.7 E.11874
G1 X138.84 Y183.491 E.11953
G1 X134.897 Y184.085 E.11953
G1 X130.943 Y184.48 E.11914
G1 X126.987 Y184.677 E.11874
G1 X123.009 Y184.677 E.11927
G1 X119.04 Y184.478 E.11914
G1 X115.077 Y184.081 E.1194
G1 X111.147 Y183.488 E.11914
G1 X107.252 Y182.7 E.11914
G1 X103.401 Y181.719 E.11914
G1 X99.604 Y180.547 E.11914
G1 X95.878 Y179.191 E.11887
G1 X92.208 Y177.643 E.1194
G1 X88.639 Y175.924 E.11874
G1 X85.161 Y174.03 E.11874
G1 X81.769 Y171.958 E.11914
G1 X78.486 Y169.72 E.11914
G1 X75.317 Y167.321 E.11914
G1 X72.263 Y164.759 E.11953
M73 P7 R17
G1 X69.359 Y162.065 E.11874
G1 X66.584 Y159.22 E.11914
G1 X63.954 Y156.241 E.11914
G1 X61.475 Y153.135 E.11914
G1 X59.155 Y149.908 E.11914
G1 X56.998 Y146.57 E.11914
G1 X55.011 Y143.129 E.11914
G1 X53.197 Y139.593 E.11914
G1 X51.562 Y135.971 E.11914
G1 X50.11 Y132.272 E.11914
G1 X48.843 Y128.505 E.11914
G1 X48.754 Y128.191 E.00977
G1 X49.013 Y127.843 F9000
M73 Q7 S18
G1 E-3.4 F1500
G1 Z.95 F9000
G1 X52.882 Y138.037
G1 Z.45
G1 E3.4 F1500
;WIDTH:0.396338
G1 X51.881 Y135.818 E.07299
G1 X50.437 Y132.139 E.11846
G1 X49.176 Y128.384 E.11872
G1 X48.104 Y124.575 E.11859
G1 X47.224 Y120.718 E.11859
G1 X46.538 Y116.826 E.11846
G1 X46.047 Y112.905 E.11846
G1 X45.75 Y108.951 E.11886
G1 X45.652 Y104.996 E.11859
G1 X45.75 Y101.045 E.11846
G1 X46.047 Y97.095 E.11872
G1 X46.539 Y93.169 E.11859
G1 X47.226 Y89.273 E.11859
G1 X48.107 Y85.416 E.11859
G1 X49.177 Y81.612 E.11846
G1 X50.439 Y77.857 E.11872
G1 X51.883 Y74.178 E.11846
G1 X53.508 Y70.576 E.11846
G1 X55.315 Y67.051 E.11872
G1 X57.293 Y63.625 E.11859
G1 X59.442 Y60.298 E.11872
G1 X61.752 Y57.086 E.11859
G1 X64.216 Y53.996 E.11846
G1 X66.837 Y51.026 E.11872
G1 X69.599 Y48.194 E.11859
G1 X72.496 Y45.506 E.11846
G1 X75.531 Y42.96 E.11872
G1 X78.677 Y40.577 E.11833
G1 X81.95 Y38.345 E.11872
G1 X85.322 Y36.285 E.11846
G1 X88.801 Y34.39 E.11872
G1 X92.361 Y32.676 E.11846
G1 X96.011 Y31.137 E.11872
G1 X99.725 Y29.785 E.11846
G1 X103.514 Y28.616 E.11886
G1 X107.339 Y27.642 E.11833
G1 X111.221 Y26.857 E.11872
G1 X115.129 Y26.268 E.11846
G1 X119.075 Y25.873 E.11886
G1 X123.022 Y25.676 E.11846
G1 X126.983 Y25.677 E.11872
G1 X130.934 Y25.874 E.11859
G1 X134.871 Y26.268 E.11859
G1 X138.779 Y26.857 E.11846
G1 X142.661 Y27.642 E.11872
G1 X146.486 Y28.616 E.11833
G1 X150.275 Y29.785 E.11886
G1 X153.993 Y31.139 E.11859
G1 X157.639 Y32.676 E.11859
G1 X161.199 Y34.39 E.11846
G1 X164.678 Y36.285 E.11872
G1 X168.046 Y38.343 E.11833
G1 X171.319 Y40.574 E.11872
G1 X174.473 Y42.963 E.11859
G1 X177.504 Y45.506 E.11859
G1 X180.404 Y48.197 E.11859
M73 P8 R17
G1 X183.166 Y51.03 E.11859
G1 X185.787 Y53.999 E.11872
G1 X188.251 Y57.089 E.11846
G1 X190.563 Y60.305 E.11872
G1 X192.707 Y63.625 E.11846
G1 X194.683 Y67.048 E.11846
G1 X196.49 Y70.572 E.11872
G1 X198.116 Y74.174 E.11846
G1 X199.563 Y77.861 E.11872
G1 X200.823 Y81.612 E.11859
G1 X201.893 Y85.416 E.11846
G1 X202.774 Y89.273 E.11859
G1 X203.462 Y93.174 E.11872
G1 X203.953 Y97.095 E.11846
G1 X204.249 Y101.04 E.11859
G1 X204.348 Y105 E.11872
M73 Q8 S18
G1 X204.25 Y108.951 E.11846
G1 X203.954 Y112.896 E.11859
G1 X203.463 Y116.822 E.11859
G1 X202.776 Y120.718 E.11859
G1 X201.896 Y124.575 E.11859
G1 X200.824 Y128.384 E.11859
