; generated by PrusaSlicer 2.5.0+linux-x64-GTK3 on 2022-10-24 at 22:48:32 UTC

; 

; external perimeters extrusion width = 0.65mm
; perimeters extrusion width = 0.65mm
; infill extrusion width = 0.65mm
; solid infill extrusion width = 0.65mm
; top infill extrusion width = 0.60mm
; support material extrusion width = 0.55mm
; first layer extrusion width = 0.65mm

; external perimeters extrusion width = 0.65mm
; perimeters extrusion width = 0.65mm
; infill extrusion width = 0.65mm
; solid infill extrusion width = 0.65mm
; top infill extrusion width = 0.60mm
; support material extrusion width = 0.55mm
; first layer extrusion width = 0.65mm

; external perimeters extrusion width = 0.65mm
; perimeters extrusion width = 0.65mm
; infill extrusion width = 0.65mm
; solid infill extrusion width = 0.65mm
; top infill extrusion width = 0.60mm
; support material extrusion width = 0.55mm
; first layer extrusion width = 0.65mm

; external perimeters extrusion width = 0.65mm
; perimeters extrusion width = 0.65mm
; infill extrusion width = 0.65mm
; solid infill extrusion width = 0.65mm
; top infill extrusion width = 0.60mm
; support material extrusion width = 0.55mm
; first layer extrusion width = 0.65mm

; external perimeters extrusion width = 0.65mm
; perimeters extrusion width = 0.65mm
; infill extrusion width = 0.65mm
; solid infill extrusion width = 0.65mm
; top infill extrusion width = 0.60mm
; support material extrusion width = 0.55mm
; first layer extrusion width = 0.65mm

; external perimeters extrusion width = 0.65mm
; perimeters extrusion width = 0.65mm
; infill extrusion width = 0.65mm
; solid infill extrusion width = 0.65mm
; top infill extrusion width = 0.60mm
; support material extrusion width = 0.55mm
; first layer extrusion width = 0.65mm

M73 P0 R149
M73 C145
M73 Q0 S150
M73 D145
M201 X1000 Y1000 Z200 E5000 ; sets maximum accelerations, mm/sec^2
M203 X200 Y200 Z12 E120 ; sets maximum feedrates, mm / sec
M204 P1250 R1250 T1250 ; sets acceleration (P, T) and retract acceleration (R), mm/sec^2
M205 X8.00 Y8.00 Z0.40 E4.50 ; sets the jerk limits, mm/sec
M205 S0 T0 ; sets the minimum extruding and travel feed rate, mm/sec
M107
;TYPE:Custom
M862.3 P "MK3S" ; printer model check
M862.1 P0.6 ; nozzle diameter check
M115 U3.10.1 ; tell printer latest fw version
G90 ; use absolute coordinates
M83 ; extruder relative mode
M104 S240 ; set extruder temp
M140 S85 ; set bed temp
M190 S85 ; wait for bed temp
M109 S240 ; wait for extruder temp
G28 W ; home all without mesh bed level
G80 ; mesh bed leveling
G1 Z0.2 F720
G1 Y-3 F1000 ; go outside print area
G92 E0
G1 X60 E9 F1000 ; intro line
G1 X100 E12.5 F1000 ; intro line
G92 E0
M221 S95
G21 ; set units to millimeters
G90 ; use absolute coordinates
M83 ; use relative distances for extrusion
M900 K0.04 ; Filament gcode LA 1.5
M900 K24 ; Filament gcode LA 1.0
M107
;LAYER_CHANGE
;Z:0.2
;HEIGHT:0.2
;BEFORE_LAYER_CHANGE
G92 E0.0
;0.2


G1 E-1 F2100
M73 Q0 S149
G1 Z.2 F720
;AFTER_LAYER_CHANGE
;0.2
; printing object SideFenderCoverFrontRight.stl id:3 copy 0
G1 Z.4
G1 X176.055 Y30.45 F10800
G1 Z.2 F720
G1 E1 F2100
M204 S800
;TYPE:Perimeter
;WIDTH:0.649999
G1 F1200
G1 X206.711 Y12.788 E1.78597
G1 X207.423 Y12.4 E.04089
G1 X208.14 Y12.053 E.04022
G1 X208.872 Y11.74 E.04021
G1 X209.619 Y11.462 E.04022
G1 X210.378 Y11.219 E.04022
G1 X211.147 Y11.014 E.04021
G1 X211.926 Y10.845 E.04021
G1 X212.712 Y10.713 E.04022
G1 X213.503 Y10.618 E.04021
G1 X214.297 Y10.562 E.04021
G1 X215.107 Y10.542 E.04088
G1 X231.218 Y10.551 E.81326
G1 X232.262 Y10.61 E.05283
G1 X232.925 Y10.692 E.03371
G1 X233.591 Y10.807 E.03411
G1 X234.25 Y10.955 E.03411
G1 X234.902 Y11.136 E.03411
G1 X235.543 Y11.347 E.03411
G1 X236.174 Y11.591 E.03411
G1 X236.792 Y11.865 E.03411
G1 X237.395 Y12.168 E.03411
G1 X237.983 Y12.501 E.03411
G1 X238.554 Y12.863 E.03411
G1 X239.106 Y13.252 E.03411
G1 X239.639 Y13.668 E.03411
G1 X240.151 Y14.109 E.03411
G1 X240.64 Y14.575 E.03411
G1 X241.105 Y15.064 E.03405
G1 X241.57 Y15.605 E.03603
G1 X241.963 Y16.109 E.03225
G1 X242.352 Y16.661 E.03411
G1 X242.714 Y17.232 E.03411
G1 X243.047 Y17.82 E.03411
G1 X243.351 Y18.424 E.03411
G1 X243.625 Y19.042 E.03411
G1 X243.868 Y19.672 E.03411
G1 X244.068 Y20.279 E.03225
G1 X244.26 Y20.966 E.03603
G1 X244.408 Y21.624 E.03405
G1 X244.524 Y22.29 E.03411
G1 X244.606 Y22.961 E.03411
G1 X244.656 Y23.635 E.03411
G1 X244.673 Y24.324 E.03481
G1 X244.673 Y113.078 E4.4802
G1 X207.609 Y113.078 E1.87095
G1 X207.48 Y107.998 E.25651
M73 C144
G1 X207.023 Y101.824 E.31251
G1 X206.266 Y95.68 E.31251
G1 X205.219 Y89.623 E.31027
G1 X203.87 Y83.581 E.31251
G1 X202.229 Y77.611 E.31251
G1 X200.285 Y71.687 E.31475
G1 X198.07 Y65.906 E.31251
G1 X195.576 Y60.24 E.31251
G1 X192.81 Y54.701 E.31251
G1 X189.8 Y49.342 E.31027
G1 X186.51 Y44.098 E.31251
G1 X182.969 Y39.02 E.31251
G1 X179.185 Y34.12 E.31251
G1 X176.113 Y30.518 E.23895
M204 S1000
;WIPE_START
G1 F8640
G1 X179.673 Y28.455 E-.95
;WIPE_END
G1 E-.05 F2100
G1 Z.4 F720
G1 X175.119 Y30.288 F10800
G1 Z.2 F720
G1 E1 F2100
M204 S800
;TYPE:External perimeter
G1 F1200
G1 X206.415 Y12.258 E1.8232
G1 X207.145 Y11.86 E.04198
G1 X207.888 Y11.5 E.04167
G1 X208.647 Y11.176 E.04167
G1 X209.42 Y10.888 E.04167
G1 X210.207 Y10.637 E.04167
G1 X211.004 Y10.423 E.04167
G1 X211.811 Y10.248 E.04167
G1 X212.625 Y10.112 E.04167
G1 X213.445 Y10.014 E.04167
G1 X214.268 Y9.955 E.04167
G1 X215.1 Y9.935 E.04198
G1 X231.235 Y9.944 E.81449
G1 X232.317 Y10.005 E.0547
G1 X233.014 Y10.091 E.03548
G1 X233.71 Y10.212 E.03562
G1 X234.398 Y10.366 E.03561
G1 X235.078 Y10.554 E.03562
G1 X235.748 Y10.776 E.03562
G1 X236.406 Y11.03 E.03561
G1 X237.051 Y11.316 E.03562
G1 X237.681 Y11.633 E.03562
G1 X238.295 Y11.981 E.03562
G1 X238.891 Y12.358 E.03562
G1 X239.468 Y12.764 E.03561
G1 X240.025 Y13.198 E.03562
G1 X240.559 Y13.659 E.03562
G1 X241.07 Y14.146 E.03561
G1 X241.556 Y14.656 E.03559
G1 X242.04 Y15.221 E.03754
G1 X242.451 Y15.747 E.03372
G1 X242.857 Y16.324 E.03561
G1 X243.235 Y16.92 E.03562
G1 X243.583 Y17.534 E.03561
G1 X243.9 Y18.164 E.03562
G1 X244.186 Y18.809 E.03561
G1 X244.44 Y19.468 E.03562
G1 X244.649 Y20.102 E.03371
G1 X244.849 Y20.818 E.03754
G1 X245.004 Y21.506 E.0356
G1 X245.124 Y22.201 E.03562
G1 X245.211 Y22.901 E.03562
G1 X245.263 Y23.605 E.03561
G1 X245.28 Y24.317 E.03594
G1 X245.28 Y113.685 E4.51122
G1 X207.017 Y113.685 E1.93147
M73 P0 R148
G1 X206.875 Y108.043 E.2849
G1 X206.42 Y101.898 E.31102
G1 X205.667 Y95.783 E.31102
G1 X204.621 Y89.727 E.31027
G1 X203.274 Y83.699 E.31176
G1 X201.64 Y77.758 E.31102
G1 X199.718 Y71.904 E.31102
G1 X197.514 Y66.151 E.31102
G1 X195.033 Y60.511 E.31102
G1 X192.28 Y54.999 E.31102
G1 X189.27 Y49.64 E.31027
G1 X185.996 Y44.421 E.31102
G1 X182.471 Y39.367 E.31102
G1 X178.704 Y34.491 E.31102
G1 X175.177 Y30.357 E.27432
M204 S1000
G1 X175.718 Y30.257 F10800
;WIPE_START
G1 F8640
G1 X178.737 Y28.294 E-.95
;WIPE_END
G1 E-.05 F2100
G1 Z.4 F720
G1 X225.391 Y44.735 F10800
G1 Z.2 F720
G1 E1 F2100
M204 S800
;TYPE:Perimeter
G1 F1200
G1 X225.766 Y44.606 E.02003
G1 X226.284 Y44.534 E.02638
G1 X226.784 Y44.554 E.02528
G1 X227.325 Y44.685 E.02813
G1 X227.828 Y44.92 E.02799
G1 X228.274 Y45.249 E.02799
G1 X228.663 Y45.685 E.0295
G1 X228.941 Y46.165 E.02799
G1 X229.118 Y46.691 E.02799
G1 X229.187 Y47.241 E.02799
G1 X229.145 Y47.793 E.02793
G1 X228.995 Y48.328 E.02805
G1 X228.742 Y48.821 E.02799
G1 X228.417 Y49.232 E.02646
G1 X227.995 Y49.593 E.02799
G1 X227.511 Y49.863 E.02799
G1 X226.998 Y50.028 E.02721
G1 X226.496 Y50.088 E.02553
G1 X225.944 Y50.051 E.02794
G1 X225.41 Y49.905 E.02794
G1 X224.915 Y49.656 E.02794
G1 X224.48 Y49.315 E.02794
G1 X224.121 Y48.893 E.02794
G1 X223.853 Y48.409 E.02793
G1 X223.685 Y47.882 E.02792
G1 X223.628 Y47.447 E.02214
G1 X223.654 Y46.917 E.02679
G1 X223.786 Y46.38 E.02794
G1 X224.023 Y45.879 E.02794
G1 X224.353 Y45.436 E.02794
G1 X224.766 Y45.066 E.02794
G1 X225.306 Y44.764 E.03124
M204 S1000
G1 X225.589 Y45.296 F10800
M204 S800
;TYPE:External perimeter
G1 F1200
G1 X226.002 Y45.174 E.02176
G1 X226.491 Y45.143 E.02474
G1 X226.759 Y45.165 E.01357
G1 X227.177 Y45.278 E.02184
G1 X227.564 Y45.471 E.02185
G1 X227.906 Y45.737 E.02185
G1 X228.188 Y46.066 E.02185
G1 X228.399 Y46.444 E.02185
G1 X228.531 Y46.856 E.02185
G1 X228.579 Y47.286 E.02185
G1 X228.541 Y47.717 E.02185
G1 X228.418 Y48.133 E.02185
G1 X228.215 Y48.515 E.02185
G1 X227.94 Y48.85 E.02185
G1 X227.605 Y49.123 E.02185
G1 X227.222 Y49.325 E.02185
G1 X226.806 Y49.447 E.02185
G1 X226.375 Y49.484 E.02185
G1 X225.945 Y49.435 E.02185
G1 X225.533 Y49.302 E.02185
G1 X225.156 Y49.089 E.02185
G1 X224.828 Y48.806 E.02185
G1 X224.563 Y48.464 E.02185
G1 X224.371 Y48.076 E.02185
G1 X224.26 Y47.666 E.02146
G1 X224.232 Y47.387 E.01415
G1 X224.27 Y46.903 E.0245
G1 X224.393 Y46.488 E.02185
G1 X224.596 Y46.106 E.02185
G1 X224.87 Y45.771 E.02185
G1 X225.206 Y45.497 E.02185
G1 X225.509 Y45.337 E.01731
M204 S1000
G1 X225.648 Y44.868 F10800
;WIPE_START
G1 F8640
G1 X226.002 Y45.174 E-.12
G1 X226.491 Y45.143 E-.11316
G1 X226.759 Y45.165 E-.06206
G1 X227.177 Y45.278 E-.09991
G1 X227.564 Y45.471 E-.09996
G1 X227.906 Y45.737 E-.09995
G1 X228.188 Y46.066 E-.09996
G1 X228.399 Y46.444 E-.09996
G1 X228.531 Y46.856 E-.09995
G1 X228.557 Y47.093 E-.05509
;WIPE_END
G1 E-.05 F2100
G1 Z.4 F720
G1 X238.401 Y12.982 F10800
G1 Z.2 F720
G1 E1 F2100
M204 S800
;TYPE:Solid infill
;WIDTH:0.652426
G1 F1200
G1 X240.351 Y14.932 E.13977
G1 X240.768 Y15.369 E.03061
G1 X241.218 Y15.894 E.03504
G1 X241.598 Y16.38 E.03127
G1 X241.974 Y16.914 E.03311
G1 X242.323 Y17.466 E.03312
G1 X242.699 Y18.142 E.03916
G1 X237.074 Y12.516 E.40318
G1 X236.597 Y12.276 E.02706
G1 X236 Y12.011 E.03311
G1 X235.523 Y11.828 E.02587
G1 X243.388 Y19.692 E.56367
G1 X243.633 Y20.411 E.03851
G1 X243.783 Y20.949 E.02831
G1 X234.265 Y11.432 E.68216
G1 X233.502 Y11.254 E.03971
G1 X233.167 Y11.196 E.01722
G1 X244.02 Y22.048 E.77782
G1 X244.156 Y23.047 E.05108
G1 X232.17 Y11.061 E.85907
G1 X231.257 Y11.009 E.04638
G1 X244.209 Y23.961 E.92832
G1 X244.218 Y24.832 E.04415
G1 X230.391 Y11.006 E.99099
G1 X229.529 Y11.005 E.04371
G1 X244.218 Y25.694 E1.05281
G1 X244.218 Y26.556 E.04369
M73 D144
G1 X228.666 Y11.005 E1.11462
G1 X227.804 Y11.004 E.04371
G1 X244.218 Y27.418 E1.17643
G1 X244.218 Y28.28 E.04369
G1 X226.942 Y11.004 E1.23824
G1 X226.079 Y11.003 E.04371
G1 X244.218 Y29.142 E1.30006
G1 X244.218 Y30.004 E.04369
G1 X225.217 Y11.003 E1.36187
G1 X224.354 Y11.002 E.04371
G1 X244.218 Y30.866 E1.42368
G1 X244.218 Y31.728 E.04369
G1 X223.492 Y11.002 E1.48549
G1 X222.629 Y11.002 E.04371
G1 X244.218 Y32.59 E1.5473
G1 X244.218 Y33.452 E.04369
G1 X221.767 Y11.001 E1.60912
G1 X220.905 Y11.001 E.04371
G1 X244.218 Y34.314 E1.67093
G1 X244.218 Y35.176 E.04369
G1 X220.042 Y11 E1.73274
G1 X219.18 Y11 E.04371
G1 X244.218 Y36.038 E1.79455
G1 X244.218 Y36.9 E.04369
M73 Q0 S148
G1 X218.317 Y10.999 E1.85637
G1 X217.455 Y10.999 E.04371
G1 X244.218 Y37.762 E1.91818
G1 X244.218 Y38.624 E.04369
G1 X216.593 Y10.998 E1.97999
G1 X215.73 Y10.998 E.04371
G1 X244.218 Y39.486 E2.0418
G1 X244.218 Y40.348 E.04369
G1 X214.876 Y11.006 E2.103
G1 X214.044 Y11.036 E.04219
G1 X244.218 Y41.21 E2.16263
G1 X244.218 Y42.072 E.04369
M73 C143
G1 X213.253 Y11.107 E2.21936
G1 X212.495 Y11.211 E.03877
G1 X244.218 Y42.934 E2.27367
G1 X244.218 Y43.796 E.04369
G1 X211.767 Y11.345 E2.32584
G1 X211.067 Y11.506 E.03643
G1 X244.218 Y44.657 E2.37604
G1 X244.218 Y45.519 E.04369
G1 X210.391 Y11.693 E2.42445
G1 X209.739 Y11.903 E.03473
M73 P0 R147
G1 X244.218 Y46.381 E2.4712
G1 X244.218 Y47.243 E.04369
M73 P1 R147
M73 Q1 S148
G1 X209.111 Y12.137 E2.51622
G1 X208.504 Y12.392 E.03336
G1 X244.218 Y48.105 E2.5597
G1 X244.218 Y48.967 E.04369
G1 X207.917 Y12.667 E2.60179
G1 X207.348 Y12.959 E.03244
G1 X244.218 Y49.829 E2.64258
G1 X244.218 Y50.691 E.04369
G1 X206.793 Y13.266 E2.68237
G1 X206.246 Y13.581 E.03199
G1 X244.218 Y51.553 E2.72157
G1 X244.218 Y52.415 E.04369
M73 D143
G1 X205.699 Y13.896 E2.76076
G1 X205.152 Y14.212 E.03199
G1 X244.218 Y53.277 E2.79996
G1 X244.218 Y54.139 E.04369
G1 X204.605 Y14.527 E2.83916
G1 X204.058 Y14.842 E.03199
G1 X244.218 Y55.001 E2.87836
G1 X244.218 Y55.863 E.04369
G1 X203.511 Y15.157 E2.91755
G1 X202.965 Y15.472 E.03199
G1 X244.218 Y56.725 E2.95675
G1 X244.218 Y57.587 E.04369
G1 X202.418 Y15.787 E2.99595
G1 X201.871 Y16.102 E.03199
M73 Q1 S147
G1 X244.218 Y58.449 E3.03515
G1 X244.218 Y59.311 E.04369
G1 X201.324 Y16.417 E3.07435
G1 X200.777 Y16.732 E.03199
G1 X244.218 Y60.173 E3.11354
G1 X244.218 Y61.035 E.04369
M73 C142
G1 X229.456 Y46.273 E1.05804
G1 X229.356 Y45.977 E.01582
G1 X229.034 Y45.419 E.03269
G1 X228.636 Y44.964 E.03061
G1 X228.127 Y44.568 E.03269
G1 X227.548 Y44.281 E.03274
G1 X227.433 Y44.251 E.00602
G1 X200.23 Y17.047 E1.94975
G1 X199.683 Y17.362 E.03199
G1 X226.397 Y44.076 E1.91466
G1 X225.759 Y44.137 E.0325
G1 X225.635 Y44.176 E.00657
G1 X199.136 Y17.677 E1.89924
G1 X198.589 Y17.992 E.03199
G1 X225.001 Y44.404 E1.89302
G1 X224.564 Y44.646 E.0253
G1 X224.465 Y44.73 E.00659
G1 X198.043 Y18.308 E1.89381
G1 X197.496 Y18.623 E.03199
G1 X224.013 Y45.14 E1.90057
G1 X223.642 Y45.631 E.0312
M73 P1 R146
G1 X196.949 Y18.938 E1.91322
G1 X196.402 Y19.253 E.03199
G1 X223.366 Y46.217 E1.93262
G1 X223.221 Y46.721 E.02658
G1 X223.205 Y46.918 E.01
G1 X195.855 Y19.568 E1.96026
G1 X195.308 Y19.883 E.03199
G1 X223.583 Y48.157 E2.02653
M204 S1000
;WIPE_START
G1 F8640
G1 X220.673 Y45.248 E-.95
;WIPE_END
G1 E-.05 F2100
G1 Z.4 F720
G1 X229.339 Y47.018 F10800
G1 Z.2 F720
G1 E1 F2100
M204 S800
G1 F1200
G1 X244.218 Y61.897 E1.06644
G1 X244.218 Y62.759 E.04369
G1 X229.537 Y48.078 E1.05225
G1 X229.419 Y48.494 E.02195
G1 X229.308 Y48.711 E.01234
G1 X244.218 Y63.621 E1.06863
G1 X244.218 Y64.483 E.04369
G1 X228.981 Y49.246 E1.09207
G1 X228.692 Y49.603 E.02326
G1 X228.573 Y49.7 E.0078
G1 X244.218 Y65.345 E1.12133
G1 X244.218 Y66.207 E.04369
G1 X228.08 Y50.069 E1.15663
G1 X227.621 Y50.311 E.02632
G1 X227.497 Y50.348 E.00653
G1 X244.218 Y67.069 E1.19841
G1 X244.218 Y67.931 E.04369
G1 X226.797 Y50.51 E1.24858
G1 X226.424 Y50.548 E.01902
M73 D142
G1 X225.925 Y50.5 E.02539
G1 X244.218 Y68.793 E1.31108
G1 X244.218 Y69.655 E.04369
G1 X194.761 Y20.198 E3.54472
G1 X194.214 Y20.513 E.03199
G1 X244.218 Y70.517 E3.58392
G1 X244.218 Y71.379 E.04369
G1 X193.667 Y20.828 E3.62311
G1 X193.12 Y21.143 E.03199
M73 P2 R146
M73 Q2 S147
G1 X244.218 Y72.241 E3.66231
G1 X244.218 Y73.103 E.04369
G1 X192.574 Y21.458 E3.70151
G1 X192.027 Y21.773 E.03199
M73 Q2 S146
G1 X244.218 Y73.965 E3.74071
G1 X244.218 Y74.826 E.04369
G1 X191.48 Y22.088 E3.77991
G1 X190.933 Y22.404 E.03199
G1 X244.218 Y75.688 E3.8191
G1 X244.218 Y76.55 E.04369
M73 C141
G1 X190.386 Y22.719 E3.8583
G1 X189.839 Y23.034 E.03199
G1 X244.218 Y77.412 E3.8975
G1 X244.218 Y78.274 E.04369
G1 X189.292 Y23.349 E3.9367
G1 X188.745 Y23.664 E.03199
M73 P2 R145
G1 X244.218 Y79.136 E3.97589
G1 X244.218 Y79.998 E.04369
G1 X188.198 Y23.979 E4.01509
G1 X187.651 Y24.294 E.03199
G1 X244.218 Y80.86 E4.05429
G1 X244.218 Y81.722 E.04369
G1 X187.105 Y24.609 E4.09349
G1 X186.558 Y24.924 E.03199
G1 X244.218 Y82.584 E4.13269
G1 X244.218 Y83.446 E.04369
M73 D141
G1 X186.011 Y25.239 E4.17188
G1 X185.464 Y25.554 E.03199
G1 X244.218 Y84.308 E4.21108
G1 X244.218 Y85.17 E.04369
G1 X184.917 Y25.869 E4.25028
G1 X184.37 Y26.184 E.03199
G1 X244.218 Y86.032 E4.28948
G1 X244.218 Y86.894 E.04369
M73 Q2 S145
G1 X183.823 Y26.5 E4.32867
G1 X183.276 Y26.815 E.03199
G1 X244.218 Y87.756 E4.36787
G1 X244.218 Y88.618 E.04369
G1 X182.729 Y27.13 E4.40707
G1 X182.183 Y27.445 E.03199
M73 C140
G1 X244.218 Y89.48 E4.44627
G1 X244.218 Y90.342 E.04369
G1 X181.636 Y27.76 E4.48547
G1 X181.089 Y28.075 E.03199
M73 P3 R144
G1 X244.218 Y91.204 E4.52466
G1 X244.218 Y92.066 E.04369
M73 Q3 S145
G1 X180.542 Y28.39 E4.56386
G1 X179.995 Y28.705 E.03199
G1 X244.218 Y92.928 E4.60306
G1 X244.218 Y93.79 E.04369
G1 X179.448 Y29.02 E4.64226
G1 X178.901 Y29.335 E.03199
M73 D140
G1 X244.218 Y94.652 E4.68145
G1 X244.218 Y95.514 E.04369
G1 X178.354 Y29.65 E4.72065
G1 X177.807 Y29.965 E.03199
G1 X244.218 Y96.376 E4.75985
G1 X244.218 Y97.238 E.04369
G1 X177.26 Y30.28 E4.79905
G1 X176.756 Y30.571 E.02948
