; generated by PrusaSlicer 2.5.0+linux-x64-GTK3 on 2022-10-24 at 22:33:31 UTC

; 

; external perimeters extrusion width = 0.65mm
; perimeters extrusion width = 0.65mm
; infill extrusion width = 0.65mm
; solid infill extrusion width = 0.65mm
; top infill extrusion width = 0.60mm
; support material extrusion width = 0.55mm
; first layer extrusion width = 0.65mm

M73 P0 R193
M73 Q0 S194
M201 X1000 Y1000 Z200 E5000 ; sets maximum accelerations, mm/sec^2
M203 X200 Y200 Z12 E120 ; sets maximum feedrates, mm / sec
M204 P1250 R1250 T1250 ; sets acceleration (P, T) and retract acceleration (R), mm/sec^2
M205 X8.00 Y8.00 Z0.40 E4.50 ; sets the jerk limits, mm/sec
M205 S0 T0 ; sets the minimum extruding and travel feed rate, mm/sec
M107
;TYPE:Custom
M862.3 P "MK3S" ; printer model check
M862.1 P0.6 ; nozzle diameter check
M115 U3.10.1 ; tell printer latest fw version
G90 ; use absolute coordinates
M83 ; extruder relative mode
M104 S240 ; set extruder temp
M140 S85 ; set bed temp
M190 S85 ; wait for bed temp
M109 S240 ; wait for extruder temp
G28 W ; home all without mesh bed level
G80 ; mesh bed leveling
G1 Z0.2 F720
G1 Y-3 F1000 ; go outside print area
G92 E0
G1 X60 E9 F1000 ; intro line
G1 X100 E12.5 F1000 ; intro line
G92 E0
M221 S95
G21 ; set units to millimeters
G90 ; use absolute coordinates
M83 ; use relative distances for extrusion
M900 K0.04 ; Filament gcode LA 1.5
M900 K24 ; Filament gcode LA 1.0
M107
;LAYER_CHANGE
;Z:0.2
;HEIGHT:0.2
;BEFORE_LAYER_CHANGE
G92 E0.0
;0.2


G1 E-1 F2100
G1 Z.2 F720
;AFTER_LAYER_CHANGE
;0.2
; printing object SideFenderTopCap.stl id:0 copy 3
G1 Z.4
G1 X44.827 Y166.235 F10800
G1 Z.2 F720
G1 E1 F2100
M204 S800
;TYPE:Perimeter
;WIDTH:0.649999
G1 F1200
G1 X45.295 Y165.496 E.04413
G1 X45.653 Y165.06 E.02847
G1 X46.06 Y164.653 E.02907
G1 X46.505 Y164.288 E.02906
G1 X46.984 Y163.968 E.02906
G1 X47.492 Y163.696 E.02908
G1 X48.023 Y163.476 E.02904
G1 X48.575 Y163.309 E.02908
G1 X49.128 Y163.199 E.02851
G1 X50.036 Y163.132 E.04596
G1 X200.262 Y163.14 E7.58323
G1 X201.156 Y163.249 E.04545
G1 X201.703 Y163.386 E.02846
G1 X202.245 Y163.58 E.02906
G1 X202.766 Y163.826 E.02906
G1 X203.259 Y164.122 E.02906
G1 X203.722 Y164.465 E.02906
G1 X204.148 Y164.852 E.02906
G1 X204.535 Y165.278 E.02906
G1 X204.878 Y165.741 E.02906
G1 X205.174 Y166.234 E.02906
G1 X205.415 Y166.745 E.02851
G1 X205.693 Y167.585 E.04468
G1 X205.803 Y168.139 E.0285
G1 X205.86 Y168.712 E.02907
G1 X205.868 Y202.964 E1.72898
G1 X205.801 Y203.872 E.04597
G1 X205.696 Y204.401 E.0272
G1 X205.419 Y205.245 E.04488
G1 X205.026 Y206.026 E.0441
G1 X204.712 Y206.495 E.02847
G1 X204.354 Y206.931 E.02852
G1 X203.721 Y207.534 E.04413
G1 X203.006 Y208.037 E.04411
G1 X202.518 Y208.298 E.02794
G1 X201.702 Y208.613 E.04413
G1 X200.86 Y208.802 E.04356
G1 X199.964 Y208.868 E.0454
G1 X49.712 Y208.86 E7.58452
G1 X49.139 Y208.803 E.02906
G1 X48.575 Y208.691 E.02906
G1 X48.023 Y208.524 E.02908
G1 X47.492 Y208.304 E.02904
G1 X46.984 Y208.032 E.02908
G1 X46.505 Y207.712 E.02908
G1 X46.06 Y207.347 E.02904
G1 X45.653 Y206.94 E.02907
G1 X45.295 Y206.503 E.02851
G1 X44.821 Y205.755 E.04468
G1 X44.585 Y205.255 E.02794
G1 X44.31 Y204.425 E.04413
G1 X44.161 Y203.564 E.04411
G1 X44.132 Y202.975 E.02978
G1 X44.132 Y169.025 E1.71373
G1 X44.162 Y168.425 E.03034
G1 X44.244 Y167.866 E.02851
G1 X44.478 Y167.024 E.04413
G1 X44.791 Y166.317 E.03902
M204 S1000
G1 X44.29 Y165.948 F10800
M204 S800
;TYPE:External perimeter
G1 F1200
G1 X44.802 Y165.14 E.04827
G1 X45.203 Y164.652 E.03186
G1 X45.652 Y164.203 E.03209
G1 X46.143 Y163.8 E.03207
G1 X46.671 Y163.447 E.03207
G1 X47.232 Y163.147 E.03209
G1 X47.819 Y162.904 E.03205
G1 X48.427 Y162.719 E.03209
G1 X49.047 Y162.596 E.0319
G1 X50.014 Y162.525 E.04897
G1 X200.299 Y162.533 E7.58621
G1 X201.267 Y162.651 E.04922
M73 P0 R192
M73 Q0 S193
G1 X201.879 Y162.804 E.03187
G1 X202.478 Y163.018 E.03207
G1 X203.052 Y163.29 E.03207
G1 X203.597 Y163.617 E.03207
G1 X204.107 Y163.995 E.03207
G1 X204.578 Y164.422 E.03207
G1 X205.005 Y164.893 E.03207
G1 X205.383 Y165.403 E.03207
G1 X205.71 Y165.948 E.03207
G1 X205.98 Y166.519 E.0319
G1 X206.281 Y167.43 E.04845
G1 X206.404 Y168.05 E.03188
G1 X206.467 Y168.682 E.03208
G1 X206.475 Y202.986 E1.73162
G1 X206.404 Y203.954 E.04898
G1 X206.284 Y204.555 E.03095
G1 X205.981 Y205.478 E.04903
G1 X205.551 Y206.332 E.04826
G1 X205.201 Y206.857 E.03186
G1 X204.8 Y207.345 E.03191
G1 X204.107 Y208.005 E.04827
G1 X203.325 Y208.555 E.04826
G1 X202.771 Y208.851 E.03171
G1 X201.879 Y209.195 E.04827
G1 X200.95 Y209.404 E.04808
G1 X199.986 Y209.475 E.04879
G1 X49.682 Y209.467 E7.58715
G1 X49.05 Y209.404 E.03207
G1 X48.427 Y209.281 E.03207
G1 X47.819 Y209.096 E.03209
G1 X47.232 Y208.853 E.03205
G1 X46.671 Y208.553 E.03209
G1 X46.143 Y208.2 E.03209
G1 X45.652 Y207.798 E.03205
G1 X45.203 Y207.348 E.03208
G1 X44.802 Y206.86 E.0319
G1 X44.288 Y206.049 E.04845
G1 X44.02 Y205.481 E.03171
G1 X43.72 Y204.573 E.04827
G1 X43.556 Y203.631 E.04826
G1 X43.525 Y202.99 E.03241
G1 X43.525 Y169.01 E1.71523
G1 X43.557 Y168.365 E.0326
G1 X43.649 Y167.74 E.0319
G1 X43.904 Y166.819 E.04827
G1 X44.254 Y166.03 E.04354
M204 S1000
G1 X44.89 Y165.928 F10800
;WIPE_START
G1 F8640
G1 X44.802 Y165.14 E-.24139
G1 X45.203 Y164.652 E-.14573
G1 X45.652 Y164.203 E-.14677
G1 X46.143 Y163.8 E-.14671
G1 X46.671 Y163.447 E-.14671
G1 X47.14 Y163.196 E-.1227
;WIPE_END
G1 E-.05 F2100
G1 Z.4 F720
G1 X58.797 Y167.992 F10800
G1 Z.2 F720
G1 E1 F2100
M204 S800
;TYPE:Perimeter
G1 F1200
G1 X58.958 Y167.629 E.02004
G1 X59.277 Y167.177 E.02793
G1 X59.68 Y166.798 E.02794
G1 X60.15 Y166.505 E.02794
G1 X60.669 Y166.312 E.02794
G1 X61.215 Y166.225 E.02793
G1 X61.768 Y166.249 E.02794
G1 X62.305 Y166.381 E.02794
G1 X62.806 Y166.617 E.02794
G1 X63.25 Y166.948 E.02794
G1 X63.619 Y167.36 E.02794
G1 X63.894 Y167.825 E.02727
G1 X64.089 Y168.403 E.03076
G1 X64.154 Y168.952 E.02793
G1 X64.108 Y169.504 E.02793
G1 X63.954 Y170.035 E.02794
G1 X63.721 Y170.494 E.02596
G1 X63.406 Y170.901 E.026
G1 X63.032 Y171.234 E.0253
G1 X62.6 Y171.495 E.02544
G1 X62.081 Y171.688 E.02794
G1 X61.535 Y171.775 E.02793
G1 X60.982 Y171.751 E.02794
G1 X60.445 Y171.619 E.02794
G1 X59.944 Y171.383 E.02793
G1 X59.51 Y171.061 E.02727
G1 X59.152 Y170.673 E.02665
G1 X58.869 Y170.208 E.02748
G1 X58.679 Y169.687 E.02799
G1 X58.605 Y169.229 E.02342
G1 X58.615 Y168.676 E.02794
G1 X58.761 Y168.074 E.03123
M204 S1000
G1 X59.343 Y168.228 F10800
M204 S800
;TYPE:External perimeter
G1 F1200
G1 X59.536 Y167.841 E.02185
G1 X59.802 Y167.499 E.02185
G1 X60.131 Y167.218 E.02185
G1 X60.509 Y167.006 E.02185
G1 X60.921 Y166.874 E.02185
G1 X61.351 Y166.826 E.02185
G1 X61.782 Y166.865 E.02185
G1 X62.197 Y166.988 E.02185
G1 X62.58 Y167.19 E.02185
G1 X62.914 Y167.465 E.02185
G1 X63.188 Y167.8 E.02181
G1 X63.382 Y168.165 E.02089
G1 X63.489 Y168.493 E.01741
G1 X63.547 Y168.922 E.02184
G1 X63.52 Y169.354 E.02185
G1 X63.407 Y169.772 E.02185
G1 X63.214 Y170.159 E.02185
G1 X62.948 Y170.501 E.02185
G1 X62.619 Y170.783 E.02185
G1 X62.241 Y170.994 E.02185
G1 X61.829 Y171.126 E.02185
G1 X61.399 Y171.174 E.02185
G1 X60.968 Y171.135 E.02185
G1 X60.553 Y171.012 E.02185
G1 X60.171 Y170.81 E.02182
G1 X59.85 Y170.549 E.02089
G1 X59.624 Y170.288 E.01741
G1 X59.403 Y169.916 E.02184
G1 X59.261 Y169.507 E.02185
G1 X59.206 Y169.139 E.01882
G1 X59.23 Y168.646 E.02488
G1 X59.319 Y168.315 E.01731
M204 S1000
G1 X59.068 Y167.894 F10800
;WIPE_START
G1 F8640
G1 X59.536 Y167.841 E-.1204
G1 X59.802 Y167.499 E-.09995
G1 X60.131 Y167.218 E-.09995
G1 X60.509 Y167.006 E-.09996
G1 X60.921 Y166.874 E-.09996
G1 X61.351 Y166.826 E-.09995
G1 X61.782 Y166.865 E-.09996
G1 X62.197 Y166.988 E-.09996
G1 X62.58 Y167.19 E-.09996
G1 X62.68 Y167.273 E-.02994
;WIPE_END
G1 E-.05 F2100
G1 Z.4 F720
G1 X60.297 Y200.451 F10800
G1 Z.2 F720
G1 E1 F2100
M204 S800
;TYPE:Perimeter
G1 F1200
G1 X60.669 Y200.312 E.02003
G1 X61.215 Y200.225 E.02793
G1 X61.768 Y200.249 E.02794
G1 X62.305 Y200.381 E.02794
G1 X62.806 Y200.617 E.02794
G1 X63.25 Y200.948 E.02794
G1 X63.619 Y201.36 E.02794
G1 X63.894 Y201.825 E.02726
G1 X64.072 Y202.319 E.02648
G1 X64.154 Y202.857 E.02747
G1 X64.108 Y203.504 E.03274
G1 X63.954 Y204.035 E.02794
G1 X63.698 Y204.526 E.02794
G1 X63.35 Y204.956 E.02794
G1 X62.923 Y205.308 E.02793
G1 X62.435 Y205.569 E.02794
G1 X61.949 Y205.722 E.02571
G1 X61.422 Y205.782 E.02678
G1 X60.803 Y205.72 E.03137
G1 X60.276 Y205.553 E.02793
G1 X59.792 Y205.284 E.02794
G1 X59.371 Y204.925 E.02794
G1 X59.029 Y204.49 E.02793
G1 X58.78 Y203.995 E.02794
G1 X58.637 Y203.484 E.02679
G1 X58.602 Y203.206 E.01415
G1 X58.615 Y202.676 E.02679
G1 X58.734 Y202.135 E.02793
G1 X58.958 Y201.629 E.02794
G1 X59.277 Y201.177 E.02793
G1 X59.68 Y200.798 E.02794
G1 X60.212 Y200.482 E.03124
M204 S1000
G1 X60.509 Y201.006 F10800
M204 S800
;TYPE:External perimeter
G1 F1200
G1 X60.921 Y200.874 E.02185
G1 X61.351 Y200.826 E.02185
G1 X61.782 Y200.865 E.02185
G1 X62.197 Y200.988 E.02185
G1 X62.58 Y201.19 E.02185
G1 X62.914 Y201.465 E.02185
G1 X63.188 Y201.8 E.02181
G1 X63.382 Y202.165 E.02089
G1 X63.489 Y202.493 E.01741
G1 X63.547 Y202.922 E.02184
G1 X63.52 Y203.354 E.02185
G1 X63.407 Y203.772 E.02185
G1 X63.214 Y204.159 E.02185
G1 X62.948 Y204.501 E.02185
G1 X62.619 Y204.783 E.02185
G1 X62.241 Y204.994 E.02185
G1 X61.829 Y205.126 E.02185
G1 X61.399 Y205.174 E.02185
G1 X60.968 Y205.135 E.02185
G1 X60.553 Y205.012 E.02185
G1 X60.17 Y204.81 E.02185
G1 X59.836 Y204.535 E.02185
G1 X59.562 Y204.2 E.02185
G1 X59.36 Y203.816 E.02185
G1 X59.239 Y203.409 E.02146
G1 X59.205 Y203.131 E.01415
G1 X59.23 Y202.646 E.0245
G1 X59.343 Y202.228 E.02185
G1 X59.536 Y201.841 E.02185
G1 X59.802 Y201.499 E.02185
G1 X60.131 Y201.217 E.02185
G1 X60.43 Y201.05 E.01731
M204 S1000
G1 X60.558 Y200.576 F10800
;WIPE_START
G1 F8640
G1 X60.921 Y200.874 E-.12039
G1 X61.351 Y200.826 E-.09995
G1 X61.782 Y200.865 E-.09996
G1 X62.197 Y200.988 E-.09996
G1 X62.58 Y201.19 E-.09996
G1 X62.914 Y201.465 E-.09996
G1 X63.188 Y201.8 E-.09978
G1 X63.382 Y202.165 E-.09557
G1 X63.489 Y202.493 E-.07964
G1 X63.521 Y202.728 E-.05482
;WIPE_END
G1 E-.05 F2100
G1 Z.4 F720
G1 X186.543 Y205.08 F10800
G1 Z.2 F720
G1 E1 F2100
M204 S800
;TYPE:Perimeter
G1 F1200
G1 X186.469 Y205.023 E.00474
G1 X186.106 Y204.605 E.02793
G1 X185.833 Y204.124 E.02794
G1 X185.661 Y203.598 E.02794
G1 X185.605 Y203.229 E.01881
G1 X185.615 Y202.676 E.02794
G1 X185.734 Y202.135 E.02794
G1 X185.958 Y201.629 E.02794
G1 X186.277 Y201.177 E.02794
G1 X186.68 Y200.798 E.02794
G1 X187.15 Y200.505 E.02794
G1 X187.669 Y200.312 E.02794
G1 X188.215 Y200.225 E.02794
G1 X188.768 Y200.249 E.02794
G1 X189.305 Y200.381 E.02794
G1 X189.806 Y200.617 E.02792
G1 X190.224 Y200.921 E.02607
G1 X190.592 Y201.319 E.02738
G1 X190.881 Y201.792 E.02799
G1 X191.071 Y202.313 E.02799
G1 X191.154 Y202.857 E.02776
G1 X191.108 Y203.504 E.03275
G1 X190.954 Y204.035 E.02793
G1 X190.698 Y204.526 E.02794
G1 X190.35 Y204.956 E.02794
G1 X189.923 Y205.308 E.02794
G1 X189.435 Y205.569 E.02794
G1 X188.949 Y205.722 E.02571
G1 X188.422 Y205.782 E.02678
G1 X187.826 Y205.726 E.03022
G1 X187.404 Y205.604 E.02214
G1 X186.908 Y205.36 E.02792
G1 X186.615 Y205.135 E.01866
M204 S1000
G1 X186.914 Y204.61 F10800
M204 S800
;TYPE:External perimeter
G1 F1200
G1 X186.624 Y204.288 E.02185
G1 X186.403 Y203.916 E.02185
G1 X186.261 Y203.507 E.02185
G1 X186.206 Y203.139 E.01881
G1 X186.23 Y202.646 E.02489
G1 X186.343 Y202.228 E.02185
G1 X186.536 Y201.841 E.02185
G1 X186.802 Y201.499 E.02185
G1 X187.131 Y201.217 E.02185
G1 X187.509 Y201.006 E.02185
G1 X187.921 Y200.874 E.02185
G1 X188.351 Y200.826 E.02185
G1 X188.782 Y200.865 E.02185
G1 X189.197 Y200.988 E.02185
G1 X189.573 Y201.186 E.02146
G1 X189.836 Y201.39 E.01681
G1 X190.126 Y201.712 E.02184
G1 X190.347 Y202.084 E.02185
G1 X190.512 Y202.645 E.0295
G1 X190.547 Y202.922 E.0141
G1 X190.52 Y203.354 E.02185
G1 X190.407 Y203.772 E.02185
G1 X190.214 Y204.159 E.02185
G1 X189.948 Y204.501 E.02185
G1 X189.619 Y204.783 E.02185
G1 X189.241 Y204.994 E.02185
G1 X188.829 Y205.126 E.02185
G1 X188.399 Y205.174 E.02185
G1 X187.975 Y205.137 E.02146
G1 X187.654 Y205.051 E.01681
G1 X187.262 Y204.867 E.02184
G1 X186.986 Y204.663 E.01731
M204 S1000
G1 X186.502 Y204.742 F10800
;WIPE_START
G1 F8640
G1 X186.624 Y204.288 E-.12039
G1 X186.403 Y203.916 E-.09996
G1 X186.261 Y203.507 E-.09996
G1 X186.206 Y203.139 E-.08606
G1 X186.23 Y202.646 E-.11384
G1 X186.343 Y202.228 E-.09995
G1 X186.536 Y201.841 E-.09996
G1 X186.802 Y201.499 E-.09996
G1 X187.131 Y201.217 E-.09995
G1 X187.244 Y201.154 E-.02998
;WIPE_END
G1 E-.05 F2100
G1 Z.4 F720
G1 X185.77 Y168.055 F10800
G1 Z.2 F720
G1 E1 F2100
M204 S800
;TYPE:Perimeter
G1 F1200
G1 X185.796 Y167.965 E.00474
G1 X186.052 Y167.474 E.02794
G1 X186.4 Y167.044 E.02794
G1 X186.827 Y166.692 E.02794
G1 X187.315 Y166.431 E.02794
G1 X187.801 Y166.278 E.02571
G1 X188.328 Y166.218 E.02678
G1 X188.945 Y166.28 E.03126
G1 X189.44 Y166.432 E.02618
G1 X189.843 Y166.64 E.02286
G1 X190.281 Y166.977 E.02793
G1 X190.644 Y167.395 E.02793
G1 X190.917 Y167.877 E.02794
G1 X191.089 Y168.402 E.02794
G1 X191.154 Y168.952 E.02794
G1 X191.108 Y169.504 E.02794
G1 X190.954 Y170.035 E.02794
G1 X190.698 Y170.526 E.02794
G1 X190.35 Y170.956 E.02794
G1 X189.923 Y171.308 E.02794
G1 X189.435 Y171.569 E.02794
G1 X188.945 Y171.722 E.02592
G1 X188.419 Y171.782 E.02671
G1 X187.878 Y171.737 E.02741
G1 X187.404 Y171.604 E.02483
G1 X186.94 Y171.383 E.02595
G1 X186.528 Y171.081 E.02578
G1 X186.167 Y170.693 E.02677
G1 X185.885 Y170.24 E.02693
G1 X185.68 Y169.692 E.02951
G1 X185.596 Y169.048 E.0328
G1 X185.642 Y168.496 E.02794
G1 X185.745 Y168.141 E.01865
M204 S1000
G1 X186.343 Y168.228 F10800
M204 S800
;TYPE:External perimeter
G1 F1200
G1 X186.536 Y167.841 E.02185
G1 X186.802 Y167.499 E.02185
G1 X187.131 Y167.217 E.02185
G1 X187.509 Y167.006 E.02185
G1 X187.921 Y166.874 E.02185
G1 X188.351 Y166.826 E.02185
G1 X188.782 Y166.864 E.02182
G1 X189.179 Y166.98 E.02089
G1 X189.488 Y167.133 E.01741
G1 X189.836 Y167.39 E.02184
G1 X190.126 Y167.712 E.02185
G1 X190.347 Y168.084 E.02185
G1 X190.489 Y168.493 E.02185
G1 X190.547 Y168.922 E.02185
G1 X190.52 Y169.354 E.02185
G1 X190.407 Y169.772 E.02185
G1 X190.214 Y170.159 E.02185
G1 X189.948 Y170.501 E.02185
G1 X189.619 Y170.783 E.02185
G1 X189.241 Y170.994 E.02185
G1 X188.829 Y171.126 E.02185
G1 X188.399 Y171.174 E.02185
G1 X187.975 Y171.137 E.02146
G1 X187.654 Y171.051 E.01681
G1 X187.262 Y170.867 E.02184
G1 X186.914 Y170.61 E.02185
G1 X186.624 Y170.288 E.02185
G1 X186.403 Y169.916 E.02185
G1 X186.261 Y169.507 E.02185
G1 X186.203 Y169.078 E.02185
G1 X186.23 Y168.646 E.02185
G1 X186.319 Y168.315 E.01731
M204 S1000
G1 X186.069 Y167.893 F10800
;WIPE_START
G1 F8640
G1 X186.536 Y167.841 E-.1204
G1 X186.802 Y167.499 E-.09996
G1 X187.131 Y167.217 E-.09995
G1 X187.509 Y167.006 E-.09996
G1 X187.921 Y166.874 E-.09996
G1 X188.351 Y166.826 E-.09996
G1 X188.782 Y166.864 E-.0998
G1 X189.179 Y166.98 E-.09556
G1 X189.488 Y167.133 E-.07966
G1 X189.679 Y167.274 E-.05481
;WIPE_END
G1 E-.05 F2100
G1 Z.4 F720
G1 X201.255 Y163.461 F10800
G1 Z.2 F720
G1 E1 F2100
M204 S800
;TYPE:Solid infill
;WIDTH:0.650346
G1 F1200
G1 X205.132 Y167.339 E.27696
G1 X205.252 Y167.702 E.01931
G1 X205.352 Y168.206 E.02597
G1 X205.375 Y168.441 E.01193
G1 X200.57 Y163.636 E.34321
G1 X200.235 Y163.595 E.01709
G1 X199.67 Y163.595 E.02849
G1 X205.405 Y169.329 E.40957
G1 X205.405 Y170.188 E.0434
G1 X198.811 Y163.595 E.47095
G1 X197.952 Y163.595 E.04339
G1 X205.405 Y171.048 E.53233
G1 X205.405 Y171.907 E.0434
G1 X197.093 Y163.595 E.59371
G1 X196.234 Y163.595 E.04339
G1 X205.405 Y172.766 E.65508
G1 X205.406 Y173.625 E.0434
G1 X195.375 Y163.595 E.71646
G1 X194.516 Y163.595 E.04339
G1 X205.406 Y174.485 E.77784
G1 X205.406 Y175.344 E.0434
G1 X193.657 Y163.595 E.83921
G1 X192.798 Y163.595 E.04339
G1 X205.406 Y176.203 E.90059
G1 X205.406 Y177.062 E.0434
G1 X191.939 Y163.595 E.96197
G1 X191.08 Y163.595 E.04339
G1 X205.407 Y177.922 E1.02335
G1 X205.407 Y178.781 E.0434
G1 X190.221 Y163.595 E1.08472
G1 X189.362 Y163.595 E.04339
G1 X205.407 Y179.64 E1.1461
G1 X205.407 Y180.499 E.0434
G1 X188.503 Y163.595 E1.20748
G1 X187.643 Y163.595 E.04339
