; generated by PrusaSlicer 2.5.0+linux-x64-GTK3 on 2022-10-21 at 20:07:58 UTC


;
;

;
;
; 

; external perimeters extrusion width = 0.45mm
; perimeters extrusion width = 0.45mm
; infill extrusion width = 0.45mm
; solid infill extrusion width = 0.45mm
; top infill extrusion width = 0.40mm
; support material extrusion width = 0.35mm
; first layer extrusion width = 0.42mm

M73 P0 R132
M73 Q0 S135
M201 X1000 Y1000 Z200 E5000 ; sets maximum accelerations, mm/sec^2
M203 X200 Y200 Z12 E120 ; sets maximum feedrates, mm / sec
M204 P1250 R1250 T1250 ; sets acceleration (P, T) and retract acceleration (R), mm/sec^2
M205 X8.00 Y8.00 Z0.40 E4.50 ; sets the jerk limits, mm/sec
M205 S0 T0 ; sets the minimum extruding and travel feed rate, mm/sec
M107
;TYPE:Custom
M862.3 P "MK3S" ; printer model check
M862.1 P0.4 ; nozzle diameter check
M115 U3.9.2 ; tell printer latest fw version
G90 ; use absolute coordinates
M83 ; extruder relative mode
M104 S240 ; set extruder temp
M140 S85 ; set bed temp
M190 S85 ; wait for bed temp
M109 S240 ; wait for extruder temp
G28 W ; home all without mesh bed level
G80 ; mesh bed leveling
G1 Y-3.0 F1000.0 ; go outside print area
G92 E0.0
G1 X60.0 E9.0 F1000.0 ; intro line
G1 X100.0 E12.5 F1000.0 ; intro line
G92 E0.0
M221 S95

; Don't change E values below. Excessive value can damage the printer.
M907 E430 ; set extruder motor current
G21 ; set units to millimeters
G90 ; use absolute coordinates
M83 ; use relative distances for extrusion
M900 K0.08 ; Filament gcode LA 1.5
M900 K45 ; Filament gcode LA 1.0
M107
;LAYER_CHANGE
;Z:0.2
;HEIGHT:0.2
;BEFORE_LAYER_CHANGE
G92 E0.0
;0.2


G1 E-1 F2100
M73 Q0 S134
G1 Z.2 F720
;AFTER_LAYER_CHANGE
;0.2
G1 Z.4
G1 X76.064 Y64.015 F10800
G1 Z.2 F720
G1 E1 F2100
M204 S800
;TYPE:Skirt/Brim
;WIDTH:0.42
G1 F1200
G1 X78.168 Y61.627 E.09979
G1 X80.388 Y59.346 E.09979
G1 X82.719 Y57.179 E.09979
G1 X85.248 Y55.057 E.10351
G1 X87.787 Y53.138 E.09979
G1 X90.418 Y51.347 E.09979
G1 X93.135 Y49.69 E.09979
G1 X95.932 Y48.171 E.09979
G1 X98.801 Y46.792 E.09979
G1 X101.735 Y45.559 E.09979
G1 X104.727 Y44.473 E.09979
G1 X107.769 Y43.538 E.09979
G1 X110.854 Y42.755 E.09979
G1 X113.974 Y42.127 E.09979
G1 X117.122 Y41.656 E.09979
G1 X120.289 Y41.342 E.09979
G1 X123.468 Y41.186 E.09979
G1 X126.651 Y41.189 E.09979
G1 X129.829 Y41.351 E.09979
G1 X132.996 Y41.671 E.09979
G1 X136.143 Y42.148 E.09979
G1 X139.262 Y42.782 E.09979
G1 X142.345 Y43.57 E.09979
G1 X145.386 Y44.511 E.09979
G1 X148.376 Y45.602 E.09979
G1 X151.307 Y46.841 E.09979
G1 X154.174 Y48.225 E.09979
G1 X156.967 Y49.749 E.09979
G1 X159.682 Y51.412 E.09979
G1 X162.31 Y53.207 E.09979
G1 X164.845 Y55.131 E.09979
G1 X167.192 Y57.101 E.09608
G1 X169.527 Y59.263 E.09979
G1 X171.752 Y61.54 E.09979
G1 X173.86 Y63.924 E.09979
G1 X175.847 Y66.411 E.09979
G1 X177.707 Y68.993 E.09979
G1 X179.436 Y71.665 E.09979
G1 X181.03 Y74.42 E.09979
G1 X182.485 Y77.251 E.09979
G1 X183.797 Y80.151 E.09979
G1 X184.962 Y83.112 E.09979
G1 X185.979 Y86.129 E.09979
G1 X186.844 Y89.192 E.09979
G1 X187.555 Y92.294 E.09979
G1 X188.11 Y95.428 E.09979
G1 X188.509 Y98.585 E.09979
G1 X188.75 Y101.759 E.09979
G1 X188.832 Y104.941 E.09979
G1 X188.756 Y108.123 E.09979
G1 X188.521 Y111.297 E.09979
G1 X188.128 Y114.455 E.09979
G1 X187.578 Y117.59 E.09979
G1 X186.873 Y120.694 E.09979
G1 X186.014 Y123.758 E.09979
G1 X185.003 Y126.776 E.09979
G1 X183.843 Y129.74 E.09979
G1 X182.536 Y132.642 E.09979
G1 X181.087 Y135.476 E.09979
G1 X179.498 Y138.234 E.09979
G1 X177.774 Y140.909 E.09979
G1 X175.918 Y143.495 E.09979
G1 X173.936 Y145.985 E.09979
G1 X171.832 Y148.373 E.09979
G1 X169.612 Y150.654 E.09979
G1 X167.281 Y152.821 E.09979
G1 X164.752 Y154.943 E.10351
G1 X162.213 Y156.862 E.09979
G1 X159.582 Y158.653 E.09979
G1 X156.865 Y160.31 E.09979
G1 X154.068 Y161.829 E.09979
G1 X151.199 Y163.208 E.09979
G1 X148.265 Y164.441 E.09979
G1 X145.273 Y165.527 E.09979
G1 X142.231 Y166.462 E.09979
G1 X139.146 Y167.245 E.09979
G1 X136.026 Y167.873 E.09979
G1 X132.878 Y168.344 E.09979
G1 X129.711 Y168.658 E.09979
G1 X126.532 Y168.814 E.09979
G1 X123.349 Y168.811 E.09979
G1 X120.171 Y168.649 E.09979
G1 X117.004 Y168.329 E.09979
G1 X113.857 Y167.852 E.09979
G1 X110.738 Y167.218 E.09979
G1 X107.655 Y166.43 E.09979
G1 X104.614 Y165.489 E.09979
G1 X101.624 Y164.398 E.09979
G1 X98.693 Y163.159 E.09979
G1 X95.826 Y161.775 E.09979
G1 X93.033 Y160.251 E.09979
G1 X90.318 Y158.588 E.09979
G1 X87.69 Y156.793 E.09979
G1 X85.155 Y154.869 E.09979
G1 X82.808 Y152.899 E.09608
G1 X80.473 Y150.737 E.09979
G1 X78.248 Y148.46 E.09979
G1 X76.14 Y146.076 E.09979
G1 X74.153 Y143.589 E.09979
G1 X72.293 Y141.007 E.09979
G1 X70.564 Y138.335 E.09979
G1 X68.97 Y135.58 E.09979
G1 X67.515 Y132.749 E.09979
G1 X66.203 Y129.849 E.09979
G1 X65.038 Y126.888 E.09979
G1 X64.021 Y123.871 E.09979
G1 X63.156 Y120.808 E.09979
G1 X62.445 Y117.706 E.09979
G1 X61.89 Y114.572 E.09979
G1 X61.491 Y111.415 E.09979
G1 X61.25 Y108.241 E.09979
G1 X61.168 Y105.059 E.09979
G1 X61.244 Y101.877 E.09979
G1 X61.479 Y98.703 E.09979
G1 X61.872 Y95.545 E.09979
G1 X62.422 Y92.41 E.09979
G1 X63.127 Y89.306 E.09979
G1 X63.986 Y86.242 E.09979
G1 X64.997 Y83.224 E.09979
G1 X66.157 Y80.26 E.09979
G1 X67.464 Y77.358 E.09979
G1 X68.913 Y74.524 E.09979
G1 X70.502 Y71.766 E.09979
G1 X72.226 Y69.091 E.09979
G1 X74.082 Y66.505 E.09979
G1 X76.026 Y64.062 E.09791
M204 S1000
; printing object Lid.stl id:0 copy 0
;WIPE_START
G1 F8640
G1 X78.168 Y61.627 E-.74874
G1 X78.776 Y61.002 E-.20126
;WIPE_END
G1 E-.05 F2100
G1 Z.4 F720
G1 X122.601 Y91.118 F10800
G1 X125.836 Y93.342
G1 Z.2 F720
G1 E1 F2100
M204 S800
;TYPE:Support material
G1 F1200
G1 X126.453 Y93.401 E.01944
G1 X127.066 Y93.496 E.01944
G1 X127.601 Y93.604 E.01711
G1 X128.202 Y93.759 E.01944
G1 X128.723 Y93.919 E.01711
G1 X129.305 Y94.133 E.01944
G1 X129.808 Y94.345 E.01711
G1 X130.299 Y94.582 E.0171
G1 X130.845 Y94.877 E.01944
G1 X131.31 Y95.161 E.01711
G1 X131.824 Y95.509 E.01944
G1 X132.258 Y95.838 E.0171
G1 X132.735 Y96.236 E.01944
G1 X133.188 Y96.659 E.01944
G1 X133.569 Y97.049 E.01711
G1 X133.978 Y97.515 E.01944
G1 X134.318 Y97.942 E.01711
G1 X134.678 Y98.446 E.01944
G1 X134.974 Y98.905 E.01711
G1 X135.283 Y99.443 E.01944
G1 X135.532 Y99.928 E.01711
G1 X135.785 Y100.494 E.01944
G1 X135.984 Y101.002 E.01711
G1 X136.158 Y101.519 E.01711
G1 X136.328 Y102.116 E.01944
G1 X136.464 Y102.72 E.01944
G1 X136.559 Y103.258 E.01711
G1 X136.634 Y103.873 E.01944
G1 X136.675 Y104.417 E.01711
G1 X136.688 Y104.963 E.01711
G1 X136.675 Y105.583 E.01944
G1 X136.634 Y106.127 E.01711
G1 X136.559 Y106.742 E.01944
G1 X136.464 Y107.28 E.01711
G1 X136.328 Y107.884 E.01944
G1 X136.158 Y108.481 E.01944
G1 X135.984 Y108.998 E.01711
G1 X135.785 Y109.506 E.01711
G1 X135.532 Y110.072 E.01944
G1 X135.283 Y110.557 E.01711
G1 X134.974 Y111.095 E.01944
G1 X134.678 Y111.554 E.01711
G1 X134.318 Y112.058 E.01944
G1 X133.978 Y112.485 E.01711
G1 X133.569 Y112.951 E.01944
G1 X133.188 Y113.341 E.01711
G1 X132.735 Y113.764 E.01944
G1 X132.258 Y114.162 E.01944
G1 X131.824 Y114.491 E.0171
G1 X131.31 Y114.839 E.01944
G1 X130.845 Y115.123 E.01711
G1 X130.299 Y115.418 E.01944
G1 X129.808 Y115.655 E.0171
G1 X129.305 Y115.867 E.01711
G1 X128.723 Y116.081 E.01944
G1 X128.202 Y116.241 E.01711
G1 X127.601 Y116.396 E.01944
G1 X127.066 Y116.504 E.01711
G1 X126.453 Y116.599 E.01944
G1 X125.911 Y116.653 E.0171
G1 X125.291 Y116.686 E.01944
G1 X124.671 Y116.684 E.01944
G1 X124.126 Y116.657 E.01711
G1 X123.51 Y116.593 E.01944
G1 X122.97 Y116.512 E.01711
G1 X122.363 Y116.387 E.01944
G1 X121.834 Y116.252 E.01711
G1 X121.313 Y116.092 E.01711
G1 X120.729 Y115.881 E.01944
G1 X120.227 Y115.669 E.0171
G1 X119.667 Y115.402 E.01944
G1 X119.188 Y115.141 E.01711
G1 X118.658 Y114.819 E.01944
G1 X118.207 Y114.512 E.01711
G1 X117.712 Y114.139 E.01944
G1 X117.294 Y113.788 E.01711
G1 X116.838 Y113.368 E.01944
G1 X116.406 Y112.923 E.01944
G1 X116.045 Y112.514 E.01711
G1 X115.705 Y112.087 E.01711
G1 X115.342 Y111.585 E.01944
G1 X115.046 Y111.126 E.01711
G1 X114.734 Y110.59 E.01944
G1 X114.485 Y110.105 E.01711
G1 X114.229 Y109.541 E.01944
G1 X114.029 Y109.033 E.01711
G1 X113.83 Y108.446 E.01944
G1 X113.664 Y107.848 E.01944
G1 X113.542 Y107.316 E.0171
G1 X113.437 Y106.705 E.01944
G1 X113.369 Y106.164 E.01711
G1 X113.328 Y105.62 E.01711
G1 X113.311 Y105 E.01944
G1 X113.328 Y104.38 E.01944
G1 X113.369 Y103.836 E.01711
G1 X113.448 Y103.221 E.01944
G1 X113.542 Y102.684 E.01711
G1 X113.682 Y102.08 E.01944
G1 X113.83 Y101.554 E.01711
G1 X114.029 Y100.967 E.01944
G1 X114.229 Y100.459 E.01711
G1 X114.485 Y99.895 E.01944
G1 X114.734 Y99.41 E.01711
G1 X115.046 Y98.874 E.01944
G1 X115.342 Y98.415 E.01711
G1 X115.705 Y97.913 E.01944
G1 X116.045 Y97.486 E.01711
G1 X116.406 Y97.077 E.01711
G1 X116.838 Y96.632 E.01944
G1 X117.238 Y96.261 E.01711
G1 X117.712 Y95.861 E.01944
G1 X118.147 Y95.531 E.01711
G1 X118.658 Y95.181 E.01944
G1 X119.124 Y94.896 E.01711
G1 X119.667 Y94.598 E.01944
G1 X120.159 Y94.361 E.01711
G1 X120.729 Y94.119 E.01944
G1 X121.242 Y93.932 E.01711
G1 X121.834 Y93.748 E.01944
G1 X122.363 Y93.613 E.01711
G1 X122.97 Y93.488 E.01944
G1 X123.51 Y93.407 E.01711
G1 X124.126 Y93.343 E.01944
G1 X124.671 Y93.316 E.01711
G1 X125.291 Y93.314 E.01944
G1 X125.78 Y93.339 E.01533
M204 S1000
G1 X136.312 Y107.162 F10800
M204 S800
G1 F1200
G1 X136.312 Y104.123 E.0953
G1 X136.296 Y103.903 E.00691
G1 X136.223 Y103.308 E.01878
G1 X136.131 Y102.784 E.01671
G1 X135.893 Y101.824 E.03098
G1 X135.893 Y108.176 E.19913
G1 X135.665 Y108.882 E.02327
G1 X135.474 Y109.368 E.01639
G1 X135.474 Y100.632 E.27393
G1 X135.055 Y99.743 E.0308
G1 X135.055 Y110.257 E.32965
G1 X134.636 Y110.993 E.02655
G1 X134.636 Y99.007 E.37581
G1 X134.217 Y98.384 E.02355
G1 X134.217 Y111.616 E.4149
G1 X133.799 Y112.165 E.02165
G1 X133.799 Y97.835 E.44931
G1 X133.38 Y97.348 E.02015
G1 X133.38 Y112.652 E.47987
G1 X132.961 Y113.088 E.01896
G1 X132.961 Y96.912 E.50721
G1 X132.542 Y96.519 E.01799
G1 X132.542 Y113.481 E.53181
G1 X132.123 Y113.835 E.01721
G1 X132.123 Y96.165 E.55403
G1 X131.704 Y95.844 E.01655
G1 X131.704 Y114.156 E.57417
G1 X131.285 Y114.448 E.016
G1 X131.285 Y95.552 E.59245
G1 X130.866 Y95.287 E.01554
G1 X130.866 Y114.713 E.60907
G1 X130.447 Y114.954 E.01515
G1 X130.447 Y95.046 E.62417
G1 X130.028 Y94.828 E.01482
G1 X130.028 Y115.172 E.63789
G1 X129.609 Y115.37 E.01453
G1 X129.609 Y94.63 E.65032
G1 X129.19 Y94.453 E.01426
G1 X129.19 Y115.547 E.66139
G1 X128.771 Y115.702 E.01401
G1 X128.771 Y94.298 E.67111
G1 X128.352 Y94.16 E.01383
G1 X128.352 Y115.84 E.67976
G1 X127.933 Y115.962 E.01368
G1 X127.933 Y94.038 E.68738
G1 X127.514 Y93.932 E.01355
G1 X127.514 Y116.068 E.69404
G1 X127.095 Y116.152 E.0134
M73 P0 R131
G1 X127.095 Y93.848 E.69935
G1 X126.676 Y93.778 E.01332
G1 X126.676 Y116.222 E.70371
G1 X126.257 Y116.277 E.01325
G1 X126.257 Y93.723 E.70718
G1 X125.838 Y93.682 E.0132
G1 X125.838 Y116.318 E.70974
G1 X125.419 Y116.34 E.01315
G1 X125.419 Y93.66 E.71109
G1 X125 Y93.654 E.01314
G1 X125 Y116.346 E.71151
G1 X124.581 Y116.34 E.01314
G1 X124.581 Y93.66 E.71109
G1 X124.162 Y93.681 E.01315
G1 X124.162 Y116.319 E.70977
G1 X123.743 Y116.277 E.0132
G1 X123.743 Y93.723 E.70718
G1 X123.324 Y93.778 E.01325
G1 X123.324 Y116.222 E.70371
G1 X123.029 Y116.177 E.00935
G1 X122.905 Y116.152 E.00397
G1 X122.905 Y93.848 E.69935
G1 X122.486 Y93.933 E.01341
G1 X122.486 Y116.067 E.694
G1 X122.067 Y115.962 E.01355
M73 Q0 S133
G1 X122.067 Y94.038 E.68738
G1 X121.648 Y94.16 E.01368
G1 X121.648 Y115.84 E.67976
G1 X121.229 Y115.702 E.01383
G1 X121.229 Y94.298 E.67111
G1 X120.81 Y94.453 E.01401
G1 X120.81 Y115.547 E.66139
G1 X120.391 Y115.37 E.01426
G1 X120.391 Y94.63 E.65032
G1 X119.972 Y94.828 E.01453
G1 X119.972 Y115.172 E.63789
G1 X119.553 Y114.954 E.01482
G1 X119.553 Y95.046 E.62417
G1 X119.134 Y95.287 E.01515
G1 X119.134 Y114.713 E.60907
G1 X118.715 Y114.448 E.01554
G1 X118.715 Y95.552 E.59245
G1 X118.296 Y95.844 E.016
G1 X118.296 Y114.156 E.57417
G1 X117.877 Y113.835 E.01655
G1 X117.877 Y96.165 E.55403
G1 X117.458 Y96.519 E.01721
G1 X117.458 Y113.481 E.53181
G1 X117.039 Y113.088 E.01799
G1 X117.039 Y96.912 E.50721
G1 X116.62 Y97.348 E.01896
G1 X116.62 Y112.652 E.47987
G1 X116.201 Y112.165 E.02015
G1 X116.201 Y97.835 E.44931
G1 X115.783 Y98.384 E.02165
G1 X115.783 Y111.616 E.4149
G1 X115.364 Y110.993 E.02355
M73 P1 R131
G1 X115.364 Y99.007 E.37581
G1 X114.945 Y99.743 E.02655
M73 Q1 S133
G1 X114.945 Y110.257 E.32965
G1 X114.526 Y109.368 E.0308
G1 X114.526 Y100.632 E.27393
G1 X114.324 Y101.149 E.01742
G1 X114.107 Y101.824 E.02224
G1 X114.107 Y108.176 E.19913
G1 X113.875 Y107.249 E.02994
G1 X113.773 Y106.659 E.01878
G1 X113.707 Y106.13 E.01671
G1 X113.688 Y105.877 E.00795
G1 X113.688 Y102.838 E.0953
M204 S1000
;WIPE_START
G1 F8640
G1 X113.688 Y105.877 E-.70185
G1 X113.707 Y106.13 E-.05852
G1 X113.773 Y106.659 E-.12304
G1 X113.822 Y106.943 E-.06658
;WIPE_END
G1 E-.05 F2100
G1 Z.4 F720
G1 X111.03 Y108.743 F10800
G1 X71.884 Y133.942
G1 X72.402 Y133.643
G1 Z.2 F720
G1 E1 F2100
M204 S800
;TYPE:Perimeter
;WIDTH:0.419999
G1 F1200
G1 X71.04 Y130.986 E.09363
G1 X69.812 Y128.264 E.09363
G1 X68.721 Y125.484 E.09363
G1 X67.77 Y122.653 E.09363
G1 X66.961 Y119.779 E.09363
G1 X66.296 Y116.867 E.09363
G1 X65.778 Y113.926 E.09363
G1 X65.406 Y110.963 E.09363
G1 X65.183 Y107.985 E.09363
G1 X65.109 Y105 E.09363
G1 X65.183 Y102.015 E.09363
G1 X65.406 Y99.037 E.09363
G1 X65.778 Y96.074 E.09363
G1 X66.296 Y93.133 E.09363
G1 X66.961 Y90.221 E.09363
G1 X67.77 Y87.347 E.09363
G1 X68.721 Y84.516 E.09363
G1 X69.812 Y81.736 E.09363
G1 X71.04 Y79.014 E.09363
G1 X72.402 Y76.357 E.09363
G1 X73.895 Y73.771 E.09363
G1 X75.516 Y71.262 E.09363
G1 X77.259 Y68.837 E.09363
G1 X79.121 Y66.503 E.09363
G1 X81.097 Y64.264 E.09363
G1 X83.182 Y62.126 E.09363
G1 X85.371 Y60.095 E.09363
G1 X87.658 Y58.175 E.09363
G1 X90.039 Y56.372 E.09363
G1 X92.506 Y54.69 E.09363
G1 X95.054 Y53.133 E.09363
G1 X97.677 Y51.705 E.09363
G1 X100.368 Y50.409 E.09363
G1 X103.119 Y49.249 E.09363
G1 X105.925 Y48.228 E.09363
G1 X108.779 Y47.347 E.09363
G1 X111.673 Y46.61 E.09363
G1 X114.6 Y46.019 E.09363
G1 X117.553 Y45.574 E.09363
G1 X120.524 Y45.276 E.09363
G1 X123.506 Y45.128 E.0936
G1 X126.597 Y45.133 E.09692
G1 X129.476 Y45.276 E.09037
G1 X132.447 Y45.574 E.09363
G1 X135.4 Y46.019 E.09363
G1 X138.327 Y46.61 E.09363
G1 X141.221 Y47.347 E.09363
G1 X144.075 Y48.228 E.09363
G1 X146.881 Y49.249 E.09363
G1 X149.632 Y50.409 E.09363
G1 X152.323 Y51.705 E.09363
G1 X154.946 Y53.133 E.09363
G1 X157.494 Y54.69 E.09363
G1 X159.961 Y56.372 E.09363
G1 X162.342 Y58.175 E.09363
G1 X164.629 Y60.095 E.09363
G1 X166.818 Y62.126 E.09363
G1 X168.903 Y64.264 E.09363
G1 X170.879 Y66.503 E.09363
G1 X172.741 Y68.837 E.09363
G1 X174.484 Y71.262 E.09363
G1 X176.105 Y73.771 E.09363
G1 X177.598 Y76.357 E.09363
G1 X178.96 Y79.014 E.09363
G1 X180.188 Y81.736 E.09363
G1 X181.279 Y84.516 E.09363
G1 X182.23 Y87.347 E.09363
G1 X183.039 Y90.221 E.09363
G1 X183.704 Y93.133 E.09363
G1 X184.222 Y96.074 E.09363
G1 X184.594 Y99.037 E.09363
G1 X184.817 Y102.015 E.09363
G1 X184.891 Y105 E.09363
G1 X184.817 Y107.985 E.09363
G1 X184.594 Y110.963 E.09363
G1 X184.222 Y113.926 E.09363
G1 X183.704 Y116.867 E.09363
G1 X183.039 Y119.779 E.09363
G1 X182.23 Y122.653 E.09363
G1 X181.279 Y125.484 E.09363
G1 X180.188 Y128.264 E.09363
G1 X178.96 Y130.986 E.09363
G1 X177.598 Y133.643 E.09363
G1 X176.105 Y136.229 E.09363
G1 X174.484 Y138.738 E.09363
G1 X172.741 Y141.163 E.09363
G1 X170.879 Y143.497 E.09363
G1 X168.903 Y145.736 E.09363
G1 X166.818 Y147.874 E.09363
G1 X164.629 Y149.905 E.09363
G1 X162.342 Y151.825 E.09363
G1 X159.961 Y153.628 E.09363
G1 X157.494 Y155.31 E.09363
G1 X154.946 Y156.867 E.09363
G1 X152.323 Y158.295 E.09363
G1 X149.633 Y159.591 E.0936
G1 X146.783 Y160.787 E.09692
G1 X144.075 Y161.772 E.09037
G1 X141.221 Y162.653 E.09363
G1 X138.327 Y163.39 E.09363
G1 X135.4 Y163.981 E.09363
G1 X132.447 Y164.426 E.09363
G1 X129.476 Y164.724 E.09363
G1 X126.493 Y164.873 E.09363
G1 X123.507 Y164.873 E.09363
G1 X120.524 Y164.724 E.09363
G1 X117.553 Y164.426 E.09363
G1 X114.6 Y163.981 E.09363
G1 X111.673 Y163.39 E.09363
G1 X108.779 Y162.653 E.09363
