; generated by PrusaSlicer 2.5.0+linux-x64-GTK3 on 2022-10-21 at 20:09:06 UTC


;
;

;
;
; 

; external perimeters extrusion width = 0.45mm
; perimeters extrusion width = 0.45mm
; infill extrusion width = 0.45mm
; solid infill extrusion width = 0.45mm
; top infill extrusion width = 0.40mm
; support material extrusion width = 0.35mm
; first layer extrusion width = 0.42mm

M73 P0 R39
M73 Q0 S40
M201 X1000 Y1000 Z200 E5000 ; sets maximum accelerations, mm/sec^2
M203 X200 Y200 Z12 E120 ; sets maximum feedrates, mm / sec
M204 P1250 R1250 T1250 ; sets acceleration (P, T) and retract acceleration (R), mm/sec^2
M205 X8.00 Y8.00 Z0.40 E4.50 ; sets the jerk limits, mm/sec
M205 S0 T0 ; sets the minimum extruding and travel feed rate, mm/sec
M107
;TYPE:Custom
M862.3 P "MK3S" ; printer model check
M862.1 P0.4 ; nozzle diameter check
M115 U3.9.2 ; tell printer latest fw version
G90 ; use absolute coordinates
M83 ; extruder relative mode
M104 S240 ; set extruder temp
M140 S85 ; set bed temp
M190 S85 ; wait for bed temp
M109 S240 ; wait for extruder temp
G28 W ; home all without mesh bed level
G80 ; mesh bed leveling
G1 Y-3.0 F1000.0 ; go outside print area
G92 E0.0
G1 X60.0 E9.0 F1000.0 ; intro line
G1 X100.0 E12.5 F1000.0 ; intro line
G92 E0.0
M221 S95

; Don't change E values below. Excessive value can damage the printer.
M907 E430 ; set extruder motor current
G21 ; set units to millimeters
G90 ; use absolute coordinates
M83 ; use relative distances for extrusion
M900 K0.08 ; Filament gcode LA 1.5
M900 K45 ; Filament gcode LA 1.0
M107
;LAYER_CHANGE
;Z:0.2
;HEIGHT:0.2
;BEFORE_LAYER_CHANGE
G92 E0.0
;0.2


G1 E-1 F2100
G1 Z.2 F720
;AFTER_LAYER_CHANGE
;0.2
G1 Z.4
G1 X77.945 Y65.593 F10800
G1 Z.2 F720
G1 E1 F2100
M204 S800
;TYPE:Skirt/Brim
;WIDTH:0.42
G1 F1200
G1 X79.968 Y63.297 E.09595
G1 X82.102 Y61.104 E.09595
G1 X84.344 Y59.02 E.09595
G1 X86.686 Y57.051 E.09595
G1 X89.124 Y55.201 E.09595
G1 X91.651 Y53.474 E.09595
G1 X94.261 Y51.876 E.09595
G1 X96.947 Y50.41 E.09595
G1 X99.703 Y49.079 E.09595
G1 X102.522 Y47.888 E.09595
G1 X105.396 Y46.839 E.09595
G1 X108.32 Y45.934 E.09595
G1 X111.285 Y45.176 E.09595
G1 X114.284 Y44.566 E.09595
G1 X117.309 Y44.107 E.09595
G1 X120.354 Y43.8 E.09595
G1 X123.411 Y43.644 E.09595
G1 X126.589 Y43.644 E.09967
G1 X129.646 Y43.8 E.09595
G1 X132.691 Y44.107 E.09595
G1 X135.716 Y44.566 E.09595
G1 X138.715 Y45.176 E.09595
G1 X141.68 Y45.934 E.09595
G1 X144.604 Y46.839 E.09595
G1 X147.478 Y47.888 E.09595
G1 X150.297 Y49.079 E.09595
G1 X153.053 Y50.41 E.09595
G1 X155.739 Y51.876 E.09595
G1 X158.349 Y53.474 E.09595
G1 X160.876 Y55.201 E.09596
G1 X163.314 Y57.051 E.09595
G1 X165.656 Y59.02 E.09595
G1 X167.898 Y61.104 E.09595
G1 X170.032 Y63.297 E.09595
G1 X172.055 Y65.593 E.09595
G1 X173.961 Y67.988 E.09595
G1 X175.745 Y70.474 E.09595
G1 X177.403 Y73.047 E.09595
G1 X178.874 Y75.594 E.09224
G1 X180.272 Y78.316 E.09595
G1 X181.534 Y81.105 E.09595
G1 X182.655 Y83.952 E.09595
G1 X183.632 Y86.852 E.09595
G1 X184.464 Y89.798 E.09595
G1 X185.148 Y92.78 E.09595
G1 X185.682 Y95.794 E.09595
G1 X186.065 Y98.83 E.09595
G1 X186.297 Y101.881 E.09595
G1 X186.376 Y104.941 E.09595
G1 X186.303 Y108 E.09595
G1 X186.077 Y111.052 E.09595
G1 X185.7 Y114.089 E.09595
G1 X185.171 Y117.103 E.09595
G1 X184.493 Y120.088 E.09595
G1 X183.667 Y123.034 E.09595
G1 X182.695 Y125.936 E.09595
G1 X181.58 Y128.786 E.09595
G1 X180.324 Y131.577 E.09595
G1 X178.93 Y134.301 E.09595
G1 X177.403 Y136.953 E.09595
G1 X175.745 Y139.526 E.09595
G1 X173.961 Y142.012 E.09595
G1 X172.055 Y144.407 E.09595
G1 X170.032 Y146.703 E.09595
G1 X167.898 Y148.896 E.09595
G1 X165.656 Y150.98 E.09595
G1 X163.314 Y152.949 E.09595
G1 X160.876 Y154.799 E.09595
G1 X158.349 Y156.526 E.09596
G1 X155.739 Y158.124 E.09595
G1 X153.053 Y159.59 E.09595
G1 X150.297 Y160.921 E.09595
G1 X147.478 Y162.112 E.09595
G1 X144.604 Y163.161 E.09595
G1 X141.68 Y164.066 E.09595
G1 X138.715 Y164.824 E.09595
G1 X135.716 Y165.434 E.09595
G1 X132.691 Y165.893 E.09595
G1 X129.646 Y166.2 E.09595
G1 X126.589 Y166.356 E.09595
G1 X123.411 Y166.356 E.09967
G1 X120.354 Y166.2 E.09595
G1 X117.309 Y165.893 E.09595
G1 X114.284 Y165.434 E.09595
G1 X111.285 Y164.824 E.09595
G1 X108.32 Y164.066 E.09595
G1 X105.396 Y163.161 E.09595
G1 X102.522 Y162.112 E.09595
G1 X99.703 Y160.921 E.09595
G1 X96.947 Y159.59 E.09595
G1 X94.261 Y158.124 E.09595
G1 X91.651 Y156.526 E.09595
G1 X89.124 Y154.799 E.09596
G1 X86.686 Y152.949 E.09595
G1 X84.344 Y150.98 E.09595
G1 X82.102 Y148.896 E.09595
G1 X79.968 Y146.703 E.09595
G1 X77.945 Y144.407 E.09595
G1 X76.039 Y142.012 E.09595
G1 X74.255 Y139.526 E.09595
G1 X72.597 Y136.953 E.09595
G1 X71.07 Y134.301 E.09595
G1 X69.676 Y131.577 E.09595
G1 X68.42 Y128.786 E.09595
G1 X67.345 Y126.048 E.09224
G1 X66.368 Y123.148 E.09595
G1 X65.536 Y120.202 E.09595
G1 X64.852 Y117.22 E.09595
G1 X64.318 Y114.206 E.09595
G1 X63.935 Y111.17 E.09595
G1 X63.703 Y108.119 E.09595
M73 P1 R39
G1 X63.624 Y105.059 E.09595
G1 X63.697 Y102 E.09595
G1 X63.923 Y98.948 E.09595
G1 X64.3 Y95.911 E.09595
M73 Q1 S40
G1 X64.829 Y92.897 E.09595
G1 X65.507 Y89.912 E.09595
G1 X66.333 Y86.966 E.09595
G1 X67.305 Y84.064 E.09595
G1 X68.42 Y81.214 E.09595
G1 X69.676 Y78.423 E.09595
G1 X71.07 Y75.699 E.09595
G1 X72.597 Y73.047 E.09595
G1 X74.255 Y70.474 E.09595
G1 X76.039 Y67.988 E.09595
G1 X77.908 Y65.64 E.09407
M204 S1000
; printing object Lid_rim.stl id:0 copy 0
;WIPE_START
G1 F8640
G1 X79.968 Y63.297 E-.72047
G1 X80.661 Y62.585 E-.22953
;WIPE_END
G1 E-.05 F2100
G1 Z.4 F720
G1 X80.695 Y67.824 F10800
G1 Z.2 F720
G1 E1 F2100
M204 S800
;TYPE:Perimeter
;WIDTH:0.419999
G1 F1200
G1 X82.604 Y65.662 E.09042
G1 X84.617 Y63.597 E.09042
G1 X86.731 Y61.636 E.09042
G1 X88.94 Y59.782 E.09042
G1 X91.239 Y58.041 E.09042
G1 X93.622 Y56.417 E.09042
G1 X96.082 Y54.913 E.09042
G1 X98.615 Y53.534 E.09042
G1 X101.213 Y52.283 E.09042
G1 X103.87 Y51.162 E.09042
G1 X106.58 Y50.176 E.09042
G1 X109.336 Y49.326 E.09042
G1 X112.13 Y48.615 E.09042
G1 X114.957 Y48.043 E.09042
G1 X117.809 Y47.613 E.09042
G1 X120.678 Y47.326 E.09042
G1 X123.558 Y47.182 E.09042
G1 X126.442 Y47.182 E.09042
G1 X129.322 Y47.326 E.09042
G1 X132.191 Y47.613 E.09042
G1 X135.043 Y48.043 E.09042
G1 X137.87 Y48.615 E.09042
G1 X140.664 Y49.326 E.09042
G1 X143.42 Y50.176 E.09042
G1 X146.13 Y51.162 E.09042
G1 X148.787 Y52.283 E.09042
G1 X151.385 Y53.534 E.09042
G1 X153.918 Y54.913 E.09042
G1 X156.378 Y56.417 E.09042
G1 X158.761 Y58.041 E.09042
G1 X161.06 Y59.782 E.09042
G1 X163.269 Y61.636 E.09042
G1 X165.383 Y63.597 E.09042
G1 X167.396 Y65.662 E.09042
G1 X169.305 Y67.824 E.09042
G1 X171.103 Y70.079 E.09042
G1 X172.786 Y72.42 E.09042
G1 X174.35 Y74.843 E.09042
G1 X175.792 Y77.34 E.09042
G1 X177.108 Y79.906 E.09042
G1 X178.294 Y82.535 E.09042
G1 X179.348 Y85.219 E.09042
G1 X180.266 Y87.953 E.09042
G1 X181.047 Y90.729 E.09042
G1 X181.689 Y93.54 E.09042
G1 X182.19 Y96.38 E.09042
G1 X182.548 Y99.241 E.09042
G1 X182.764 Y102.117 E.09042
G1 X182.835 Y105 E.09042
G1 X182.764 Y107.883 E.09042
G1 X182.548 Y110.759 E.09042
G1 X182.19 Y113.62 E.09042
G1 X181.689 Y116.46 E.09042
G1 X181.047 Y119.271 E.09042
G1 X180.266 Y122.047 E.09042
G1 X179.348 Y124.781 E.09042
G1 X178.294 Y127.465 E.09042
G1 X177.108 Y130.094 E.09042
G1 X175.792 Y132.66 E.09042
G1 X174.35 Y135.157 E.09042
G1 X172.786 Y137.58 E.09042
G1 X171.103 Y139.921 E.09042
G1 X169.305 Y142.176 E.09042
M73 P1 R38
G1 X167.396 Y144.338 E.09042
G1 X165.383 Y146.403 E.09042
G1 X163.269 Y148.364 E.09042
G1 X161.06 Y150.218 E.09042
G1 X158.761 Y151.959 E.09042
G1 X156.378 Y153.583 E.09042
G1 X153.918 Y155.087 E.09042
G1 X151.385 Y156.466 E.09042
G1 X148.787 Y157.717 E.09042
G1 X146.13 Y158.838 E.09042
G1 X143.42 Y159.824 E.09042
G1 X140.664 Y160.674 E.09042
G1 X137.87 Y161.385 E.09042
G1 X135.043 Y161.957 E.09042
G1 X132.191 Y162.387 E.09042
G1 X129.322 Y162.674 E.09042
G1 X126.442 Y162.818 E.09042
G1 X123.558 Y162.818 E.09042
G1 X120.678 Y162.674 E.09042
G1 X117.809 Y162.387 E.09042
G1 X114.957 Y161.957 E.09042
G1 X112.13 Y161.385 E.09042
G1 X109.336 Y160.674 E.09042
G1 X106.58 Y159.824 E.09042
G1 X103.87 Y158.838 E.09042
G1 X101.213 Y157.717 E.09042
G1 X98.615 Y156.466 E.09042
G1 X96.082 Y155.087 E.09042
G1 X93.622 Y153.583 E.09042
G1 X91.239 Y151.959 E.09042
G1 X88.94 Y150.218 E.09042
G1 X86.731 Y148.364 E.09042
G1 X84.617 Y146.403 E.09042
G1 X82.604 Y144.338 E.09042
G1 X80.695 Y142.176 E.09042
G1 X78.897 Y139.921 E.09042
G1 X77.214 Y137.58 E.09042
G1 X75.65 Y135.157 E.09042
G1 X74.208 Y132.66 E.09042
G1 X72.892 Y130.094 E.09042
G1 X71.706 Y127.465 E.09042
G1 X70.652 Y124.781 E.09042
G1 X69.734 Y122.047 E.09042
G1 X68.953 Y119.271 E.09042
G1 X68.311 Y116.46 E.09042
G1 X67.81 Y113.62 E.09042
G1 X67.452 Y110.759 E.09042
G1 X67.236 Y107.883 E.09042
G1 X67.165 Y105 E.09042
G1 X67.236 Y102.117 E.09042
G1 X67.452 Y99.241 E.09042
G1 X67.81 Y96.38 E.09042
G1 X68.311 Y93.54 E.09042
G1 X68.953 Y90.729 E.09042
G1 X69.734 Y87.953 E.09042
G1 X70.652 Y85.219 E.09042
G1 X71.706 Y82.535 E.09042
G1 X72.892 Y79.906 E.09042
G1 X74.208 Y77.34 E.09042
G1 X75.65 Y74.843 E.09042
G1 X77.214 Y72.42 E.09042
G1 X78.897 Y70.079 E.09042
G1 X80.658 Y67.871 E.08854
M204 S1000
G1 X80.407 Y67.582 F10800
M204 S800
G1 F1200
G1 X82.327 Y65.405 E.09101
G1 X84.354 Y63.327 E.09101
G1 X86.481 Y61.353 E.09101
G1 X88.705 Y59.487 E.09101
G1 X91.019 Y57.735 E.09101
G1 X93.417 Y56.1 E.09101
G1 X95.894 Y54.586 E.09101
G1 X98.443 Y53.198 E.09101
G1 X101.058 Y51.939 E.09101
G1 X103.733 Y50.811 E.09101
G1 X106.46 Y49.819 E.09101
G1 X109.234 Y48.963 E.09101
G1 X112.046 Y48.247 E.09101
G1 X114.891 Y47.672 E.09101
G1 X117.762 Y47.239 E.09101
G1 X120.65 Y46.95 E.09101
G1 X123.549 Y46.805 E.09101
G1 X126.451 Y46.805 E.09101
G1 X129.35 Y46.95 E.09101
G1 X132.238 Y47.239 E.09101
M73 P2 R38
G1 X135.109 Y47.672 E.09101
G1 X137.954 Y48.247 E.09101
G1 X140.766 Y48.963 E.09101
G1 X143.54 Y49.819 E.09101
G1 X146.267 Y50.811 E.09101
G1 X148.942 Y51.939 E.09101
G1 X151.557 Y53.198 E.09101
G1 X154.106 Y54.586 E.09101
G1 X156.583 Y56.1 E.09101
M73 Q2 S40
G1 X158.981 Y57.735 E.09101
G1 X161.295 Y59.487 E.09101
G1 X163.519 Y61.353 E.09101
G1 X165.646 Y63.327 E.09101
G1 X167.673 Y65.405 E.09101
G1 X169.593 Y67.582 E.09101
G1 X171.403 Y69.851 E.09101
G1 X173.098 Y72.208 E.09101
G1 X174.672 Y74.646 E.09101
G1 X176.124 Y77.16 E.09101
G1 X177.448 Y79.742 E.09101
G1 X178.642 Y82.388 E.09101
G1 X179.702 Y85.09 E.09101
G1 X180.626 Y87.841 E.09101
G1 X181.413 Y90.636 E.09101
G1 X182.058 Y93.465 E.09101
G1 X182.562 Y96.324 E.09101
G1 X182.923 Y99.204 E.09101
G1 X183.14 Y102.098 E.09101
G1 X183.213 Y105 E.09101
G1 X183.14 Y107.902 E.09101
G1 X182.923 Y110.796 E.09101
G1 X182.562 Y113.676 E.09101
G1 X182.058 Y116.535 E.09101
G1 X181.413 Y119.364 E.09101
G1 X180.626 Y122.159 E.09101
G1 X179.702 Y124.91 E.09101
G1 X178.642 Y127.612 E.09101
G1 X177.448 Y130.258 E.09101
G1 X176.124 Y132.84 E.09101
G1 X174.672 Y135.354 E.09101
G1 X173.098 Y137.792 E.09101
G1 X171.403 Y140.149 E.09101
G1 X169.593 Y142.418 E.09101
G1 X167.673 Y144.595 E.09101
G1 X165.646 Y146.673 E.09101
G1 X163.519 Y148.647 E.09101
G1 X161.295 Y150.513 E.09101
G1 X158.981 Y152.265 E.09101
G1 X156.583 Y153.9 E.09101
G1 X154.106 Y155.414 E.09101
G1 X151.557 Y156.802 E.09101
G1 X148.942 Y158.061 E.09101
M73 Q2 S39
G1 X146.267 Y159.189 E.09101
G1 X143.54 Y160.181 E.09101
G1 X140.766 Y161.037 E.09101
G1 X137.954 Y161.753 E.09101
G1 X135.109 Y162.328 E.09101
G1 X132.238 Y162.761 E.09101
G1 X129.35 Y163.05 E.09101
G1 X126.451 Y163.195 E.09101
G1 X123.549 Y163.195 E.09101
G1 X120.65 Y163.05 E.09101
G1 X117.762 Y162.761 E.09101
G1 X114.891 Y162.328 E.09101
G1 X112.046 Y161.753 E.09101
G1 X109.234 Y161.037 E.09101
G1 X106.46 Y160.181 E.09101
G1 X103.733 Y159.189 E.09101
G1 X101.058 Y158.061 E.09101
G1 X98.443 Y156.802 E.09101
G1 X95.894 Y155.414 E.09101
G1 X93.417 Y153.9 E.09101
G1 X91.019 Y152.265 E.09101
G1 X88.705 Y150.513 E.09101
G1 X86.481 Y148.647 E.09101
G1 X84.354 Y146.673 E.09101
G1 X82.327 Y144.595 E.09101
G1 X80.407 Y142.418 E.09101
G1 X78.597 Y140.149 E.09101
G1 X76.902 Y137.792 E.09101
G1 X75.328 Y135.354 E.09101
G1 X73.876 Y132.84 E.09101
G1 X72.552 Y130.258 E.09101
G1 X71.358 Y127.612 E.09101
G1 X70.298 Y124.91 E.09101
G1 X69.374 Y122.159 E.09101
G1 X68.587 Y119.364 E.09101
G1 X67.942 Y116.535 E.09101
G1 X67.438 Y113.676 E.09101
G1 X67.077 Y110.796 E.09101
G1 X66.86 Y107.902 E.09101
G1 X66.787 Y105 E.09101
G1 X66.86 Y102.098 E.09101
G1 X67.077 Y99.204 E.09101
G1 X67.438 Y96.324 E.09101
G1 X67.942 Y93.465 E.09101
G1 X68.587 Y90.636 E.09101
G1 X69.374 Y87.841 E.09101
G1 X70.298 Y85.09 E.09101
G1 X71.358 Y82.388 E.09101
G1 X72.552 Y79.742 E.09101
G1 X73.876 Y77.16 E.09101
G1 X75.328 Y74.646 E.09101
G1 X76.902 Y72.208 E.09101
G1 X78.597 Y69.851 E.09101
G1 X80.369 Y67.629 E.08913
M204 S1000
G1 X80.118 Y67.339 F10800
M204 S800
;TYPE:External perimeter
G1 F1200
G1 X82.051 Y65.149 E.0916
G1 X84.09 Y63.057 E.0916
G1 X86.232 Y61.07 E.0916
G1 X88.47 Y59.193 E.0916
G1 X90.799 Y57.429 E.0916
G1 X93.212 Y55.783 E.0916
G1 X95.705 Y54.26 E.0916
G1 X98.271 Y52.863 E.0916
G1 X100.903 Y51.595 E.0916
G1 X103.595 Y50.46 E.0916
G1 X106.34 Y49.461 E.0916
G1 X109.132 Y48.6 E.0916
G1 X111.962 Y47.879 E.09159
G1 X114.826 Y47.3 E.0916
G1 X117.715 Y46.865 E.0916
G1 X120.622 Y46.574 E.0916
G1 X123.539 Y46.428 E.0916
G1 X126.461 Y46.428 E.0916
G1 X129.378 Y46.574 E.0916
G1 X132.285 Y46.865 E.0916
G1 X135.174 Y47.3 E.0916
G1 X138.038 Y47.879 E.0916
G1 X140.868 Y48.6 E.09159
G1 X143.66 Y49.461 E.0916
G1 X146.405 Y50.46 E.0916
G1 X149.097 Y51.595 E.0916
G1 X151.729 Y52.863 E.0916
G1 X154.295 Y54.26 E.0916
G1 X156.788 Y55.783 E.0916
G1 X159.202 Y57.429 E.0916
G1 X161.53 Y59.193 E.0916
G1 X163.768 Y61.07 E.0916
G1 X165.91 Y63.057 E.0916
G1 X167.949 Y65.149 E.0916
G1 X169.882 Y67.339 E.0916
G1 X171.704 Y69.623 E.0916
G1 X173.409 Y71.995 E.0916
G1 X174.994 Y74.449 E.0916
G1 X176.455 Y76.979 E.0916
G1 X177.788 Y79.579 E.0916
G1 X178.989 Y82.242 E.0916
G1 X180.056 Y84.961 E.0916
G1 X180.987 Y87.73 E.0916
G1 X181.778 Y90.543 E.0916
G1 X182.428 Y93.391 E.0916
G1 X182.935 Y96.268 E.0916
G1 X183.299 Y99.166 E.0916
G1 X183.517 Y102.08 E.0916
G1 X183.59 Y105 E.0916
G1 X183.517 Y107.92 E.0916
G1 X183.299 Y110.834 E.0916
G1 X182.935 Y113.732 E.0916
G1 X182.428 Y116.609 E.0916
G1 X181.778 Y119.457 E.0916
G1 X180.987 Y122.27 E.0916
G1 X180.056 Y125.039 E.0916
G1 X178.989 Y127.758 E.0916
M73 P3 R38
G1 X177.788 Y130.421 E.0916
G1 X176.455 Y133.021 E.0916
G1 X174.994 Y135.551 E.0916
G1 X173.409 Y138.005 E.0916
G1 X171.704 Y140.377 E.0916
G1 X169.882 Y142.661 E.0916
G1 X167.949 Y144.851 E.0916
G1 X165.91 Y146.943 E.0916
G1 X163.768 Y148.93 E.0916
G1 X161.53 Y150.807 E.0916
G1 X159.202 Y152.571 E.0916
G1 X156.788 Y154.217 E.0916
G1 X154.295 Y155.74 E.0916
G1 X151.729 Y157.137 E.0916
G1 X149.097 Y158.405 E.0916
M73 Q3 S39
G1 X146.405 Y159.54 E.0916
G1 X143.66 Y160.539 E.0916
G1 X140.868 Y161.4 E.0916
G1 X138.038 Y162.121 E.09159
G1 X135.174 Y162.7 E.0916
G1 X132.285 Y163.135 E.0916
G1 X129.378 Y163.426 E.0916
G1 X126.461 Y163.572 E.0916
G1 X123.539 Y163.572 E.0916
G1 X120.622 Y163.426 E.0916
G1 X117.715 Y163.135 E.0916
G1 X114.826 Y162.7 E.0916
G1 X111.962 Y162.121 E.0916
G1 X109.132 Y161.4 E.09159
G1 X106.34 Y160.539 E.0916
G1 X103.595 Y159.54 E.0916
G1 X100.903 Y158.405 E.0916
G1 X98.271 Y157.137 E.0916
G1 X95.705 Y155.74 E.0916
G1 X93.212 Y154.217 E.0916
G1 X90.799 Y152.571 E.0916
G1 X88.47 Y150.807 E.0916
G1 X86.232 Y148.93 E.0916
G1 X84.09 Y146.943 E.0916
G1 X82.051 Y144.851 E.0916
G1 X80.118 Y142.661 E.0916
G1 X78.296 Y140.377 E.0916
G1 X76.591 Y138.005 E.0916
G1 X75.006 Y135.551 E.0916
G1 X73.545 Y133.021 E.0916
G1 X72.212 Y130.421 E.0916
G1 X71.011 Y127.758 E.0916
G1 X69.944 Y125.039 E.0916
G1 X69.013 Y122.27 E.0916
G1 X68.222 Y119.457 E.0916
G1 X67.572 Y116.609 E.0916
G1 X67.065 Y113.732 E.0916
G1 X66.701 Y110.834 E.0916
G1 X66.483 Y107.92 E.0916
G1 X66.41 Y105 E.0916
G1 X66.483 Y102.08 E.0916
G1 X66.701 Y99.166 E.0916
G1 X67.065 Y96.268 E.0916
G1 X67.572 Y93.391 E.0916
G1 X68.222 Y90.543 E.0916
G1 X69.013 Y87.73 E.0916
G1 X69.944 Y84.961 E.0916
G1 X71.011 Y82.242 E.0916
