; generated by PrusaSlicer 2.5.0+linux-x64-GTK3 on 2022-10-21 at 17:48:05 UTC


;
;

;
;
; 

; external perimeters extrusion width = 0.45mm
; perimeters extrusion width = 0.45mm
; infill extrusion width = 0.45mm
; solid infill extrusion width = 0.45mm
; top infill extrusion width = 0.40mm
; support material extrusion width = 0.35mm
; first layer extrusion width = 0.42mm

M73 P0 R51
M73 Q0 S52
M201 X1000 Y1000 Z200 E5000 ; sets maximum accelerations, mm/sec^2
M203 X200 Y200 Z12 E120 ; sets maximum feedrates, mm / sec
M204 P1250 R1250 T1250 ; sets acceleration (P, T) and retract acceleration (R), mm/sec^2
M205 X8.00 Y8.00 Z0.40 E4.50 ; sets the jerk limits, mm/sec
M205 S0 T0 ; sets the minimum extruding and travel feed rate, mm/sec
M107
;TYPE:Custom
M862.3 P "MK3S" ; printer model check
M862.1 P0.4 ; nozzle diameter check
M115 U3.9.2 ; tell printer latest fw version
G90 ; use absolute coordinates
M83 ; extruder relative mode
M104 S275 ; set extruder temp
M140 S110 ; set bed temp
M190 S110 ; wait for bed temp
M109 S275 ; wait for extruder temp
G28 W ; home all without mesh bed level
G80 ; mesh bed leveling
G1 Y-3.0 F1000.0 ; go outside print area
G92 E0.0
G1 X60.0 E9.0 F1000.0 ; intro line
G1 X100.0 E12.5 F1000.0 ; intro line
G92 E0.0
M221 S95

; Don't change E values below. Excessive value can damage the printer.
M907 E430 ; set extruder motor current
G21 ; set units to millimeters
G90 ; use absolute coordinates
M83 ; use relative distances for extrusion
M900 K0.07 ; Filament gcode LA 1.5
M900 K45 ; Filament gcode LA 1.0
M107
;LAYER_CHANGE
;Z:0.2
;HEIGHT:0.2
;BEFORE_LAYER_CHANGE
G92 E0.0
;0.2


G1 E-.8 F2100
G1 Z.2 F720
;AFTER_LAYER_CHANGE
;0.2
; printing object motor_gear.stl id:0 copy 0
G1 Z.4
G1 X132.558 Y89.848 F10800
G1 Z.2 F720
G1 E.8 F2100
M204 S800
;TYPE:Support material
;WIDTH:0.42
G1 F1200
G1 X132.558 Y90.521 E.02109
G1 X135.538 Y90.521 E.09343
G1 X137.172 Y92.155 E.07247
G1 X137.172 Y92.828 E.02109
G1 X137.845 Y92.828 E.02109
G1 X139.479 Y94.463 E.07247
G1 X139.479 Y97.442 E.09343
G1 X140.152 Y97.442 E.02109
G1 X141.786 Y99.077 E.07247
G1 X141.786 Y110.923 E.37145
G1 X140.152 Y112.558 E.07247
G1 X139.479 Y112.558 E.02109
G1 X139.479 Y115.538 E.09343
G1 X137.845 Y117.172 E.07247
G1 X137.172 Y117.172 E.02109
G1 X137.172 Y117.845 E.02109
G1 X135.538 Y119.479 E.07247
G1 X132.558 Y119.479 E.09343
G1 X132.558 Y120.152 E.02109
G1 X130.924 Y121.786 E.07247
G1 X119.077 Y121.786 E.37145
G1 X117.442 Y120.152 E.07247
G1 X117.442 Y119.479 E.02109
G1 X114.463 Y119.479 E.09343
G1 X112.828 Y117.845 E.07247
G1 X112.828 Y117.172 E.02109
G1 X112.156 Y117.172 E.02109
G1 X110.521 Y115.538 E.07247
G1 X110.521 Y112.558 E.09343
G1 X109.849 Y112.558 E.02109
G1 X108.214 Y110.923 E.07247
G1 X108.214 Y99.077 E.37145
G1 X109.849 Y97.442 E.07247
G1 X110.521 Y97.442 E.02109
G1 X110.521 Y94.463 E.09343
G1 X112.156 Y92.828 E.07247
G1 X112.828 Y92.828 E.02109
G1 X112.828 Y92.155 E.02109
G1 X114.463 Y90.521 E.07247
G1 X117.442 Y90.521 E.09343
G1 X117.442 Y89.848 E.02109
G1 X119.077 Y88.214 E.07247
G1 X130.924 Y88.214 E.37145
G1 X132.518 Y89.808 E.0707
M204 S1000
G1 E-.8 F2100
G1 Z.4 F720
G1 X139.434 Y112.218 F10800
G1 Z.2 F720
G1 E.8 F2100
M204 S800
G1 F1200
G1 X139.664 Y112.218 E.00723
G1 X139.664 Y97.782 E.45265
G1 X140.011 Y97.782 E.01088
G1 X140.083 Y97.854 E.0032
G1 X140.083 Y112.146 E.44813
G1 X140.502 Y111.727 E.01858
G1 X140.502 Y98.273 E.42186
G1 X140.921 Y98.692 E.01858
G1 X140.921 Y111.308 E.39559
G1 X141.34 Y110.889 E.01858
G1 X141.34 Y99.111 E.36931
M204 S1000
G1 E-.8 F2100
G1 Z.4 F720
G1 X139.14 Y94.603 F10800
G1 Z.2 F720
G1 E.8 F2100
M204 S800
G1 F1200
G1 X139.14 Y97.782 E.09966
G1 X139.245 Y97.782 E.00331
G1 X139.245 Y112.218 E.45265
G1 X139.14 Y112.218 E.00331
G1 X139.14 Y115.397 E.09966
G1 X138.826 Y115.71 E.01389
G1 X138.826 Y94.29 E.67163
G1 X138.407 Y93.871 E.01858
G1 X138.407 Y116.129 E.6979
G1 X137.988 Y116.548 E.01858
G1 X137.988 Y93.452 E.72417
G1 X137.704 Y93.168 E.0126
G1 X137.569 Y93.168 E.00422
G1 X137.569 Y116.833 E.742
G1 X137.151 Y116.833 E.01314
G1 X137.151 Y93.168 E.742
M204 S1000
G1 E-.8 F2100
G1 Z.4 F720
G1 X132.542 Y119.14 F10800
G1 Z.2 F720
G1 E.8 F2100
M204 S800
G1 F1200
G1 X132.542 Y90.86 E.88667
G1 X132.961 Y90.86 E.01314
G1 X132.961 Y119.14 E.88667
G1 X133.38 Y119.14 E.01314
G1 X133.38 Y90.86 E.88667
M73 Q0 S51
G1 X133.799 Y90.86 E.01314
G1 X133.799 Y119.14 E.88667
G1 X134.218 Y119.14 E.01314
G1 X134.218 Y90.86 E.88667
G1 X134.637 Y90.86 E.01314
M73 P1 R51
M73 Q1 S51
G1 X134.637 Y119.14 E.88667
G1 X135.056 Y119.14 E.01314
G1 X135.056 Y90.86 E.88667
G1 X135.397 Y90.86 E.01071
G1 X135.475 Y90.938 E.00344
G1 X135.475 Y119.062 E.88181
G1 X135.894 Y118.643 E.01858
M73 P1 R50
G1 X135.894 Y91.357 E.85554
G1 X136.313 Y91.776 E.01858
G1 X136.313 Y118.224 E.82927
G1 X136.732 Y117.805 E.01858
G1 X136.732 Y92.195 E.80299
M204 S1000
G1 E-.8 F2100
G1 Z.4 F720
G1 X117.878 Y120.107 F10800
G1 Z.2 F720
G1 E.8 F2100
M204 S800
G1 F1200
G1 X117.878 Y89.893 E.94733
G1 X118.297 Y89.474 E.01858
G1 X118.297 Y120.526 E.9736
G1 X118.716 Y120.945 E.01858
G1 X118.716 Y89.055 E.99987
G1 X119.135 Y88.636 E.01858
G1 X119.135 Y121.364 E1.02615
G1 X119.217 Y121.447 E.00368
G1 X119.553 Y121.447 E.01054
G1 X119.553 Y88.553 E1.03135
G1 X119.972 Y88.553 E.01314
G1 X119.972 Y121.447 E1.03135
G1 X120.391 Y121.447 E.01314
G1 X120.391 Y88.553 E1.03135
G1 X120.81 Y88.553 E.01314
G1 X120.81 Y121.447 E1.03135
G1 X121.229 Y121.447 E.01314
G1 X121.229 Y88.553 E1.03135
G1 X121.648 Y88.553 E.01314
G1 X121.648 Y121.447 E1.03135
G1 X122.067 Y121.447 E.01314
G1 X122.067 Y88.553 E1.03135
G1 X122.486 Y88.553 E.01314
G1 X122.486 Y121.447 E1.03135
G1 X122.905 Y121.447 E.01314
G1 X122.905 Y88.553 E1.03135
G1 X123.324 Y88.553 E.01314
M73 P2 R50
M73 Q2 S51
G1 X123.324 Y121.447 E1.03135
G1 X123.743 Y121.447 E.01314
G1 X123.743 Y88.553 E1.03135
G1 X124.162 Y88.553 E.01314
G1 X124.162 Y121.447 E1.03135
G1 X124.581 Y121.447 E.01314
G1 X124.581 Y88.553 E1.03135
G1 X125 Y88.553 E.01314
G1 X125 Y121.447 E1.03135
G1 X125.419 Y121.447 E.01314
G1 X125.419 Y88.553 E1.03135
G1 X125.838 Y88.553 E.01314
G1 X125.838 Y121.447 E1.03135
G1 X126.257 Y121.447 E.01314
G1 X126.257 Y88.553 E1.03135
G1 X126.676 Y88.553 E.01314
G1 X126.676 Y121.447 E1.03135
G1 X127.095 Y121.447 E.01314
G1 X127.095 Y88.553 E1.03135
G1 X127.514 Y88.553 E.01314
G1 X127.514 Y121.447 E1.03135
G1 X127.933 Y121.447 E.01314
G1 X127.933 Y88.553 E1.03135
G1 X128.352 Y88.553 E.01314
G1 X128.352 Y121.447 E1.03135
G1 X128.771 Y121.447 E.01314
G1 X128.771 Y88.553 E1.03135
G1 X129.19 Y88.553 E.01314
G1 X129.19 Y121.447 E1.03135
G1 X129.609 Y121.447 E.01314
M73 Q2 S50
G1 X129.609 Y88.553 E1.03135
G1 X130.028 Y88.553 E.01314
G1 X130.028 Y121.447 E1.03135
G1 X130.447 Y121.447 E.01314
G1 X130.447 Y88.553 E1.03135
G1 X130.783 Y88.553 E.01054
M73 P3 R50
G1 X130.866 Y88.636 E.00368
G1 X130.866 Y121.364 E1.02615
G1 X131.285 Y120.945 E.01858
M73 Q3 S50
G1 X131.285 Y89.055 E.99988
G1 X131.704 Y89.474 E.01858
M73 P3 R49
G1 X131.704 Y120.526 E.9736
G1 X132.123 Y120.107 E.01858
G1 X132.123 Y89.893 E.94733
M204 S1000
G1 E-.8 F2100
G1 Z.4 F720
G1 X113.269 Y117.805 F10800
G1 Z.2 F720
G1 E.8 F2100
M204 S800
G1 F1200
G1 X113.269 Y92.195 E.80299
G1 X113.688 Y91.776 E.01858
G1 X113.688 Y118.224 E.82927
G1 X114.107 Y118.643 E.01858
G1 X114.107 Y91.357 E.85554
G1 X114.526 Y90.938 E.01858
G1 X114.526 Y119.062 E.88181
G1 X114.603 Y119.14 E.00344
G1 X114.945 Y119.14 E.01071
G1 X114.945 Y90.86 E.88667
G1 X115.364 Y90.86 E.01314
G1 X115.364 Y119.14 E.88667
G1 X115.783 Y119.14 E.01314
G1 X115.783 Y90.86 E.88667
G1 X116.202 Y90.86 E.01314
G1 X116.202 Y119.14 E.88667
G1 X116.621 Y119.14 E.01314
G1 X116.621 Y90.86 E.88667
G1 X117.04 Y90.86 E.01314
G1 X117.04 Y119.14 E.88667
G1 X117.459 Y119.14 E.01314
G1 X117.459 Y90.86 E.88667
M204 S1000
G1 E-.8 F2100
G1 Z.4 F720
G1 X112.85 Y93.168 F10800
G1 Z.2 F720
G1 E.8 F2100
M204 S800
G1 F1200
G1 X112.85 Y116.833 E.742
G1 X112.431 Y116.833 E.01314
G1 X112.431 Y93.168 E.742
G1 X112.296 Y93.168 E.00422
G1 X112.012 Y93.452 E.0126
G1 X112.012 Y116.548 E.72417
G1 X111.593 Y116.129 E.01858
G1 X111.593 Y93.871 E.6979
G1 X111.174 Y94.29 E.01858
G1 X111.174 Y115.71 E.67163
G1 X110.861 Y115.397 E.01389
G1 X110.861 Y112.218 E.09966
G1 X110.755 Y112.218 E.00331
G1 X110.755 Y97.782 E.45265
G1 X110.861 Y97.782 E.00331
G1 X110.861 Y94.603 E.09966
M204 S1000
G1 E-.8 F2100
G1 Z.4 F720
G1 X108.66 Y110.889 F10800
G1 Z.2 F720
G1 E.8 F2100
M204 S800
G1 F1200
G1 X108.66 Y99.111 E.36931
G1 X109.079 Y98.692 E.01858
M73 P4 R49
G1 X109.079 Y111.308 E.39559
G1 X109.498 Y111.727 E.01858
G1 X109.498 Y98.273 E.42186
G1 X109.917 Y97.854 E.01858
M73 Q4 S50
G1 X109.917 Y112.146 E.44813
G1 X109.989 Y112.218 E.0032
G1 X110.336 Y112.218 E.01088
G1 X110.336 Y97.782 E.45265
G1 X110.566 Y97.782 E.00723
M204 S1000
; stop printing object motor_gear.stl id:0 copy 0
;LAYER_CHANGE
;Z:0.5
;HEIGHT:0.3
;BEFORE_LAYER_CHANGE
G92 E0.0
;0.5


;WIPE_START
G1 F8640
G1 X110.336 Y97.782 E-.05321
G1 X110.336 Y100.843 E-.70679
;WIPE_END
G1 E-.04 F2100
G1 Z.4 F720
G1 Z.5
;AFTER_LAYER_CHANGE
;0.5
M140 S115 ; set bed temperature
; printing object motor_gear.stl id:0 copy 0
G1 Z.7
G1 X119.886 Y118.996 F10800
G1 Z.5 F720
G1 E.8 F2100
;WIDTH:0.35
G1 F1112
G1 X119.886 Y119.14 E.00511
G1 X120.089 Y119.343 E.01022
G1 X129.911 Y119.343 E.34991
G1 X130.114 Y119.14 E.01022
G1 X130.114 Y118.842 E.01058
G1 X119.886 Y118.842 E.36437
G1 X119.886 Y117.035 E.06438
G1 X115.475 Y117.035 E.15714
G1 X115.272 Y116.832 E.01022
G1 X115.272 Y116.535 E.01058
G1 X134.729 Y116.535 E.69312
G1 X134.729 Y114.728 E.06438
G1 X136.833 Y114.728 E.07496
G1 X137.036 Y114.525 E.01022
G1 X137.036 Y114.228 E.01058
G1 X112.965 Y114.228 E.8575
G1 X112.965 Y111.921 E.08219
G1 X137.036 Y111.921 E.8575
G1 X137.036 Y110.114 E.06438
G1 X139.14 Y110.114 E.07496
G1 X139.343 Y109.911 E.01022
G1 X139.343 Y109.614 E.01058
G1 X110.658 Y109.614 E1.02187
G1 X110.658 Y107.307 E.08219
G1 X139.343 Y107.307 E1.02187
G1 X139.343 Y105 E.08219
G1 X110.658 Y105 E1.02187
G1 X110.658 Y102.693 E.08219
G1 X139.343 Y102.693 E1.02187
G1 X139.343 Y100.386 E.08219
G1 X110.658 Y100.386 E1.02187
G1 X110.658 Y100.089 E.01058
G1 X110.861 Y99.886 E.01022
G1 X112.965 Y99.886 E.07496
G1 X112.965 Y98.079 E.06438
G1 X137.036 Y98.079 E.8575
G1 X137.036 Y95.772 E.08219
G1 X112.965 Y95.772 E.8575
G1 X112.965 Y95.475 E.01058
G1 X113.168 Y95.272 E.01022
G1 X115.272 Y95.272 E.07496
G1 X115.272 Y93.465 E.06438
G1 X134.729 Y93.465 E.69312
G1 X134.729 Y93.168 E.01058
G1 X134.526 Y92.965 E.01022
G1 X130.114 Y92.965 E.15714
G1 X130.114 Y91.158 E.06438
G1 X119.886 Y91.158 E.36437
G1 X119.886 Y90.86 E.01058
G1 X120.089 Y90.658 E.01022
G1 X129.911 Y90.658 E.34991
G1 X130.114 Y90.86 E.01022
G1 X130.114 Y91.004 E.00511
; stop printing object motor_gear.stl id:0 copy 0
;LAYER_CHANGE
;Z:0.8
;HEIGHT:0.3
;BEFORE_LAYER_CHANGE
G92 E0.0
;0.8


;WIPE_START
G1 F8640
G1 X130.114 Y90.86 E-.03314
G1 X129.911 Y90.658 E-.06627
G1 X127.051 Y90.658 E-.66059
;WIPE_END
G1 E-.04 F2100
G1 Z.7 F720
M73 Q4 S49
G1 Z.8
;AFTER_LAYER_CHANGE
;0.8
; printing object motor_gear.stl id:0 copy 0
G1 Z1
G1 X130.071 Y90.817 F10800
G1 Z.8 F720
G1 E.8 F2100
;TYPE:Support material interface
G1 F2400
G1 X130.071 Y119.183 E1.0105
G1 X129.911 Y119.343 E.00804
G1 X129.564 Y119.343 E.01238
G1 X129.564 Y90.658 E1.02187
G1 X129.057 Y90.658 E.01806
G1 X129.057 Y119.343 E1.02187
G1 X128.55 Y119.343 E.01806
G1 X128.55 Y90.658 E1.02187
G1 X128.043 Y90.658 E.01806
G1 X128.043 Y119.343 E1.02187
G1 X127.536 Y119.343 E.01806
G1 X127.536 Y90.658 E1.02187
G1 X127.029 Y90.658 E.01806
G1 X127.029 Y119.343 E1.02187
G1 X126.521 Y119.343 E.01806
G1 X126.521 Y90.658 E1.02187
G1 X126.014 Y90.658 E.01806
G1 X126.014 Y119.343 E1.02187
G1 X125.507 Y119.343 E.01806
M73 P5 R49
G1 X125.507 Y90.658 E1.02187
G1 X125 Y90.658 E.01806
M73 P5 R48
G1 X125 Y119.343 E1.02187
G1 X124.493 Y119.343 E.01806
G1 X124.493 Y90.658 E1.02187
G1 X123.986 Y90.658 E.01806
M73 Q5 S49
G1 X123.986 Y119.343 E1.02187
G1 X123.479 Y119.343 E.01806
G1 X123.479 Y90.658 E1.02187
G1 X122.972 Y90.658 E.01806
G1 X122.972 Y119.343 E1.02187
G1 X122.465 Y119.343 E.01806
G1 X122.465 Y90.658 E1.02187
G1 X121.958 Y90.658 E.01806
G1 X121.958 Y119.343 E1.02187
G1 X121.451 Y119.343 E.01806
G1 X121.451 Y90.658 E1.02187
G1 X120.944 Y90.658 E.01806
G1 X120.944 Y119.343 E1.02187
G1 X120.436 Y119.343 E.01806
G1 X120.436 Y90.658 E1.02187
G1 X120.089 Y90.658 E.01238
G1 X119.929 Y90.817 E.00804
G1 X119.929 Y119.183 E1.0105
G1 E-.8 F2100
G1 Z1 F720
G1 X130.317 Y117.035 F10800
G1 Z.8 F720
G1 E.8 F2100
G1 F2400
G1 X130.578 Y117.035 E.00931
G1 X130.578 Y92.965 E.8575
G1 X131.085 Y92.965 E.01806
G1 X131.085 Y117.035 E.8575
G1 X131.592 Y117.035 E.01806
G1 X131.592 Y92.965 E.8575
G1 X132.099 Y92.965 E.01806
G1 X132.099 Y117.035 E.8575
G1 X132.606 Y117.035 E.01806
G1 X132.606 Y92.965 E.8575
G1 X133.113 Y92.965 E.01806
G1 X133.113 Y117.035 E.8575
G1 X133.621 Y117.035 E.01806
G1 X133.621 Y92.965 E.8575
G1 X134.128 Y92.965 E.01806
G1 X134.128 Y117.035 E.8575
G1 X134.526 Y117.035 E.01418
G1 X134.635 Y116.926 E.0055
G1 X134.635 Y93.074 E.84972
G1 E-.8 F2100
G1 Z1 F720
G1 X137.036 Y95.475 F10800
G1 Z.8 F720
G1 E.8 F2100
G1 F2400
G1 X137.036 Y99.886 E.15714
G1 X137.17 Y99.886 E.00479
G1 X137.17 Y110.114 E.36437
G1 X137.036 Y110.114 E.00479
G1 X137.036 Y114.525 E.15714
G1 X136.833 Y114.728 E.01022
G1 X136.663 Y114.728 E.00604
G1 X136.663 Y95.272 E.69312
G1 X136.156 Y95.272 E.01806
G1 X136.156 Y114.728 E.69312
G1 X135.649 Y114.728 E.01806
G1 X135.649 Y95.272 E.69312
G1 X135.142 Y95.272 E.01806
G1 X135.142 Y114.728 E.69312
G1 X134.88 Y114.728 E.00931
G1 E-.8 F2100
G1 Z1 F720
G1 X137.324 Y99.886 F10800
G1 Z.8 F720
G1 E.8 F2100
G1 F2400
G1 X137.677 Y99.886 E.01259
G1 X137.677 Y110.114 E.36437
G1 X138.184 Y110.114 E.01806
G1 X138.184 Y99.886 E.36437
G1 X138.691 Y99.886 E.01806
G1 X138.691 Y110.114 E.36437
G1 X139.14 Y110.114 E.01597
G1 X139.198 Y110.056 E.00296
G1 X139.198 Y99.945 E.36019
G1 E-.8 F2100
G1 Z1 F720
G1 X119.684 Y92.965 F10800
G1 Z.8 F720
G1 E.8 F2100
G1 F2400
G1 X119.422 Y92.965 E.00931
G1 X119.422 Y117.035 E.8575
G1 X118.915 Y117.035 E.01806
G1 X118.915 Y92.965 E.8575
G1 X118.408 Y92.965 E.01806
G1 X118.408 Y117.035 E.8575
G1 X117.901 Y117.035 E.01806
G1 X117.901 Y92.965 E.8575
G1 X117.394 Y92.965 E.01806
G1 X117.394 Y117.035 E.8575
G1 X116.887 Y117.035 E.01806
G1 X116.887 Y92.965 E.8575
G1 X116.38 Y92.965 E.01806
G1 X116.38 Y117.035 E.8575
G1 X115.873 Y117.035 E.01806
G1 X115.873 Y92.965 E.8575
G1 X115.475 Y92.965 E.01418
G1 X115.366 Y93.074 E.0055
G1 X115.366 Y116.926 E.84972
G1 E-.8 F2100
G1 Z1 F720
G1 X112.965 Y114.525 F10800
G1 Z.8 F720
G1 E.8 F2100
G1 F2400
G1 X112.965 Y110.114 E.15714
G1 X112.83 Y110.114 E.00479
G1 X112.83 Y99.886 E.36437
G1 X112.965 Y99.886 E.00479
G1 X112.965 Y95.475 E.15714
G1 X113.168 Y95.272 E.01022
G1 X113.337 Y95.272 E.00604
G1 X113.337 Y114.728 E.69312
G1 X113.844 Y114.728 E.01806
G1 X113.844 Y95.272 E.69312
G1 X114.352 Y95.272 E.01806
G1 X114.352 Y114.728 E.69312
G1 X114.859 Y114.728 E.01806
G1 X114.859 Y95.272 E.69312
G1 X115.12 Y95.272 E.00931
G1 E-.8 F2100
G1 Z1 F720
G1 X112.677 Y99.886 F10800
G1 Z.8 F720
G1 E.8 F2100
G1 F2400
G1 X112.323 Y99.886 E.01259
G1 X112.323 Y110.114 E.36437
G1 X111.816 Y110.114 E.01806
G1 X111.816 Y99.886 E.36437
G1 X111.309 Y99.886 E.01806
M73 P6 R48
G1 X111.309 Y110.114 E.36437
G1 X110.861 Y110.114 E.01597
G1 X110.802 Y110.056 E.00296
G1 X110.802 Y99.945 E.36019
; stop printing object motor_gear.stl id:0 copy 0
;LAYER_CHANGE
;Z:1.1
;HEIGHT:0.3
;BEFORE_LAYER_CHANGE
G92 E0.0
;1.1


;WIPE_START
G1 F8640
G1 X110.802 Y103.236 E-.76
;WIPE_END
G1 E-.04 F2100
G1 Z1 F720
G1 Z1.1
;AFTER_LAYER_CHANGE
;1.1
; printing object motor_gear.stl id:0 copy 0
G1 Z1.3
G1 X111.309 Y100.386 F10800
G1 Z1.1 F720
G1 E.8 F2100
G1 F2400
G1 X111.309 Y109.614 E.32875
G1 X111.816 Y109.614 E.01806
G1 X111.816 Y100.386 E.32875
G1 X112.323 Y100.386 E.01806
G1 X112.323 Y109.614 E.32875
G1 X112.83 Y109.614 E.01806
G1 X112.83 Y100.386 E.32875
G1 X113.184 Y100.386 E.01259
G1 E-.8 F2100
G1 Z1.3 F720
G1 X115.627 Y95.772 F10800
