; generated by PrusaSlicer 2.5.0+linux-x64-GTK3 on 2022-10-21 at 20:06:55 UTC


;
;

;
;
; 

; external perimeters extrusion width = 0.45mm
; perimeters extrusion width = 0.45mm
; infill extrusion width = 0.45mm
; solid infill extrusion width = 0.45mm
; top infill extrusion width = 0.40mm
; support material extrusion width = 0.35mm
; first layer extrusion width = 0.42mm

M73 P0 R127
M73 Q0 S132
M201 X1000 Y1000 Z200 E5000 ; sets maximum accelerations, mm/sec^2
M203 X200 Y200 Z12 E120 ; sets maximum feedrates, mm / sec
M204 P1250 R1250 T1250 ; sets acceleration (P, T) and retract acceleration (R), mm/sec^2
M205 X8.00 Y8.00 Z0.40 E4.50 ; sets the jerk limits, mm/sec
M205 S0 T0 ; sets the minimum extruding and travel feed rate, mm/sec
M107
;TYPE:Custom
M862.3 P "MK3S" ; printer model check
M862.1 P0.4 ; nozzle diameter check
M115 U3.9.2 ; tell printer latest fw version
G90 ; use absolute coordinates
M83 ; extruder relative mode
M104 S240 ; set extruder temp
M140 S85 ; set bed temp
M190 S85 ; wait for bed temp
M109 S240 ; wait for extruder temp
G28 W ; home all without mesh bed level
G80 ; mesh bed leveling
G1 Y-3.0 F1000.0 ; go outside print area
G92 E0.0
G1 X60.0 E9.0 F1000.0 ; intro line
G1 X100.0 E12.5 F1000.0 ; intro line
G92 E0.0
M221 S95

; Don't change E values below. Excessive value can damage the printer.
M907 E430 ; set extruder motor current
G21 ; set units to millimeters
G90 ; use absolute coordinates
M83 ; use relative distances for extrusion
M900 K0.08 ; Filament gcode LA 1.5
M900 K45 ; Filament gcode LA 1.0
M107
;LAYER_CHANGE
;Z:0.2
;HEIGHT:0.2
;BEFORE_LAYER_CHANGE
G92 E0.0
;0.2


G1 E-1 F2100
G1 Z.2 F720
;AFTER_LAYER_CHANGE
;0.2
G1 Z.4
G1 X52.819 Y44.51 F10800
G1 Z.2 F720
G1 E1 F2100
M204 S800
;TYPE:Skirt/Brim
;WIDTH:0.42
G1 F1200
G1 X55.924 Y40.987 E.14723
G1 X59.2 Y37.624 E.14723
G1 X62.64 Y34.428 E.14723
G1 X66.511 Y31.195 E.15812
G1 X70.073 Y28.5 E.14006
G1 X73.955 Y25.857 E.14723
G1 X77.963 Y23.411 E.14723
G1 X82.088 Y21.168 E.14723
G1 X86.321 Y19.133 E.14723
G1 X90.649 Y17.312 E.14723
G1 X95.062 Y15.709 E.14723
G1 X99.55 Y14.328 E.14723
G1 X104.102 Y13.172 E.14723
G1 X108.705 Y12.244 E.14723
G1 X113.349 Y11.547 E.14723
G1 X118.021 Y11.083 E.14723
G1 X122.711 Y10.851 E.14723
G1 X127.407 Y10.854 E.14723
G1 X132.097 Y11.091 E.14723
G1 X136.769 Y11.562 E.14723
G1 X141.412 Y12.265 E.14723
G1 X146.014 Y13.198 E.14723
G1 X150.564 Y14.36 E.14723
G1 X155.05 Y15.747 E.14723
G1 X159.462 Y17.355 E.14723
G1 X163.788 Y19.182 E.14723
G1 X168.017 Y21.222 E.14723
G1 X172.139 Y23.471 E.14723
G1 X176.145 Y25.922 E.14723
G1 X180.023 Y28.569 E.14723
G1 X183.764 Y31.407 E.14723
G1 X187.36 Y34.428 E.14723
G1 X190.8 Y37.624 E.14723
G1 X193.996 Y40.9 E.14352
G1 X197.105 Y44.419 E.14723
G1 X200.035 Y48.089 E.14723
G1 X202.779 Y51.9 E.14723
G1 X205.329 Y55.843 E.14723
G1 X207.679 Y59.908 E.14723
G1 X209.824 Y64.085 E.14723
G1 X211.758 Y68.364 E.14723
G1 X213.477 Y72.734 E.14723
G1 X214.975 Y77.184 E.14723
G1 X216.25 Y81.704 E.14723
G1 X217.297 Y86.281 E.14723
G1 X218.116 Y90.905 E.14723
G1 X218.702 Y95.564 E.14723
G1 X219.056 Y100.247 E.14723
G1 X219.176 Y104.941 E.14723
G1 X219.062 Y109.635 E.14723
G1 X218.714 Y114.318 E.14723
G1 X218.133 Y118.978 E.14723
G1 X217.321 Y123.603 E.14723
G1 X216.279 Y128.181 E.14723
G1 X215.01 Y132.702 E.14723
G1 X213.517 Y137.155 E.14723
G1 X211.804 Y141.527 E.14723
G1 X209.876 Y145.808 E.14723
G1 X207.736 Y149.988 E.14723
G1 X205.391 Y154.056 E.14723
G1 X202.846 Y158.002 E.14723
G1 X200.107 Y161.817 E.14723
G1 X197.181 Y165.49 E.14723
G1 X194.076 Y169.013 E.14723
G1 X190.8 Y172.376 E.14723
G1 X187.36 Y175.572 E.14723
G1 X183.672 Y178.667 E.15095
G1 X179.927 Y181.5 E.14723
G1 X176.045 Y184.143 E.14723
G1 X172.037 Y186.589 E.14723
G1 X167.912 Y188.832 E.14723
G1 X163.679 Y190.867 E.14723
M73 Q0 S131
G1 X159.351 Y192.688 E.14723
G1 X154.938 Y194.291 E.14723
G1 X150.45 Y195.672 E.14723
G1 X145.898 Y196.828 E.14723
G1 X141.295 Y197.756 E.14723
G1 X136.651 Y198.453 E.14723
G1 X131.979 Y198.917 E.14723
G1 X127.289 Y199.149 E.14723
G1 X122.593 Y199.146 E.14723
G1 X117.903 Y198.909 E.14723
G1 X113.231 Y198.438 E.14723
G1 X108.588 Y197.735 E.14723
G1 X103.986 Y196.802 E.14723
G1 X99.436 Y195.64 E.14723
G1 X94.95 Y194.253 E.14723
G1 X90.538 Y192.645 E.14723
G1 X86.212 Y190.818 E.14723
G1 X81.983 Y188.778 E.14723
G1 X77.861 Y186.529 E.14723
G1 X73.855 Y184.078 E.14723
G1 X69.977 Y181.431 E.14723
G1 X66.236 Y178.593 E.14723
G1 X62.64 Y175.572 E.14723
G1 X59.2 Y172.376 E.14723
G1 X55.924 Y169.013 E.14723
G1 X52.819 Y165.49 E.14723
G1 X49.965 Y161.911 E.14352
G1 X47.221 Y158.1 E.14723
G1 X44.671 Y154.157 E.14723
G1 X42.321 Y150.092 E.14723
G1 X40.176 Y145.915 E.14723
G1 X38.242 Y141.636 E.14723
G1 X36.523 Y137.266 E.14723
G1 X35.025 Y132.816 E.14723
G1 X33.75 Y128.296 E.14723
G1 X32.703 Y123.719 E.14723
G1 X31.884 Y119.095 E.14723
G1 X31.298 Y114.436 E.14723
G1 X30.944 Y109.753 E.14723
M73 P0 R126
G1 X30.824 Y105.059 E.14723
G1 X30.938 Y100.365 E.14723
G1 X31.286 Y95.682 E.14723
G1 X31.867 Y91.022 E.14723
G1 X32.679 Y86.397 E.14723
G1 X33.721 Y81.819 E.14723
G1 X34.99 Y77.298 E.14723
G1 X36.483 Y72.845 E.14723
G1 X38.196 Y68.473 E.14723
G1 X40.124 Y64.192 E.14723
G1 X42.264 Y60.012 E.14723
G1 X44.609 Y55.944 E.14723
G1 X47.154 Y51.998 E.14723
G1 X49.893 Y48.183 E.14723
G1 X52.781 Y44.557 E.14535
M204 S1000
; printing object wheelRing.stl id:0 copy 0
;WIPE_START
G1 F8640
G1 X55.5 Y41.469 E-.95
;WIPE_END
G1 E-.05 F2100
G1 Z.4 F720
G1 X98.665 Y26.617 F10800
G1 X102.605 Y25.402
G1 X106.6 Y24.384
G1 X110.641 Y23.568
G1 X114.718 Y22.953
G1 X118.821 Y22.543
G1 X122.939 Y22.337
G1 X127.061 Y22.337
G1 X131.179 Y22.543
G1 X135.282 Y22.953
G1 X139.359 Y23.568
G1 X143.4 Y24.384
G1 X147.395 Y25.402
G1 X151.335 Y26.617
G1 X155.21 Y28.027
G1 X159.009 Y29.629
G1 X162.723 Y31.418
G1 X166.344 Y33.389
G1 X169.862 Y35.539
G1 X173.269 Y37.862
G1 X176.556 Y40.351
G1 X179.714 Y43.002
G1 X182.736 Y45.806
G1 X185.615 Y48.757
G1 X188.343 Y51.849
G1 X190.914 Y55.072
G1 X193.321 Y58.42
G1 X195.558 Y61.883
G1 X197.619 Y65.454
G1 X199.5 Y69.123
G1 X201.196 Y72.881
G1 X202.702 Y76.719
G1 X204.015 Y80.627
G1 X205.132 Y84.596
G1 X206.049 Y88.616
G1 X206.765 Y92.676
G1 X207.278 Y96.767
G1 X207.586 Y100.878
G1 X210.397 Y107.616
G1 Z.2 F720
G1 E1 F2100
M204 S800
;TYPE:Perimeter
;WIDTH:0.419999
G1 F1200
G1 X210.286 Y107.581 E.00366
G1 X209.797 Y107.309 E.01755
G1 X209.371 Y106.946 E.01755
G1 X209.026 Y106.505 E.01755
G1 X208.775 Y106.005 E.01755
G1 X208.642 Y105.509 E.01608
G1 X208.561 Y109.147 E.11408
G1 X208.251 Y113.307 E.1308
G1 X207.733 Y117.446 E.1308
G1 X207.01 Y121.555 E.1308
G1 X206.083 Y125.622 E.1308
G1 X204.954 Y129.638 E.1308
G1 X203.626 Y133.593 E.1308
G1 X202.103 Y137.476 E.1308
G1 X200.389 Y141.279 E.1308
G1 X198.487 Y144.992 E.1308
G1 X196.402 Y148.605 E.1308
G1 X194.113 Y152.149 E.13227
G1 X191.705 Y155.498 E.12932
G1 X189.105 Y158.76 E.1308
G1 X186.346 Y161.889 E.1308
G1 X184.387 Y163.878 E.08754
G1 X184.853 Y163.572 E.01748
G1 X185.377 Y163.376 E.01755
G1 X185.93 Y163.288 E.01755
G1 X186.489 Y163.311 E.01755
G1 X187.033 Y163.444 E.01755
G1 X187.54 Y163.683 E.01755
G1 X187.989 Y164.017 E.01755
G1 X188.363 Y164.434 E.01755
G1 X188.647 Y164.916 E.01755
G1 X188.829 Y165.445 E.01755
G1 X188.904 Y166 E.01755
G1 X188.867 Y166.558 E.01754
G1 X188.699 Y167.152 E.01934
G1 X188.443 Y167.639 E.01726
G1 X188.09 Y168.074 E.01755
G1 X187.658 Y168.43 E.01755
G1 X187.164 Y168.694 E.01755
G1 X186.628 Y168.854 E.01755
G1 X186.07 Y168.905 E.01755
G1 X185.514 Y168.845 E.01755
G1 X184.98 Y168.675 E.01755
G1 X184.491 Y168.403 E.01755
G1 X184.073 Y168.049 E.0172
G1 X183.73 Y167.618 E.01726
G1 X183.518 Y167.22 E.01414
G1 X183.348 Y166.696 E.01726
G1 X183.283 Y166.14 E.01755
G1 X183.33 Y165.582 E.01755
G1 X183.486 Y165.045 E.01755
;WIDTH:0.421566
G1 X183.718 Y164.586 E.01619
G1 X183.357 Y164.949 E.01614
;WIDTH:0.419999
G1 X180.377 Y167.714 E.12745
G1 X177.145 Y170.426 E.13227
G1 X173.819 Y172.944 E.1308
G1 X170.372 Y175.293 E.1308
G1 X166.852 Y177.443 E.12932
G1 X163.189 Y179.439 E.1308
G1 X159.431 Y181.25 E.1308
G1 X155.588 Y182.872 E.1308
G1 X151.668 Y184.3 E.1308
G1 X147.682 Y185.531 E.1308
G1 X143.64 Y186.561 E.1308
G1 X139.551 Y187.389 E.1308
G1 X135.426 Y188.012 E.1308
G1 X131.276 Y188.428 E.1308
G1 X127.109 Y188.637 E.1308
G1 X125.395 Y188.628 E.05376
G1 X125.939 Y188.75 E.0175
G1 X126.446 Y188.989 E.01755
G1 X126.89 Y189.319 E.01735
G1 X127.269 Y189.74 E.01775
G1 X127.553 Y190.222 E.01755
G1 X127.735 Y190.751 E.01755
G1 X127.809 Y191.297 E.01726
G1 X127.764 Y191.912 E.01934
G1 X127.608 Y192.449 E.01754
G1 X127.349 Y192.945 E.01755
G1 X126.996 Y193.38 E.01755
G1 X126.564 Y193.736 E.01755
G1 X126.07 Y194 E.01755
G1 X125.579 Y194.153 E.01612
G1 X125.047 Y194.214 E.01681
G1 X124.42 Y194.151 E.01976
G1 X123.886 Y193.981 E.01755
G1 X123.409 Y193.719 E.01706
G1 X122.971 Y193.346 E.01805
G1 X122.626 Y192.905 E.01755
G1 X122.375 Y192.405 E.01755
G1 X122.228 Y191.866 E.0175
G1 X122.188 Y191.34 E.01654
G1 X122.236 Y190.888 E.01425
G1 X122.392 Y190.351 E.01754
G1 X122.652 Y189.855 E.01755
G1 X123.004 Y189.42 E.01755
G1 X123.436 Y189.064 E.01755
G1 X123.93 Y188.8 E.01755
;WIDTH:0.42832
G1 X124.42 Y188.643 E.01649
G1 X123.904 Y188.639 E.01655
;WIDTH:0.419999
G1 X122.938 Y188.639 E.03028
G1 X118.771 Y188.432 E.1308
G1 X114.62 Y188.018 E.1308
G1 X110.495 Y187.397 E.1308
G1 X106.406 Y186.572 E.1308
G1 X102.363 Y185.543 E.1308
G1 X98.376 Y184.315 E.1308
G1 X94.456 Y182.889 E.1308
G1 X90.612 Y181.27 E.1308
G1 X86.853 Y179.461 E.1308
G1 X83.188 Y177.467 E.1308
G1 X79.628 Y175.293 E.1308
G1 X76.181 Y172.944 E.1308
G1 X72.855 Y170.426 E.1308
G1 X69.604 Y167.695 E.13313
G1 X66.6 Y164.909 E.12847
G1 X66.193 Y164.478 E.01856
G1 X66.47 Y164.938 E.01682
G1 X66.652 Y165.492 E.01828
G1 X66.717 Y166.048 E.01755
G1 X66.67 Y166.606 E.01755
G1 X66.514 Y167.143 E.01755
G1 X66.254 Y167.639 E.01755
G1 X65.902 Y168.074 E.01755
G1 X65.473 Y168.428 E.01744
G1 X64.976 Y168.694 E.01766
G1 X64.44 Y168.854 E.01755
G1 X63.882 Y168.905 E.01755
G1 X63.326 Y168.845 E.01755
G1 X62.792 Y168.675 E.01755
G1 X62.34 Y168.431 E.01612
G1 X61.924 Y168.092 E.01681
G1 X61.532 Y167.599 E.01976
G1 X61.28 Y167.099 E.01755
G1 X61.134 Y166.56 E.0175
G1 X61.094 Y166.034 E.01654
G1 X61.142 Y165.582 E.01425
G1 X61.298 Y165.045 E.01754
G1 X61.557 Y164.549 E.01755
G1 X61.91 Y164.114 E.01755
G1 X62.342 Y163.758 E.01755
G1 X62.836 Y163.494 E.01755
G1 X63.372 Y163.334 E.01755
G1 X63.93 Y163.283 E.01755
G1 X64.486 Y163.343 E.01755
G1 X65.02 Y163.513 E.01755
;WIDTH:0.42157
G1 X65.473 Y163.756 E.01619
G1 X65.113 Y163.386 E.01624
;WIDTH:0.419999
G1 X63.686 Y161.923 E.06409
G1 X60.895 Y158.76 E.13227
G1 X58.295 Y155.498 E.1308
G1 X55.86 Y152.11 E.1308
G1 X53.598 Y148.605 E.1308
G1 X51.513 Y144.992 E.1308
G1 X49.611 Y141.279 E.1308
G1 X47.897 Y137.476 E.1308
G1 X46.39 Y133.637 E.12932
G1 X45.06 Y129.683 E.1308
G1 X43.929 Y125.667 E.1308
G1 X43 Y121.601 E.1308
G1 X42.274 Y117.493 E.1308
G1 X41.754 Y113.354 E.1308
G1 X41.441 Y109.194 E.1308
G1 X41.358 Y105.509 E.11556
G1 X41.225 Y106.005 E.01609
G1 X40.974 Y106.505 E.01754
G1 X40.589 Y106.987 E.01934
G1 X40.164 Y107.336 E.01726
G1 X39.67 Y107.6 E.01755
G1 X39.134 Y107.76 E.01755
G1 X38.576 Y107.811 E.01755
G1 X38.02 Y107.751 E.01755
G1 X37.486 Y107.581 E.01755
G1 X36.997 Y107.309 E.01755
G1 X36.571 Y106.946 E.01755
G1 X36.236 Y106.524 E.01689
G1 X36.024 Y106.126 E.01414
G1 X35.862 Y105.648 E.01582
G1 X35.788 Y105.117 E.01681
G1 X35.836 Y104.488 E.01976
G1 X35.992 Y103.951 E.01755
G1 X36.252 Y103.455 E.01755
G1 X36.604 Y103.02 E.01755
G1 X37.036 Y102.664 E.01755
G1 X37.53 Y102.4 E.01755
G1 X38.066 Y102.24 E.01755
G1 X38.624 Y102.189 E.01755
G1 X39.18 Y102.249 E.01755
G1 X39.714 Y102.419 E.01755
G1 X40.203 Y102.691 E.01755
G1 X40.629 Y103.054 E.01755
G1 X40.974 Y103.495 E.01755
G1 X41.225 Y103.995 E.01755
G1 X41.36 Y104.537 E.01749
G1 X41.439 Y100.853 E.11552
G1 X41.754 Y96.646 E.13227
G1 X42.274 Y92.507 E.1308
G1 X43 Y88.399 E.1308
G1 X43.917 Y84.378 E.12932
G1 X45.046 Y80.362 E.1308
G1 X46.374 Y76.407 E.1308
G1 X47.897 Y72.524 E.1308
G1 X49.611 Y68.721 E.1308
G1 X51.513 Y65.008 E.1308
G1 X53.598 Y61.395 E.1308
G1 X55.86 Y57.89 E.1308
G1 X58.295 Y54.502 E.1308
G1 X60.895 Y51.24 E.1308
G1 X63.654 Y48.111 E.1308
G1 X65.613 Y46.122 E.08754
G1 X65.147 Y46.428 E.01748
G1 X64.623 Y46.624 E.01755
G1 X64.07 Y46.712 E.01755
G1 X63.511 Y46.689 E.01755
G1 X62.967 Y46.556 E.01755
G1 X62.46 Y46.317 E.01755
G1 X62.011 Y45.983 E.01755
G1 X61.637 Y45.566 E.01755
G1 X61.353 Y45.084 E.01755
G1 X61.171 Y44.555 E.01755
G1 X61.097 Y44.009 E.01726
G1 X61.142 Y43.394 E.01934
G1 X61.298 Y42.857 E.01754
G1 X61.53 Y42.398 E.01612
G1 X61.859 Y41.975 E.01681
G1 X62.342 Y41.57 E.01976
G1 X62.836 Y41.306 E.01755
G1 X63.372 Y41.146 E.01755
G1 X63.93 Y41.095 E.01755
G1 X64.486 Y41.155 E.01755
G1 X65.02 Y41.325 E.01755
G1 X65.508 Y41.596 E.01751
G1 X65.912 Y41.935 E.01654
G1 X66.202 Y42.285 E.01425
G1 X66.478 Y42.771 E.01754
G1 X66.652 Y43.304 E.01755
G1 X66.717 Y43.86 E.01755
G1 X66.67 Y44.418 E.01755
G1 X66.514 Y44.955 E.01755
;WIDTH:0.421568
G1 X66.282 Y45.414 E.01619
G1 X66.643 Y45.051 E.01614
;WIDTH:0.419999
G1 X69.623 Y42.286 E.12745
G1 X72.855 Y39.574 E.13227
G1 X76.181 Y37.056 E.1308
G1 X79.628 Y34.707 E.1308
G1 X83.188 Y32.533 E.1308
G1 X86.853 Y30.539 E.1308
G1 X90.612 Y28.73 E.1308
G1 X94.412 Y27.128 E.12932
G1 X98.332 Y25.7 E.1308
G1 X102.318 Y24.469 E.1308
G1 X106.36 Y23.439 E.1308
G1 X110.449 Y22.611 E.1308
G1 X114.574 Y21.988 E.1308
G1 X118.724 Y21.572 E.1308
G1 X122.891 Y21.363 E.1308
G1 X124.605 Y21.372 E.05376
G1 X124.061 Y21.25 E.0175
G1 X123.555 Y21.011 E.01755
G1 X123.11 Y20.681 E.01735
G1 X122.731 Y20.26 E.01775
G1 X122.447 Y19.778 E.01755
G1 X122.265 Y19.249 E.01755
G1 X122.191 Y18.703 E.01726
G1 X122.236 Y18.088 E.01934
G1 X122.392 Y17.551 E.01755
G1 X122.651 Y17.055 E.01755
G1 X123.004 Y16.62 E.01755
G1 X123.436 Y16.264 E.01755
G1 X123.93 Y16 E.01755
G1 X124.421 Y15.847 E.01614
G1 X124.954 Y15.786 E.01681
G1 X125.58 Y15.849 E.01974
G1 X126.114 Y16.019 E.01755
G1 X126.603 Y16.291 E.01755
G1 X127.029 Y16.654 E.01755
G1 X127.374 Y17.095 E.01755
G1 X127.625 Y17.595 E.01755
G1 X127.772 Y18.134 E.01751
G1 X127.812 Y18.66 E.01654
G1 X127.764 Y19.112 E.01425
G1 X127.608 Y19.649 E.01754
G1 X127.348 Y20.145 E.01755
G1 X126.996 Y20.58 E.01755
G1 X126.564 Y20.936 E.01755
G1 X126.07 Y21.2 E.01755
;WIDTH:0.42832
G1 X125.58 Y21.357 E.01649
G1 X126.096 Y21.361 E.01655
;WIDTH:0.419999
G1 X127.062 Y21.361 E.03028
G1 X131.229 Y21.568 E.1308
G1 X135.38 Y21.982 E.1308
G1 X139.505 Y22.603 E.1308
G1 X143.594 Y23.428 E.1308
G1 X147.637 Y24.457 E.1308
G1 X151.624 Y25.685 E.1308
G1 X155.544 Y27.111 E.1308
G1 X159.388 Y28.73 E.1308
G1 X163.147 Y30.539 E.1308
G1 X166.812 Y32.533 E.1308
G1 X170.372 Y34.707 E.1308
G1 X173.819 Y37.056 E.1308
G1 X177.145 Y39.574 E.1308
G1 X180.342 Y42.255 E.1308
G1 X183.4 Y45.091 E.1308
G1 X183.731 Y45.429 E.01482
G1 X183.513 Y45.017 E.01462
G1 X183.348 Y44.508 E.01676
G1 X183.283 Y43.952 E.01755
G1 X183.33 Y43.394 E.01755
G1 X183.486 Y42.857 E.01755
G1 X183.746 Y42.361 E.01755
G1 X184.098 Y41.926 E.01755
G1 X184.527 Y41.572 E.01744
G1 X185.024 Y41.306 E.01766
G1 X185.56 Y41.146 E.01755
G1 X186.118 Y41.095 E.01755
G1 X186.674 Y41.155 E.01755
G1 X187.208 Y41.325 E.01755
G1 X187.697 Y41.597 E.01755
G1 X188.123 Y41.96 E.01755
G1 X188.468 Y42.401 E.01755
G1 X188.72 Y42.901 E.01755
G1 X188.867 Y43.441 E.01755
G1 X188.904 Y44 E.01755
G1 X188.835 Y44.534 E.01689
G1 X188.699 Y44.964 E.01414
G1 X188.443 Y45.451 E.01726
G1 X188.09 Y45.886 E.01755
G1 X187.658 Y46.242 E.01755
G1 X187.164 Y46.506 E.01755
G1 X186.628 Y46.666 E.01755
G1 X186.07 Y46.717 E.01755
G1 X185.514 Y46.657 E.01755
G1 X184.98 Y46.487 E.01755
;WIDTH:0.421566
G1 X184.527 Y46.244 E.01619
G1 X184.887 Y46.614 E.01624
;WIDTH:0.419999
G1 X186.314 Y48.077 E.06409
G1 X189.105 Y51.24 E.13227
G1 X191.705 Y54.502 E.1308
G1 X194.14 Y57.89 E.1308
G1 X196.402 Y61.395 E.1308
G1 X198.487 Y65.008 E.1308
G1 X200.389 Y68.721 E.1308
G1 X202.103 Y72.524 E.1308
G1 X203.626 Y76.407 E.1308
G1 X204.94 Y80.317 E.12932
