; generated by PrusaSlicer 2.6.0-alpha6+linux-x64-GTK3 on 2023-04-25 at 15:19:35 UTC

; 

; external perimeters extrusion width = 0.65mm
; perimeters extrusion width = 0.65mm
; infill extrusion width = 0.65mm
; solid infill extrusion width = 0.65mm
; top infill extrusion width = 0.60mm
; support material extrusion width = 0.55mm
; first layer extrusion width = 0.65mm

M73 P0 R178
M73 Q0 S180
M201 X1000 Y1000 Z200 E5000 ; sets maximum accelerations, mm/sec^2
M203 X200 Y200 Z12 E120 ; sets maximum feedrates, mm / sec
M204 S1250 T1250 ; sets acceleration (S) and retract acceleration (R), mm/sec^2
M205 X8.00 Y8.00 Z0.40 E4.50 ; sets the jerk limits, mm/sec
M205 S0 T0 ; sets the minimum extruding and travel feed rate, mm/sec
;TYPE:Custom
M862.3 P "MK3S" ; printer model check
M862.1 P0.6 ; nozzle diameter check
M115 U3.10.1 ; tell printer latest fw version
G90 ; use absolute coordinates
M83 ; extruder relative mode
M104 S240 ; set extruder temp
M140 S85 ; set bed temp
M190 S85 ; wait for bed temp
M109 S240 ; wait for extruder temp
G28 W ; home all without mesh bed level
G80 ; mesh bed leveling
G1 Z0.2 F720
G1 Y-3 F1000 ; go outside print area
G92 E0
G1 X60 E9 F1000 ; intro line
G1 X100 E12.5 F1000 ; intro line
G92 E0
M221 S95
G21 ; set units to millimeters
G90 ; use absolute coordinates
M83 ; use relative distances for extrusion
M900 K0.04 ; Filament gcode LA 1.5
M900 K24 ; Filament gcode LA 1.0
M107
;LAYER_CHANGE
;Z:0.2
;HEIGHT:0.2
;BEFORE_LAYER_CHANGE
G92 E0.0
;0.2


G1 E-1 F2100
G1 Z.2 F720
;AFTER_LAYER_CHANGE
;0.2
G1 Z.4
G1 X54.046 Y45.489 F10800
G1 Z.2 F720
G1 E1 F2100
M204 S800
;TYPE:Skirt/Brim
;WIDTH:0.65
G1 F1200
G1 X57.099 Y42.027 E.233
G1 X60.251 Y38.791 E.22803
G1 X63.705 Y35.581 E.23802
G1 X67.24 Y32.613 E.233
G1 X70.919 Y29.825 E.23301
G1 X74.732 Y27.223 E.23302
G1 X78.67 Y24.815 E.233
G1 X82.723 Y22.606 E.23301
G1 X86.872 Y20.606 E.2325
G1 X91.116 Y18.815 E.23253
G1 X95.444 Y17.236 E.23256
G1 X99.844 Y15.875 E.23249
G1 X104.307 Y14.735 E.23252
G1 X108.821 Y13.818 E.23252
G1 X113.412 Y13.122 E.2344
G1 X117.958 Y12.662 E.23065
G1 X122.59 Y12.425 E.23412
G1 X126.547 Y12.412 E.19975
G1 X132.599 Y12.71 E.30587
G1 X136.625 Y13.126 E.20431
G1 X141.639 Y13.903 E.25612
G1 X145.693 Y14.735 E.20891
G1 X150.156 Y15.875 E.23252
G1 X154.556 Y17.236 E.23249
G1 X159.149 Y18.921 E.24696
G1 X163.128 Y20.606 E.21812
G1 X167.277 Y22.606 E.2325
G1 X171.33 Y24.815 E.23301
G1 X175.372 Y27.291 E.23927
G1 X179.081 Y29.825 E.22675
G1 X182.76 Y32.613 E.23301
G1 X186.295 Y35.581 E.233
G1 X189.791 Y38.834 E.24105
G1 X192.901 Y42.027 E.225
G1 X195.954 Y45.489 E.233
G1 X198.832 Y49.099 E.23305
G1 X201.525 Y52.847 E.23297
G1 X204.029 Y56.725 E.23302
G1 X206.336 Y60.723 E.233
G1 X208.442 Y64.831 E.23303
G1 X210.359 Y69.085 E.23553
G1 X212.026 Y73.336 E.2305
G1 X213.495 Y77.712 E.23301
G1 X214.745 Y82.156 E.23303
G1 X215.777 Y86.68 E.23423
G1 X216.576 Y91.22 E.2327
G1 X217.153 Y95.846 E.23532
G1 X217.494 Y100.45 E.23304
G1 X217.606 Y105.065 E.23303
G1 X217.488 Y109.671 E.23258
G1 X217.142 Y114.266 E.23261
G1 X216.573 Y118.798 E.23057
G1 X215.772 Y123.344 E.23301
G1 X214.745 Y127.844 E.233
G1 X213.495 Y132.288 E.23303
G1 X212.026 Y136.664 E.23301
G1 X210.34 Y140.961 E.23301
G1 X208.442 Y145.169 E.23302
G1 X206.336 Y149.277 E.23303
G1 X204.029 Y153.275 E.233
G1 X201.525 Y157.153 E.23302
G1 X198.832 Y160.901 E.23297
G1 X195.954 Y164.511 E.23305
G1 X192.901 Y167.973 E.233
G1 X189.678 Y171.278 E.23303
G1 X186.295 Y174.419 E.23303
G1 X182.76 Y177.387 E.233
G1 X179.081 Y180.175 E.23301
G1 X175.268 Y182.777 E.23302
G1 X171.33 Y185.185 E.233
G1 X167.277 Y187.394 E.23301
G1 X163.128 Y189.394 E.2325
G1 X158.884 Y191.185 E.23253
G1 X154.556 Y192.764 E.23256
G1 X150.156 Y194.125 E.23249
G1 X145.693 Y195.265 E.23252
G1 X141.14 Y196.189 E.23452
M73 Q0 S179
G1 X136.588 Y196.878 E.2324
G1 X132.007 Y197.341 E.23242
G1 X127.41 Y197.575 E.23235
G1 X122.806 Y197.58 E.2324
G1 X117.993 Y197.341 E.24325
G1 X113.412 Y196.878 E.23242
G1 X108.86 Y196.189 E.2324
G1 X104.349 Y195.274 E.23235
G1 X99.844 Y194.125 E.23469
G1 X95.489 Y192.779 E.2301
G1 X91.116 Y191.185 E.23495
G1 X88.06 Y189.903 E.16729
G1 X82.551 Y187.304 E.30748
G1 X78.67 Y185.185 E.22321
G1 X74.579 Y182.677 E.24223
G1 X70.919 Y180.175 E.2238
G1 X67.24 Y177.387 E.23301
G1 X63.705 Y174.419 E.233
G1 X60.209 Y171.166 E.24105
G1 X57.099 Y167.973 E.225
G1 X54.046 Y164.511 E.233
G1 X51.168 Y160.901 E.23305
G1 X48.475 Y157.153 E.23297
G1 X45.971 Y153.275 E.23302
G1 X43.664 Y149.277 E.233
G1 X41.558 Y145.169 E.23303
G1 X39.641 Y140.915 E.23553
G1 X37.974 Y136.664 E.2305
G1 X36.505 Y132.288 E.23301
G1 X35.255 Y127.844 E.23303
G1 X34.223 Y123.32 E.23423
G1 X33.424 Y118.78 E.2327
G1 X32.847 Y114.154 E.23532
G1 X32.506 Y109.55 E.23304
G1 X32.394 Y104.935 E.23303
G1 X32.512 Y100.329 E.23258
G1 X32.858 Y95.734 E.23261
G1 X33.427 Y91.202 E.23057
G1 X34.228 Y86.656 E.23301
M73 P0 R177
G1 X35.255 Y82.156 E.233
G1 X36.505 Y77.712 E.23303
G1 X37.974 Y73.336 E.23301
G1 X39.66 Y69.039 E.23301
G1 X41.558 Y64.831 E.23302
G1 X43.664 Y60.723 E.23303
G1 X45.971 Y56.725 E.233
G1 X48.475 Y52.847 E.23302
G1 X51.168 Y49.099 E.23297
G1 X53.99 Y45.559 E.22853
M204 S1000
; printing object Bottom_plate.stl id:0 copy 0
;WIPE_START
G1 F8640
G1 X56.852 Y42.308 E-1
;WIPE_END
G1 Z.4 F720
G1 X90.251 Y31.476 F10800
G1 Z.2 F720
G1 E1 F2100
M204 S800
;TYPE:Support material
G1 F1200
G1 X90.274 Y31.495 E.00151
G1 X90.263 Y31.521 E.00143
M204 S1000
;WIPE_START
G1 F8640
G1 X90.274 Y31.495 E-.00652
G1 X90.251 Y31.476 E-.00689
;WIPE_END
G1 E-.98659 F2100
G1 Z.4 F720
G1 X90.251 Y77.476 F10800
G1 Z.2 F720
G1 E1 F2100
M204 S800
G1 F1200
G1 X90.274 Y77.495 E.00151
G1 X90.263 Y77.521 E.00143
M204 S1000
;WIPE_START
G1 F8640
G1 X90.274 Y77.495 E-.00652
G1 X90.251 Y77.476 E-.00689
;WIPE_END
G1 E-.98659 F2100
G1 Z.4 F720
G1 X90.251 Y132.476 F10800
G1 Z.2 F720
G1 E1 F2100
M204 S800
G1 F1200
G1 X90.274 Y132.495 E.00151
G1 X90.263 Y132.521 E.00143
M204 S1000
;WIPE_START
G1 F8640
G1 X90.274 Y132.495 E-.00652
G1 X90.251 Y132.476 E-.00689
;WIPE_END
G1 E-.98659 F2100
G1 Z.4 F720
G1 X90.251 Y178.476 F10800
G1 Z.2 F720
G1 E1 F2100
M204 S800
G1 F1200
G1 X90.274 Y178.495 E.00151
G1 X90.263 Y178.521 E.00143
M204 S1000
;WIPE_START
G1 F8640
G1 X90.274 Y178.495 E-.00652
G1 X90.251 Y178.476 E-.00689
;WIPE_END
G1 E-.98659 F2100
G1 Z.4 F720
G1 X159.751 Y178.476 F10800
G1 Z.2 F720
G1 E1 F2100
M204 S800
G1 F1200
G1 X159.774 Y178.495 E.00151
G1 X159.763 Y178.521 E.00143
M204 S1000
;WIPE_START
G1 F8640
G1 X159.774 Y178.495 E-.00652
G1 X159.751 Y178.476 E-.00689
;WIPE_END
G1 E-.98659 F2100
G1 Z.4 F720
G1 X159.751 Y132.476 F10800
G1 Z.2 F720
G1 E1 F2100
M204 S800
G1 F1200
G1 X159.774 Y132.495 E.00151
G1 X159.763 Y132.521 E.00143
M204 S1000
;WIPE_START
G1 F8640
G1 X159.774 Y132.495 E-.00652
G1 X159.751 Y132.476 E-.00689
;WIPE_END
G1 E-.98659 F2100
G1 Z.4 F720
G1 X159.751 Y77.476 F10800
G1 Z.2 F720
G1 E1 F2100
M204 S800
G1 F1200
G1 X159.774 Y77.495 E.00151
G1 X159.763 Y77.521 E.00143
M204 S1000
;WIPE_START
G1 F8640
G1 X159.774 Y77.495 E-.00652
G1 X159.751 Y77.476 E-.00689
;WIPE_END
G1 E-.98659 F2100
G1 Z.4 F720
G1 X159.751 Y31.476 F10800
G1 Z.2 F720
G1 E1 F2100
M204 S800
G1 F1200
G1 X159.774 Y31.495 E.00151
G1 X159.763 Y31.521 E.00143
M204 S1000
;WIPE_START
G1 F8640
G1 X159.774 Y31.495 E-.00652
G1 X159.751 Y31.476 E-.00689
;WIPE_END
G1 E-.98659 F2100
G1 Z.4 F720
G1 X165.635 Y25.969 F10800
G1 Z.2 F720
G1 E1 F2100
M204 S800
;TYPE:Perimeter
;WIDTH:0.649999
G1 F1200
G1 X169.454 Y28.05 E.21954
G1 X173.233 Y30.361 E.2236
G1 X176.893 Y32.857 E.22363
G1 X180.423 Y35.533 E.2236
G1 X183.816 Y38.381 E.22361
G1 X187.063 Y41.395 E.22363
G1 X190.156 Y44.567 E.22364
G1 X193.086 Y47.889 E.2236
G1 X195.848 Y51.353 E.22364
G1 X198.433 Y54.95 E.2236
G1 X200.836 Y58.672 E.22364
G1 X203.051 Y62.508 E.2236
G1 X205.071 Y66.451 E.22364
G1 X206.893 Y70.489 E.22362
G1 X208.511 Y74.613 E.22362
G1 X209.921 Y78.812 E.22359
G1 X211.121 Y83.077 E.22365
G1 X212.106 Y87.396 E.22362
G1 X212.875 Y91.758 E.22358
G1 X213.426 Y96.154 E.22364
G1 X213.757 Y100.571 E.22359
G1 X213.868 Y105 E.22364
G1 X213.757 Y109.429 E.22364
G1 X213.426 Y113.846 E.22359
G1 X212.875 Y118.242 E.22364
G1 X212.106 Y122.604 E.22358
G1 X211.121 Y126.923 E.22362
G1 X209.921 Y131.188 E.22365
G1 X208.511 Y135.387 E.22359
G1 X206.893 Y139.511 E.22362
G1 X205.071 Y143.549 E.22362
G1 X203.051 Y147.492 E.22364
G1 X200.836 Y151.328 E.2236
G1 X198.433 Y155.05 E.22364
G1 X195.848 Y158.647 E.2236
G1 X193.086 Y162.111 E.22364
G1 X190.156 Y165.433 E.2236
G1 X187.063 Y168.605 E.22364
G1 X183.816 Y171.619 E.22363
G1 X180.423 Y174.467 E.22361
G1 X176.893 Y177.143 E.2236
G1 X173.233 Y179.639 E.22363
G1 X169.454 Y181.95 E.2236
G1 X165.564 Y184.07 E.22363
G1 X161.58 Y185.99 E.22324
G1 X157.505 Y187.709 E.22325
G1 X153.35 Y189.224 E.22325
G1 X149.124 Y190.53 E.22328
G1 X144.839 Y191.624 E.22324
G1 X140.505 Y192.504 E.22324
G1 X136.133 Y193.167 E.22322
G1 X131.732 Y193.611 E.22328
G1 X127.316 Y193.836 E.2232
G1 X122.684 Y193.836 E.23382
G1 X118.268 Y193.611 E.2232
G1 X113.867 Y193.167 E.22328
G1 X109.495 Y192.504 E.22322
G1 X105.161 Y191.624 E.22324
G1 X100.876 Y190.53 E.22324
G1 X96.65 Y189.224 E.22328
G1 X92.495 Y187.709 E.22325
G1 X88.42 Y185.99 E.22325
G1 X84.436 Y184.07 E.22324
G1 X80.546 Y181.95 E.22363
G1 X76.767 Y179.639 E.2236
G1 X73.107 Y177.143 E.22363
G1 X69.577 Y174.467 E.2236
G1 X66.184 Y171.619 E.22361
G1 X62.937 Y168.605 E.22363
G1 X59.844 Y165.433 E.22364
G1 X56.914 Y162.111 E.2236
G1 X54.152 Y158.647 E.22364
G1 X51.567 Y155.05 E.2236
G1 X49.164 Y151.328 E.22364
G1 X46.949 Y147.492 E.2236
G1 X44.929 Y143.549 E.22364
G1 X43.107 Y139.511 E.22362
G1 X41.489 Y135.387 E.22362
G1 X40.079 Y131.188 E.22359
G1 X38.879 Y126.923 E.22365
G1 X37.894 Y122.604 E.22362
G1 X37.125 Y118.242 E.22358
G1 X36.574 Y113.846 E.22364
G1 X36.243 Y109.429 E.22359
G1 X36.132 Y105 E.22364
G1 X36.243 Y100.571 E.22364
G1 X36.574 Y96.154 E.22359
G1 X37.125 Y91.758 E.22364
G1 X37.894 Y87.396 E.22358
G1 X38.879 Y83.077 E.22362
G1 X40.079 Y78.812 E.22365
G1 X41.489 Y74.613 E.22359
G1 X43.107 Y70.489 E.22362
G1 X44.929 Y66.451 E.22362
G1 X46.949 Y62.508 E.22364
G1 X49.164 Y58.672 E.2236
G1 X51.567 Y54.95 E.22364
G1 X54.152 Y51.353 E.2236
G1 X56.914 Y47.889 E.22364
G1 X59.844 Y44.567 E.2236
G1 X62.937 Y41.395 E.22364
G1 X66.184 Y38.381 E.22363
G1 X69.577 Y35.533 E.22361
G1 X73.107 Y32.857 E.2236
G1 X76.767 Y30.361 E.22363
G1 X80.546 Y28.05 E.2236
G1 X84.436 Y25.93 E.22363
G1 X88.42 Y24.01 E.22324
G1 X92.495 Y22.291 E.22325
G1 X96.65 Y20.776 E.22325
G1 X100.876 Y19.47 E.22328
G1 X105.161 Y18.376 E.22324
G1 X109.495 Y17.496 E.22324
G1 X113.867 Y16.833 E.22322
G1 X118.268 Y16.389 E.22328
G1 X122.684 Y16.164 E.2232
G1 X127.316 Y16.164 E.23382
G1 X131.732 Y16.389 E.2232
G1 X136.133 Y16.833 E.22328
G1 X140.505 Y17.496 E.22322
G1 X144.839 Y18.376 E.22324
G1 X149.124 Y19.47 E.22324
G1 X153.35 Y20.776 E.22328
G1 X157.505 Y22.291 E.22325
G1 X161.58 Y24.01 E.22325
G1 X165.556 Y25.927 E.22281
M204 S1000
G1 X165.926 Y25.436 F10800
M204 S800
;TYPE:External perimeter
G1 F1200
G1 X169.757 Y27.524 E.22024
G1 X173.563 Y29.851 E.22519
G1 X177.247 Y32.364 E.22511
G1 X180.802 Y35.058 E.22516
G1 X184.218 Y37.926 E.22515
G1 X187.487 Y40.96 E.22514
G1 X190.601 Y44.154 E.22518
G1 X193.552 Y47.499 E.22517
G1 X196.332 Y50.986 E.22511
G1 X198.935 Y54.608 E.22515
G1 X201.354 Y58.355 E.22514
G1 X203.584 Y62.218 E.22516
G1 X205.618 Y66.187 E.22513
G1 X207.452 Y70.253 E.22516
G1 X209.081 Y74.405 E.22514
G1 X210.502 Y78.633 E.22516
G1 X211.709 Y82.927 E.22516
G1 X212.702 Y87.275 E.22513
G1 X213.476 Y91.668 E.22517
G1 X214.03 Y96.093 E.22511
G1 X214.364 Y100.541 E.22516
G1 X214.475 Y105 E.22515
G1 X214.364 Y109.459 E.22515
G1 X214.03 Y113.907 E.22516
G1 X213.476 Y118.332 E.22511
G1 X212.702 Y122.725 E.22517
G1 X211.709 Y127.073 E.22513
G1 X210.502 Y131.367 E.22516
G1 X209.081 Y135.595 E.22516
G1 X207.452 Y139.747 E.22514
G1 X205.618 Y143.813 E.22516
G1 X203.584 Y147.782 E.22513
G1 X201.354 Y151.645 E.22516
G1 X198.935 Y155.392 E.22514
G1 X196.332 Y159.014 E.22515
G1 X193.552 Y162.502 E.22515
G1 X190.601 Y165.846 E.22513
G1 X187.487 Y169.04 E.22518
G1 X184.218 Y172.074 E.22514
G1 X180.802 Y174.942 E.22515
G1 X177.247 Y177.636 E.22516
G1 X173.563 Y180.149 E.22511
G1 X169.757 Y182.476 E.22519
G1 X165.841 Y184.61 E.22512
G1 X161.83 Y186.543 E.22476
G1 X157.727 Y188.275 E.22481
G1 X153.544 Y189.8 E.22475
G1 X149.289 Y191.115 E.22481
G1 X144.975 Y192.216 E.22475
G1 X140.611 Y193.102 E.22478
G1 X136.209 Y193.769 E.22474
G1 X131.778 Y194.217 E.22481
G1 X127.332 Y194.443 E.22472
G1 X122.668 Y194.443 E.23543
G1 X118.222 Y194.217 E.22472
G1 X113.791 Y193.769 E.22481
G1 X109.389 Y193.102 E.22474
G1 X105.025 Y192.216 E.22478
G1 X100.711 Y191.115 E.22475
G1 X96.456 Y189.8 E.22481
G1 X92.273 Y188.275 E.22475
G1 X88.17 Y186.543 E.22481
M73 Q0 S178
G1 X84.159 Y184.61 E.22476
G1 X80.243 Y182.476 E.22512
G1 X76.437 Y180.149 E.22519
G1 X72.753 Y177.636 E.22511
G1 X69.198 Y174.942 E.22516
G1 X65.782 Y172.074 E.22515
G1 X62.513 Y169.04 E.22514
G1 X59.399 Y165.846 E.22518
G1 X56.448 Y162.502 E.22513
G1 X53.668 Y159.014 E.22515
G1 X51.065 Y155.392 E.22515
G1 X48.646 Y151.645 E.22514
G1 X46.416 Y147.782 E.22516
G1 X44.382 Y143.813 E.22513
G1 X42.548 Y139.747 E.22516
G1 X40.919 Y135.595 E.22514
G1 X39.498 Y131.367 E.22516
G1 X38.291 Y127.073 E.22516
G1 X37.298 Y122.725 E.22513
G1 X36.524 Y118.332 E.22517
G1 X35.97 Y113.907 E.22511
G1 X35.636 Y109.459 E.22516
G1 X35.525 Y105 E.22515
G1 X35.636 Y100.541 E.22515
G1 X35.97 Y96.093 E.22516
G1 X36.524 Y91.668 E.22511
G1 X37.298 Y87.275 E.22517
G1 X38.291 Y82.927 E.22513
G1 X39.498 Y78.633 E.22516
G1 X40.919 Y74.405 E.22516
G1 X42.548 Y70.253 E.22514
G1 X44.382 Y66.187 E.22516
G1 X46.416 Y62.218 E.22513
G1 X48.646 Y58.355 E.22516
G1 X51.065 Y54.608 E.22514
G1 X53.668 Y50.986 E.22515
G1 X56.448 Y47.499 E.22511
G1 X59.399 Y44.154 E.22517
G1 X62.513 Y40.96 E.22518
G1 X65.782 Y37.926 E.22514
G1 X69.198 Y35.058 E.22515
G1 X72.753 Y32.364 E.22516
G1 X76.437 Y29.851 E.22511
G1 X80.243 Y27.524 E.22519
G1 X84.159 Y25.39 E.22512
G1 X88.17 Y23.457 E.22476
M73 P0 R176
G1 X92.273 Y21.725 E.22481
G1 X96.456 Y20.2 E.22475
G1 X100.711 Y18.885 E.22481
G1 X105.025 Y17.784 E.22475
G1 X109.389 Y16.898 E.22478
G1 X113.791 Y16.231 E.22474
G1 X118.222 Y15.783 E.22481
G1 X122.668 Y15.557 E.22472
G1 X127.332 Y15.557 E.23543
G1 X131.778 Y15.783 E.22472
G1 X136.209 Y16.231 E.22481
G1 X140.611 Y16.898 E.22474
G1 X144.975 Y17.784 E.22478
G1 X149.289 Y18.885 E.22475
G1 X153.544 Y20.2 E.22481
G1 X157.727 Y21.725 E.22475
G1 X161.83 Y23.457 E.22481
G1 X165.847 Y25.393 E.22509
M204 S1000
G1 X165.955 Y26.035 F10800
;WIPE_START
G1 F8640
G1 X169.65 Y27.466 E-1
;WIPE_END
G1 Z.4 F720
G1 X93.7 Y105.609 F10800
G1 Z.2 F720
G1 E1 F2100
M204 S800
;TYPE:Perimeter
G1 F1200
G1 X93.595 Y105.995 E.02019
G1 X93.346 Y106.49 E.02797
G1 X93.005 Y106.925 E.0279
G1 X92.612 Y107.268 E.02633
G1 X92.178 Y107.52 E.02533
G1 X91.706 Y107.688 E.02529
G1 X91.16 Y107.775 E.02791
G1 X90.607 Y107.751 E.02794
G1 X90.07 Y107.619 E.02791
G1 X89.569 Y107.383 E.02796
G1 X89.125 Y107.052 E.02796
G1 X88.756 Y106.64 E.02792
G1 X88.476 Y106.163 E.02792
G1 X88.295 Y105.639 E.02798
G1 X88.222 Y105.091 E.02791
G1 X88.259 Y104.538 E.02798
G1 X88.405 Y104.005 E.0279
G1 X88.654 Y103.51 E.02797
G1 X88.996 Y103.075 E.02793
G1 X89.417 Y102.716 E.02793
G1 X89.871 Y102.457 E.02638
G1 X90.378 Y102.288 E.02698
G1 X90.884 Y102.221 E.02577
G1 X91.393 Y102.249 E.02573
G1 X91.93 Y102.381 E.02791
G1 X92.431 Y102.617 E.02796
G1 X92.875 Y102.948 E.02796
G1 X93.244 Y103.36 E.02792
G1 X93.524 Y103.837 E.02792
G1 X93.705 Y104.361 E.02798
G1 X93.778 Y104.909 E.02791
G1 X93.724 Y105.522 E.03106
M204 S1000
G1 X93.131 Y105.4 F10800
M204 S800
;TYPE:External perimeter
G1 F1200
G1 X92.991 Y105.872 E.02485
G1 X92.779 Y106.249 E.02183
G1 X92.501 Y106.573 E.02155
G1 X92.236 Y106.788 E.01723
G1 X91.866 Y106.994 E.02138
G1 X91.454 Y107.126 E.02184
G1 X91.024 Y107.174 E.02184
G1 X90.593 Y107.135 E.02185
G1 X90.178 Y107.012 E.02185
G1 X89.795 Y106.81 E.02186
G1 X89.461 Y106.535 E.02184
