; generated by PrusaSlicer 2.6.0-alpha6+linux-x64-GTK3 on 2023-04-26 at 08:37:28 UTC

; 

; external perimeters extrusion width = 0.65mm
; perimeters extrusion width = 0.65mm
; infill extrusion width = 0.65mm
; solid infill extrusion width = 0.65mm
; top infill extrusion width = 0.60mm
; support material extrusion width = 0.55mm
; first layer extrusion width = 0.65mm

M73 P0 R194
M73 Q0 S197
M201 X1000 Y1000 Z200 E5000 ; sets maximum accelerations, mm/sec^2
M203 X200 Y200 Z12 E120 ; sets maximum feedrates, mm / sec
M204 S1250 T1250 ; sets acceleration (S) and retract acceleration (R), mm/sec^2
M205 X8.00 Y8.00 Z0.40 E4.50 ; sets the jerk limits, mm/sec
M205 S0 T0 ; sets the minimum extruding and travel feed rate, mm/sec
;TYPE:Custom
M862.3 P "MK3S" ; printer model check
M862.1 P0.6 ; nozzle diameter check
M115 U3.10.1 ; tell printer latest fw version
G90 ; use absolute coordinates
M83 ; extruder relative mode
M104 S240 ; set extruder temp
M140 S85 ; set bed temp
M190 S85 ; wait for bed temp
M109 S240 ; wait for extruder temp
G28 W ; home all without mesh bed level
G80 ; mesh bed leveling
G1 Z0.2 F720
G1 Y-3 F1000 ; go outside print area
G92 E0
G1 X60 E9 F1000 ; intro line
G1 X100 E12.5 F1000 ; intro line
G92 E0
M221 S95
G21 ; set units to millimeters
G90 ; use absolute coordinates
M83 ; use relative distances for extrusion
M900 K0.04 ; Filament gcode LA 1.5
M900 K24 ; Filament gcode LA 1.0
M107
;LAYER_CHANGE
;Z:0.2
;HEIGHT:0.2
;BEFORE_LAYER_CHANGE
G92 E0.0
;0.2


G1 E-1 F2100
G1 Z.2 F720
;AFTER_LAYER_CHANGE
;0.2
G1 Z.4
G1 X70.27 Y58.655 F10800
G1 Z.2 F720
G1 E1 F2100
M204 S800
;TYPE:Skirt/Brim
;WIDTH:0.65
G1 F1200
G1 X72.42 Y56.222 E.1639
G1 X75.098 Y53.49 E.19311
G1 X77.493 Y51.269 E.16488
G1 X80.503 Y48.753 E.19803
G1 X83.027 Y46.845 E.15972
G1 X86.274 Y44.633 E.19832
G1 X88.958 Y42.996 E.1587
G1 X92.423 Y41.104 E.19929
G1 X95.239 Y39.749 E.15775
G1 X98.891 Y38.199 E.20027
G1 X101.81 Y37.138 E.15678
G1 X105.489 Y35.983 E.19465
G1 X109.34 Y35.014 E.20045
G1 X112.399 Y34.394 E.15755
G1 X116.308 Y33.81 E.19951
G1 X119.432 Y33.496 E.15849
G1 X123.36 Y33.299 E.19853
G1 X126.64 Y33.299 E.16557
G1 X130.438 Y33.486 E.19195
G1 X133.692 Y33.81 E.16507
G1 X137.473 Y34.372 E.19296
G1 X140.66 Y35.014 E.16411
G1 X144.386 Y35.948 E.1939
G1 X147.475 Y36.898 E.16314
G1 X151.109 Y38.199 E.19484
G1 X154.03 Y39.427 E.15995
G1 X157.577 Y41.104 E.19805
G1 X161.042 Y42.996 E.19929
G1 X163.726 Y44.633 E.1587
G1 X166.346 Y46.416 E.15997
G1 X170.179 Y49.316 E.24262
G1 X172.604 Y51.355 E.15993
G1 X175.458 Y54.047 E.19804
G1 X177.669 Y56.317 E.15996
G1 X180.212 Y59.236 E.19542
G1 X182.218 Y61.755 E.16255
G1 X184.453 Y64.894 E.19451
G1 X186.208 Y67.616 E.16349
G1 X188.115 Y70.942 E.19353
G1 X189.6 Y73.843 E.16451
G1 X191.205 Y77.423 E.19804
G1 X192.36 Y80.374 E.15997
G1 X193.606 Y84.094 E.19803
G1 X194.457 Y87.129 E.15911
G1 X195.335 Y90.97 E.19889
G1 X195.878 Y94.055 E.15812
G1 X196.378 Y97.983 E.19988
G1 X196.609 Y101.088 E.15717
G1 X196.722 Y105.065 E.20084
G1 X196.609 Y108.912 E.19428
G1 X196.378 Y112.017 E.15717
G1 X195.878 Y115.945 E.19988
G1 X195.335 Y119.03 E.15812
G1 X194.457 Y122.871 E.19889
G1 X193.606 Y125.906 E.15911
G1 X192.36 Y129.626 E.19803
G1 X191.163 Y132.678 E.16549
G1 X189.6 Y136.157 E.19253
G1 X188.115 Y139.058 E.16451
G1 X186.208 Y142.384 E.19353
G1 X184.453 Y145.106 E.16349
G1 X182.218 Y148.245 E.19451
G1 X179.73 Y151.345 E.20065
G1 X177.58 Y153.778 E.1639
G1 X174.902 Y156.51 E.19311
G1 X172.507 Y158.731 E.16488
G1 X169.497 Y161.247 E.19803
M73 P0 R193
G1 X166.973 Y163.155 E.15972
G1 X163.726 Y165.367 E.19832
G1 X161.042 Y167.004 E.1587
G1 X157.577 Y168.896 E.19929
G1 X154.761 Y170.251 E.15775
G1 X151.23 Y171.753 E.1937
G1 X148.19 Y172.862 E.16335
G1 X144.511 Y174.017 E.19465
G1 X140.66 Y174.986 E.20045
G1 X137.601 Y175.606 E.15755
G1 X133.692 Y176.19 E.19951
G1 X130.568 Y176.504 E.15849
G1 X126.64 Y176.701 E.19853
G1 X123.481 Y176.704 E.15946
G1 X119.562 Y176.514 E.19806
G1 X116.308 Y176.19 E.16507
G1 X112.527 Y175.628 E.19296
G1 X109.34 Y174.986 E.16411
G1 X105.614 Y174.052 E.1939
G1 X102.525 Y173.102 E.16314
G1 X98.891 Y171.801 E.19484
G1 X95.97 Y170.573 E.15995
G1 X92.423 Y168.896 E.19805
G1 X88.958 Y167.004 E.19929
G1 X86.274 Y165.367 E.1587
G1 X83.654 Y163.584 E.15997
G1 X79.821 Y160.684 E.24262
M73 Q0 S196
G1 X77.396 Y158.645 E.15993
G1 X74.542 Y155.953 E.19804
G1 X72.331 Y153.683 E.15996
G1 X69.788 Y150.764 E.19542
G1 X67.782 Y148.245 E.16255
G1 X65.547 Y145.106 E.19451
G1 X63.792 Y142.384 E.16349
G1 X61.885 Y139.058 E.19353
G1 X60.4 Y136.157 E.16451
G1 X58.795 Y132.577 E.19804
G1 X57.64 Y129.626 E.15997
G1 X56.394 Y125.906 E.19803
G1 X55.543 Y122.871 E.15911
G1 X54.665 Y119.03 E.19889
G1 X54.122 Y115.945 E.15812
G1 X53.622 Y112.017 E.19988
G1 X53.391 Y108.912 E.15717
G1 X53.278 Y104.935 E.20084
G1 X53.391 Y101.088 E.19428
G1 X53.622 Y97.983 E.15717
G1 X54.122 Y94.055 E.19988
G1 X54.665 Y90.97 E.15812
G1 X55.543 Y87.129 E.19889
G1 X56.394 Y84.094 E.15911
G1 X57.64 Y80.374 E.19803
G1 X58.837 Y77.322 E.16549
G1 X60.4 Y73.843 E.19253
G1 X61.885 Y70.942 E.16451
G1 X63.792 Y67.616 E.19353
G1 X65.547 Y64.894 E.16349
G1 X67.782 Y61.755 E.19451
G1 X70.213 Y58.726 E.19605
M204 S1000
; printing object Cover.stl id:0 copy 0
;WIPE_START
G1 F8640
G1 X72.42 Y56.222 E-.77071
G1 X73.115 Y55.513 E-.22929
;WIPE_END
G1 Z.4 F720
G1 X70.611 Y144.83 F10800
G1 Z.2 F720
G1 E1 F2100
M204 S800
;TYPE:Perimeter
;WIDTH:0.649999
G1 F1200
G1 X69.255 Y142.942 E.11734
G1 X67.464 Y140.168 E.16668
G1 X65.758 Y137.211 E.17233
G1 X64.252 Y134.273 E.16666
G1 X62.849 Y131.16 E.17236
G1 X61.643 Y128.088 E.16659
G1 X60.555 Y124.85 E.17243
G1 X59.661 Y121.673 E.1666
G1 X58.9 Y118.343 E.17243
G1 X58.327 Y115.092 E.16664
G1 X57.901 Y111.705 E.17232
G1 X57.654 Y108.412 E.16669
G1 X57.567 Y105 E.17229
G1 X57.649 Y101.698 E.16673
G1 X57.901 Y98.295 E.17225
G1 X58.327 Y94.908 E.17232
G1 X58.9 Y91.657 E.16664
G1 X59.661 Y88.327 E.17243
G1 X60.555 Y85.15 E.1666
G1 X61.643 Y81.912 E.17243
G1 X62.849 Y78.84 E.16659
G1 X64.252 Y75.727 E.17236
G1 X65.758 Y72.789 E.16666
G1 X67.464 Y69.832 E.17233
G1 X69.255 Y67.058 E.16668
G1 X71.246 Y64.285 E.17232
G1 X73.376 Y61.618 E.17229
G1 X75.56 Y59.142 E.16666
G1 X77.946 Y56.699 E.17238
G1 X80.365 Y54.454 E.16659
G1 X82.982 Y52.259 E.17242
G1 X85.613 Y50.266 E.16661
G1 X88.435 Y48.342 E.17241
G1 X91.251 Y46.621 E.16659
G1 X94.25 Y44.986 E.17242
G1 X97.224 Y43.554 E.16662
G1 X100.369 Y42.226 E.17233
G1 X103.472 Y41.097 E.16668
G1 X106.733 Y40.088 E.17231
G1 X110.041 Y39.248 E.17228
G1 X113.278 Y38.594 E.1667
G1 X116.545 Y38.101 E.16678
G1 X119.939 Y37.757 E.1722
G1 X123.239 Y37.593 E.16679
G1 X126.761 Y37.593 E.17779
G1 X130.061 Y37.757 E.16679
G1 X133.346 Y38.086 E.16665
G1 X136.722 Y38.594 E.17234
G1 X139.959 Y39.248 E.1667
G1 X143.267 Y40.088 E.17228
G1 X146.528 Y41.097 E.17231
G1 X149.631 Y42.226 E.16668
G1 X152.776 Y43.554 E.17233
G1 X155.75 Y44.986 E.16662
G1 X158.749 Y46.621 E.17242
G1 X161.565 Y48.342 E.16659
G1 X164.387 Y50.266 E.17241
G1 X167.018 Y52.259 E.16661
G1 X169.635 Y54.454 E.17242
G1 X172.054 Y56.699 E.16659
G1 X174.44 Y59.142 E.17238
G1 X176.624 Y61.618 E.16666
G1 X178.754 Y64.285 E.17229
G1 X180.745 Y67.058 E.17232
G1 X182.536 Y69.832 E.16668
G1 X184.242 Y72.789 E.17233
G1 X185.748 Y75.727 E.16666
G1 X187.151 Y78.84 E.17236
G1 X188.357 Y81.912 E.16659
G1 X189.445 Y85.15 E.17243
G1 X190.339 Y88.327 E.1666
G1 X191.1 Y91.657 E.17243
G1 X191.673 Y94.908 E.16664
G1 X192.099 Y98.295 E.17232
G1 X192.346 Y101.588 E.16669
G1 X192.433 Y105 E.17229
G1 X192.351 Y108.302 E.16673
G1 X192.099 Y111.705 E.17225
G1 X191.673 Y115.092 E.17232
G1 X191.1 Y118.344 E.16669
G1 X190.364 Y121.565 E.16678
G1 X189.41 Y124.955 E.17777
G1 X188.358 Y128.087 E.16678
G1 X187.107 Y131.261 E.17222
G1 X185.748 Y134.273 E.1668
G1 X184.242 Y137.211 E.16666
G1 X182.536 Y140.168 E.17233
G1 X180.745 Y142.942 E.16668
G1 X178.754 Y145.715 E.17232
G1 X176.624 Y148.382 E.17229
G1 X174.44 Y150.858 E.16666
G1 X172.054 Y153.301 E.17238
G1 X169.635 Y155.546 E.16659
G1 X167.018 Y157.741 E.17242
G1 X164.387 Y159.734 E.16661
G1 X161.565 Y161.658 E.17241
G1 X158.749 Y163.379 E.16659
G1 X155.75 Y165.014 E.17242
G1 X152.776 Y166.446 E.16662
G1 X149.631 Y167.774 E.17233
G1 X146.528 Y168.903 E.16668
G1 X143.267 Y169.912 E.17231
G1 X139.959 Y170.752 E.17228
G1 X136.722 Y171.406 E.1667
G1 X133.346 Y171.914 E.17234
G1 X130.061 Y172.243 E.16665
G1 X126.65 Y172.413 E.1724
G1 X123.35 Y172.413 E.16658
G1 X119.939 Y172.243 E.1724
G1 X116.654 Y171.914 E.16665
G1 X113.278 Y171.406 E.17234
G1 X110.041 Y170.752 E.1667
G1 X106.733 Y169.912 E.17228
G1 X103.472 Y168.903 E.17231
G1 X100.369 Y167.774 E.16668
G1 X97.224 Y166.446 E.17233
G1 X94.25 Y165.014 E.16662
G1 X91.251 Y163.379 E.17242
G1 X88.435 Y161.658 E.16659
G1 X85.613 Y159.734 E.17241
G1 X82.982 Y157.741 E.16661
G1 X80.365 Y155.546 E.17242
G1 X77.946 Y153.301 E.16659
G1 X75.56 Y150.858 E.17238
G1 X73.376 Y148.382 E.16666
G1 X71.246 Y145.715 E.17229
G1 X70.663 Y144.903 E.05046
M204 S1000
G1 X70.117 Y145.184 F10800
M204 S800
;TYPE:External perimeter
G1 F1200
G1 X68.754 Y143.284 E.11804
G1 X66.946 Y140.485 E.1682
G1 X65.225 Y137.501 E.17389
G1 X63.705 Y134.537 E.16815
G1 X62.289 Y131.396 E.17392
G1 X61.072 Y128.295 E.16816
G1 X59.975 Y125.029 E.17392
G1 X59.073 Y121.823 E.16812
G1 X58.305 Y118.464 E.17393
G1 X57.727 Y115.183 E.16817
G1 X57.297 Y111.765 E.1739
G1 X57.048 Y108.443 E.16816
G1 X56.96 Y105 E.17386
G1 X57.043 Y101.668 E.16825
G1 X57.297 Y98.234 E.17382
G1 X57.727 Y94.817 E.17385
G1 X58.305 Y91.536 E.16817
G1 X59.073 Y88.177 E.17393
G1 X59.975 Y84.971 E.16812
G1 X61.072 Y81.705 E.17392
G1 X62.289 Y78.604 E.16816
G1 X63.705 Y75.463 E.17392
G1 X65.225 Y72.499 E.16815
G1 X66.946 Y69.515 E.17389
G1 X68.754 Y66.716 E.1682
G1 X70.762 Y63.918 E.17385
G1 X72.911 Y61.227 E.17384
G1 X75.115 Y58.729 E.16816
G1 X77.522 Y56.264 E.17391
G1 X79.964 Y53.998 E.16816
G1 X82.603 Y51.784 E.17389
G1 X85.258 Y49.773 E.16813
G1 X88.105 Y47.832 E.17394
G1 X90.947 Y46.095 E.16813
G1 X93.972 Y44.446 E.17391
G1 X96.974 Y43.001 E.16818
G1 X100.147 Y41.661 E.17387
G1 X103.279 Y40.521 E.16825
G1 X106.568 Y39.504 E.17378
G1 X109.906 Y38.656 E.17385
G1 X113.172 Y37.996 E.1682
G1 X116.469 Y37.499 E.16831
G1 X119.894 Y37.152 E.17378
G1 X123.223 Y36.986 E.16825
G1 X126.777 Y36.986 E.1794
G1 X130.107 Y37.152 E.1683
G1 X133.421 Y37.483 E.16812
G1 X136.828 Y37.996 E.17392
G1 X140.094 Y38.656 E.1682
G1 X143.432 Y39.504 E.17385
G1 X146.721 Y40.521 E.17378
G1 X149.853 Y41.661 E.16825
G1 X153.026 Y43.001 E.17387
G1 X156.028 Y44.446 E.16818
G1 X159.053 Y46.095 E.17391
G1 X161.895 Y47.832 E.16813
G1 X164.742 Y49.773 E.17394
G1 X167.397 Y51.784 E.16813
G1 X170.036 Y53.998 E.17389
G1 X172.478 Y56.264 E.16816
G1 X174.885 Y58.729 E.17391
G1 X177.089 Y61.227 E.16816
G1 X179.238 Y63.918 E.17384
G1 X181.246 Y66.716 E.17385
G1 X183.054 Y69.515 E.1682
G1 X184.775 Y72.499 E.17389
G1 X186.295 Y75.463 E.16815
G1 X187.711 Y78.604 E.17392
G1 X188.928 Y81.705 E.16816
G1 X190.025 Y84.971 E.17392
G1 X190.927 Y88.177 E.16812
G1 X191.695 Y91.536 E.17393
G1 X192.273 Y94.817 E.16817
G1 X192.703 Y98.235 E.1739
G1 X192.952 Y101.557 E.16816
G1 X193.04 Y105 E.17386
G1 X192.957 Y108.332 E.16825
G1 X192.703 Y111.766 E.17382
G1 X192.273 Y115.183 E.17385
G1 X191.695 Y118.464 E.16817
G1 X190.953 Y121.715 E.16833
G1 X189.99 Y125.134 E.1793
G1 X188.928 Y128.295 E.16833
G1 X187.666 Y131.497 E.17373
G1 X186.295 Y134.536 E.16829
G1 X184.775 Y137.501 E.16819
G1 X183.054 Y140.485 E.17389
G1 X181.246 Y143.284 E.1682
G1 X179.238 Y146.082 E.17385
G1 X177.089 Y148.773 E.17384
G1 X174.885 Y151.271 E.16816
G1 X172.478 Y153.736 E.17391
G1 X170.036 Y156.002 E.16816
G1 X167.397 Y158.216 E.17389
G1 X164.742 Y160.227 E.16813
G1 X161.895 Y162.168 E.17394
G1 X159.053 Y163.905 E.16813
G1 X156.028 Y165.554 E.17391
G1 X153.026 Y166.999 E.16818
G1 X149.853 Y168.339 E.17387
G1 X146.721 Y169.479 E.16825
G1 X143.432 Y170.496 E.17378
G1 X140.094 Y171.344 E.17385
G1 X136.828 Y172.004 E.1682
G1 X133.421 Y172.517 E.17392
G1 X130.107 Y172.848 E.16812
G1 X126.665 Y173.02 E.17396
G1 X123.335 Y173.02 E.16809
G1 X119.893 Y172.848 E.17396
G1 X116.579 Y172.517 E.16812
G1 X113.172 Y172.004 E.17392
G1 X109.906 Y171.344 E.1682
G1 X106.568 Y170.496 E.17385
G1 X103.279 Y169.479 E.17378
G1 X100.147 Y168.339 E.16825
G1 X96.974 Y166.999 E.17387
G1 X93.972 Y165.554 E.16818
G1 X90.947 Y163.905 E.17391
G1 X88.105 Y162.168 E.16813
G1 X85.258 Y160.227 E.17394
G1 X82.603 Y158.216 E.16813
G1 X79.964 Y156.002 E.17389
G1 X77.522 Y153.736 E.16816
G1 X75.115 Y151.271 E.17391
G1 X72.911 Y148.773 E.16816
G1 X70.762 Y146.082 E.17384
G1 X70.17 Y145.257 E.05126
M204 S1000
G1 X70.357 Y144.634 F10800
;WIPE_START
G1 F8640
G1 X68.754 Y143.284 E-.56076
G1 X67.722 Y141.686 E-.43924
;WIPE_END
G1 Z.4 F720
G1 X176.641 Y61.931 F10800
G1 Z.2 F720
G1 E1 F2100
M204 S800
;TYPE:Solid infill
;WIDTH:0.651742
G1 F1200
G1 X171.72 Y57.009 E.35234
G1 X169.333 Y54.795 E.16482
G1 X166.734 Y52.615 E.17173
G1 X165.621 Y51.772 E.07068
G1 X178.318 Y64.469 E.90901
G1 X180.488 Y67.499 E.18867
G1 X162.558 Y49.57 E1.28362
G1 X161.318 Y48.724 E.07599
G1 X160.119 Y47.991 E.07114
G1 X182.058 Y69.931 E1.57071
G1 X183.254 Y71.987 E.12041
M73 P0 R192
G1 X157.994 Y46.728 E1.8084
G1 X156.102 Y45.697 E.10908
G1 X184.293 Y73.888 E2.01827
G1 X185.199 Y75.655 E.10053
M73 Q0 S195
G1 X154.373 Y44.828 E2.20696
G1 X152.712 Y44.029 E.09331
G1 X185.936 Y77.253 E2.3786
G1 X186.644 Y78.821 E.08709
G1 X151.209 Y43.387 E2.53686
G1 X149.719 Y42.758 E.08188
G1 X187.219 Y80.257 E2.68469
G1 X187.775 Y81.674 E.07706
G1 X148.342 Y42.242 E2.82308
G1 X146.988 Y41.749 E.07295
G1 X188.244 Y83.004 E2.9536
G1 X188.679 Y84.301 E.06925
G1 X145.694 Y41.316 E3.07742
G1 X144.447 Y40.93 E.06608
G1 X189.091 Y85.574 E3.19619
G1 X189.428 Y86.772 E.063
G1 X143.201 Y40.544 E3.30956
G1 X142.042 Y40.247 E.06057
G1 X189.765 Y87.97 E3.41662
G1 X189.898 Y88.44 E.02473
G1 X190.053 Y89.118 E.03521
G1 X140.888 Y39.954 E3.51982
G1 X139.742 Y39.669 E.05978
G1 X190.308 Y90.234 E3.62013
G1 X190.563 Y91.35 E.05795
M73 P1 R192
M73 Q1 S195
G1 X138.663 Y39.45 E3.71567
G1 X137.584 Y39.232 E.05573
G1 X190.772 Y92.421 E3.80791
G1 X190.956 Y93.466 E.05372
G1 X136.513 Y39.023 E3.89773
G1 X135.5 Y38.87 E.05186
G1 X191.141 Y94.511 E3.98349
G1 X191.222 Y94.976 E.02389
G1 X191.291 Y95.523 E.02791
G1 X134.486 Y38.718 E4.06683
G1 X133.473 Y38.566 E.05186
M73 P1 R191
G1 X191.415 Y96.508 E4.14823
G1 X191.539 Y97.493 E.05026
M73 Q1 S194
G1 X132.506 Y38.46 E4.22634
G1 X131.549 Y38.364 E.04869
G1 X191.655 Y98.47 E4.30316
G1 X191.725 Y99.401 E.04726
G1 X130.592 Y38.268 E4.37668
G1 X129.656 Y38.193 E.04754
G1 X191.795 Y100.332 E4.44871
G1 X191.865 Y101.262 E.04721
G1 X128.75 Y38.148 E4.51854
G1 X127.844 Y38.103 E.04592
G1 X191.905 Y102.164 E4.58631
G1 X191.928 Y103.047 E.04472
G1 X126.938 Y38.057 E4.65282
G1 X126.067 Y38.048 E.0441
G1 X191.95 Y103.931 E4.71675
G1 X191.973 Y104.815 E.04477
G1 X125.206 Y38.048 E4.78004
G1 X124.345 Y38.048 E.04359
G1 X191.961 Y105.664 E4.84082
G1 X191.94 Y106.504 E.04254
G1 X123.484 Y38.048 E4.90096
G1 X122.653 Y38.078 E.0421
G1 X191.919 Y107.344 E4.95895
G1 X191.898 Y108.184 E.04254
G1 X121.833 Y38.119 E5.01615
G1 X121.013 Y38.16 E.04156
M73 P1 R190
M73 Q1 S193
G1 X191.843 Y108.99 E5.07092
G1 X191.784 Y109.792 E.04071
G1 X120.193 Y38.201 E5.1254
G1 X119.401 Y38.269 E.04024
G1 X191.725 Y110.593 E5.17788
G1 X191.665 Y111.395 E.04071
G1 X118.619 Y38.349 E5.22957
G1 X117.837 Y38.428 E.03979
G1 X191.581 Y112.172 E5.27954
G1 X191.485 Y112.937 E.03903
G1 X117.055 Y38.507 E5.32865
G1 X116.288 Y38.6 E.03911
M73 P2 R190
G1 X191.389 Y113.702 E5.37673
G1 X191.293 Y114.466 E.03898
M73 Q2 S193
G1 X115.539 Y38.713 E5.42341
G1 X114.791 Y38.826 E.0383
G1 X191.188 Y115.222 E5.46944
G1 X191.059 Y115.954 E.03763
G1 X114.043 Y38.939 E5.51376
G1 X113.297 Y39.054 E.03821
G1 X190.929 Y116.686 E5.55789
G1 X190.8 Y117.418 E.03763
M73 P2 R189
G1 X112.581 Y39.199 E5.59992
G1 X111.865 Y39.344 E.03698
M73 Q2 S192
G1 X190.671 Y118.15 E5.64194
G1 X190.516 Y118.855 E.03654
G1 X111.149 Y39.489 E5.68207
