; generated by PrusaSlicer 2.6.0-alpha6+linux-x64-GTK3 on 2023-04-25 at 12:00:04 UTC

; 

; external perimeters extrusion width = 0.65mm
; perimeters extrusion width = 0.65mm
; infill extrusion width = 0.65mm
; solid infill extrusion width = 0.65mm
; top infill extrusion width = 0.60mm
; support material extrusion width = 0.55mm
; first layer extrusion width = 0.65mm

M73 P0 R137
M73 Q0 S138
M201 X1000 Y1000 Z200 E5000 ; sets maximum accelerations, mm/sec^2
M203 X200 Y200 Z12 E120 ; sets maximum feedrates, mm / sec
M204 S1250 T1250 ; sets acceleration (S) and retract acceleration (R), mm/sec^2
M205 X8.00 Y8.00 Z0.40 E4.50 ; sets the jerk limits, mm/sec
M205 S0 T0 ; sets the minimum extruding and travel feed rate, mm/sec
;TYPE:Custom
M862.3 P "MK3S" ; printer model check
M862.1 P0.6 ; nozzle diameter check
M115 U3.10.1 ; tell printer latest fw version
G90 ; use absolute coordinates
M83 ; extruder relative mode
M104 S240 ; set extruder temp
M140 S85 ; set bed temp
M190 S85 ; wait for bed temp
M109 S240 ; wait for extruder temp
G28 W ; home all without mesh bed level
G80 ; mesh bed leveling
G1 Z0.2 F720
G1 Y-3 F1000 ; go outside print area
G92 E0
G1 X60 E9 F1000 ; intro line
G1 X100 E12.5 F1000 ; intro line
G92 E0
M221 S95
G21 ; set units to millimeters
G90 ; use absolute coordinates
M83 ; use relative distances for extrusion
M900 K0.04 ; Filament gcode LA 1.5
M900 K24 ; Filament gcode LA 1.0
M107
;LAYER_CHANGE
;Z:0.2
;HEIGHT:0.2
;BEFORE_LAYER_CHANGE
G92 E0.0
;0.2


G1 E-1 F2100
G1 Z.2 F720
;AFTER_LAYER_CHANGE
;0.2
G1 Z.4
G1 X54.018 Y45.524 F10800
G1 Z.2 F720
G1 E1 F2100
M204 S800
;TYPE:Skirt/Brim
;WIDTH:0.65
G1 F1200
G1 X57.071 Y42.059 E.23312
G1 X60.292 Y38.752 E.23303
G1 X63.511 Y35.761 E.22181
G1 X67.312 Y32.557 E.25094
G1 X70.994 Y29.772 E.23304
G1 X74.811 Y27.173 E.2331
G1 X78.753 Y24.768 E.2331
G1 X82.81 Y22.563 E.23309
G1 X86.971 Y20.562 E.23307
G1 X91.228 Y18.772 E.23311
G1 X95.568 Y17.195 E.23309
G1 X99.981 Y15.837 E.23307
G1 X104.457 Y14.701 E.23311
G1 X108.983 Y13.789 E.23306
G1 X113.549 Y13.104 E.23307
G1 X118.144 Y12.648 E.23309
G1 X122.756 Y12.421 E.23309
G1 X127.374 Y12.424 E.23311
G1 X131.985 Y12.658 E.23306
G1 X136.58 Y13.121 E.23312
G1 X141.145 Y13.812 E.23306
G1 X145.67 Y14.73 E.23307
G1 X150.144 Y15.873 E.2331
G1 X154.555 Y17.237 E.23306
G1 X158.893 Y18.819 E.23308
G1 X163.147 Y20.616 E.23311
G1 X167.306 Y22.622 E.23309
G1 X171.359 Y24.833 E.23305
G1 X175.298 Y27.244 E.23313
G1 X179.111 Y29.847 E.23305
G1 X182.79 Y32.638 E.2331
G1 X186.325 Y35.609 E.2331
G1 X189.708 Y38.752 E.2331
G1 X192.929 Y42.059 E.23303
G1 X195.982 Y45.524 E.23312
M73 Q0 S137
G1 X198.859 Y49.136 E.2331
G1 X201.552 Y52.887 E.23309
G1 X204.054 Y56.767 E.23305
G1 X206.36 Y60.768 E.23311
G1 X208.464 Y64.878 E.23307
G1 X210.36 Y69.088 E.23307
G1 X212.044 Y73.388 E.23311
G1 X213.511 Y77.766 E.23307
G1 X214.759 Y82.212 E.2331
G1 X215.757 Y86.587 E.22652
G1 X216.562 Y91.133 E.23305
G1 X217.14 Y95.715 E.23313
G1 X217.488 Y100.319 E.23307
G1 X217.606 Y104.935 E.23309
G1 X217.494 Y109.551 E.23308
G1 X217.153 Y114.156 E.23309
G1 X216.582 Y118.738 E.23308
G1 X215.783 Y123.286 E.23309
G1 X214.759 Y127.788 E.23306
G1 X213.511 Y132.234 E.2331
G1 X212.044 Y136.612 E.23307
G1 X210.36 Y140.912 E.23311
G1 X208.464 Y145.122 E.23307
G1 X206.36 Y149.232 E.23307
G1 X204.054 Y153.233 E.23311
G1 X201.552 Y157.113 E.23305
G1 X198.859 Y160.864 E.23309
G1 X195.982 Y164.476 E.2331
G1 X192.929 Y167.941 E.23312
G1 X189.708 Y171.248 E.23303
G1 X186.325 Y174.391 E.2331
G1 X182.79 Y177.362 E.2331
G1 X179.111 Y180.153 E.2331
G1 X175.298 Y182.756 E.23305
G1 X171.359 Y185.167 E.23313
G1 X167.306 Y187.378 E.23305
G1 X163.147 Y189.384 E.23309
G1 X158.893 Y191.181 E.23311
G1 X154.555 Y192.763 E.23308
G1 X150.144 Y194.127 E.23306
G1 X145.67 Y195.27 E.2331
G1 X141.145 Y196.188 E.23307
G1 X136.58 Y196.879 E.23306
G1 X131.856 Y197.352 E.23965
G1 X127.244 Y197.579 E.23309
G1 X122.626 Y197.576 E.23311
G1 X118.015 Y197.342 E.23306
G1 X113.421 Y196.879 E.23307
G1 X108.983 Y196.211 E.22655
G1 X104.457 Y195.299 E.23306
G1 X99.981 Y194.163 E.23311
G1 X95.568 Y192.805 E.23307
G1 X91.228 Y191.228 E.23309
G1 X86.971 Y189.438 E.23311
G1 X82.81 Y187.437 E.23307
G1 X78.753 Y185.232 E.23309
G1 X74.811 Y182.827 E.2331
G1 X70.994 Y180.228 E.2331
G1 X67.312 Y177.443 E.23304
G1 X63.772 Y174.477 E.23313
G1 X60.385 Y171.339 E.23307
G1 X57.159 Y168.036 E.23306
G1 X54.101 Y164.576 E.2331
G1 X51.22 Y160.968 E.23307
G1 X48.522 Y157.221 E.23307
G1 X46.014 Y153.344 E.23309
G1 X43.702 Y149.346 E.23313
G1 X41.593 Y145.239 E.23305
G1 X39.691 Y141.031 E.23311
G1 X38.001 Y136.734 E.23308
G1 X36.527 Y132.358 E.23309
G1 X35.273 Y127.914 E.23309
G1 X34.243 Y123.413 E.23308
G1 X33.438 Y118.867 E.23305
G1 X32.86 Y114.285 E.23313
G1 X32.512 Y109.681 E.23307
G1 X32.394 Y105.065 E.23309
G1 X32.506 Y100.449 E.23308
G1 X32.847 Y95.844 E.23309
G1 X33.418 Y91.262 E.23308
G1 X34.217 Y86.714 E.23309
G1 X35.241 Y82.212 E.23306
G1 X36.489 Y77.766 E.2331
G1 X37.956 Y73.388 E.23307
G1 X39.64 Y69.088 E.23311
G1 X41.536 Y64.878 E.23307
G1 X43.64 Y60.768 E.23307
G1 X45.946 Y56.767 E.23311
G1 X48.449 Y52.887 E.23308
G1 X51.141 Y49.136 E.23306
G1 X53.962 Y45.594 E.22857
M204 S1000
; printing object Top_plate.stl id:0 copy 0
;WIPE_START
G1 F8640
G1 X56.822 Y42.342 E-1
;WIPE_END
G1 Z.4 F720
G1 X180.408 Y35.521 F10800
G1 Z.2 F720
G1 E1 F2100
M204 S800
;TYPE:Perimeter
;WIDTH:0.649999
G1 F1200
G1 X183.802 Y38.369 E.22365
G1 X187.051 Y41.383 E.22371
G1 X190.145 Y44.555 E.22368
G1 X193.077 Y47.877 E.22366
G1 X195.839 Y51.341 E.22364
G1 X198.426 Y54.939 E.2237
G1 X200.83 Y58.661 E.22366
G1 X203.045 Y62.499 E.22369
G1 X205.067 Y66.442 E.22368
G1 X206.889 Y70.481 E.22367
G1 X208.508 Y74.606 E.22369
G1 X209.919 Y78.806 E.22366
G1 X211.12 Y83.071 E.22367
G1 X212.106 Y87.391 E.22368
G1 X212.875 Y91.755 E.22368
G1 X213.426 Y96.152 E.22369
G1 X213.757 Y100.57 E.22364
G1 X213.868 Y105 E.22369
G1 X213.757 Y109.43 E.22369
G1 X213.426 Y113.848 E.22364
G1 X212.875 Y118.245 E.22369
G1 X212.106 Y122.609 E.22368
G1 X211.12 Y126.929 E.22368
G1 X209.919 Y131.194 E.22367
G1 X208.508 Y135.394 E.22366
G1 X206.889 Y139.519 E.22369
G1 X205.067 Y143.558 E.22367
G1 X203.045 Y147.501 E.22368
G1 X200.83 Y151.339 E.22369
G1 X198.426 Y155.061 E.22366
G1 X195.839 Y158.659 E.2237
G1 X193.077 Y162.123 E.22364
G1 X190.145 Y165.445 E.22366
M73 P0 R136
G1 X187.051 Y168.617 E.22368
G1 X183.802 Y171.631 E.22371
G1 X180.408 Y174.479 E.22365
G1 X176.876 Y177.155 E.22368
G1 X173.215 Y179.651 E.22367
G1 X169.434 Y181.962 E.22369
G1 X165.542 Y184.081 E.22369
G1 X161.55 Y186.003 E.22365
G1 X157.467 Y187.724 E.22367
G1 X153.303 Y189.24 E.22369
G1 X149.069 Y190.546 E.22366
G1 X144.775 Y191.639 E.22367
G1 X140.432 Y192.517 E.22366
G1 X136.05 Y193.178 E.2237
G1 X131.641 Y193.619 E.22367
G1 X127.216 Y193.84 E.22365
G1 X122.784 Y193.84 E.22372
G1 X118.359 Y193.619 E.22365
G1 X113.95 Y193.178 E.22367
G1 X109.568 Y192.517 E.2237
G1 X105.225 Y191.639 E.22366
G1 X100.931 Y190.546 E.22367
G1 X96.697 Y189.24 E.22366
G1 X92.533 Y187.724 E.22369
G1 X88.45 Y186.003 E.22367
G1 X84.458 Y184.081 E.22365
G1 X80.566 Y181.962 E.22369
G1 X76.785 Y179.651 E.22369
G1 X73.124 Y177.155 E.22367
G1 X69.592 Y174.479 E.22368
G1 X66.198 Y171.631 E.22365
G1 X62.949 Y168.617 E.22371
G1 X59.855 Y165.445 E.22368
G1 X56.923 Y162.123 E.22366
G1 X54.161 Y158.659 E.22364
G1 X51.574 Y155.061 E.2237
G1 X49.17 Y151.339 E.22366
G1 X46.955 Y147.501 E.22369
G1 X44.933 Y143.558 E.22368
G1 X43.111 Y139.519 E.22367
G1 X41.492 Y135.394 E.22369
G1 X40.081 Y131.194 E.22366
G1 X38.88 Y126.929 E.22367
G1 X37.894 Y122.609 E.22368
G1 X37.125 Y118.245 E.22368
G1 X36.574 Y113.848 E.22369
G1 X36.243 Y109.43 E.22364
G1 X36.132 Y105 E.22369
G1 X36.243 Y100.57 E.22369
G1 X36.574 Y96.152 E.22364
G1 X37.125 Y91.755 E.22369
G1 X37.894 Y87.391 E.22368
G1 X38.88 Y83.071 E.22368
G1 X40.081 Y78.806 E.22367
G1 X41.492 Y74.605 E.2237
G1 X43.111 Y70.481 E.22364
G1 X44.933 Y66.442 E.22367
G1 X46.955 Y62.499 E.22368
G1 X49.17 Y58.661 E.22369
G1 X51.574 Y54.939 E.22366
G1 X54.161 Y51.341 E.2237
G1 X56.923 Y47.877 E.22364
G1 X59.855 Y44.555 E.22366
G1 X62.949 Y41.383 E.22368
G1 X66.198 Y38.369 E.22371
G1 X69.592 Y35.521 E.22365
G1 X73.124 Y32.845 E.22368
G1 X76.785 Y30.349 E.22367
G1 X80.566 Y28.038 E.22369
G1 X84.458 Y25.919 E.22369
G1 X88.45 Y23.997 E.22365
G1 X92.533 Y22.276 E.22367
G1 X96.697 Y20.76 E.22369
G1 X100.931 Y19.454 E.22366
G1 X105.225 Y18.361 E.22367
G1 X109.568 Y17.483 E.22366
G1 X113.95 Y16.822 E.2237
G1 X118.359 Y16.381 E.22367
G1 X122.784 Y16.16 E.22365
G1 X127.216 Y16.16 E.22372
G1 X131.641 Y16.381 E.22365
G1 X136.05 Y16.822 E.22367
G1 X140.432 Y17.483 E.2237
G1 X144.775 Y18.361 E.22366
G1 X149.069 Y19.454 E.22367
G1 X153.303 Y20.76 E.22366
G1 X157.467 Y22.276 E.22369
G1 X161.55 Y23.997 E.22367
G1 X165.542 Y25.919 E.22365
G1 X169.434 Y28.038 E.22369
G1 X173.215 Y30.349 E.22369
G1 X176.876 Y32.845 E.22367
G1 X180.336 Y35.466 E.21911
M204 S1000
G1 X180.787 Y35.046 F10800
M204 S800
;TYPE:External perimeter
G1 F1200
G1 X184.204 Y37.913 E.22516
G1 X187.475 Y40.948 E.22524
G1 X190.59 Y44.142 E.22521
G1 X193.542 Y47.487 E.2252
G1 X196.323 Y50.975 E.22518
G1 X198.928 Y54.597 E.22521
G1 X201.348 Y58.345 E.22521
G1 X203.579 Y62.208 E.22518
G1 X205.614 Y66.178 E.2252
G1 X207.449 Y70.245 E.22523
G1 X209.079 Y74.398 E.22521
G1 X210.5 Y78.627 E.2252
G1 X211.708 Y82.921 E.22517
G1 X212.701 Y87.271 E.22523
G1 X213.475 Y91.664 E.22517
G1 X214.03 Y96.091 E.22522
G1 X214.364 Y100.54 E.22521
G1 X214.475 Y105 E.22521
G1 X214.364 Y109.46 E.22521
G1 X214.03 Y113.909 E.22521
G1 X213.475 Y118.336 E.22522
G1 X212.701 Y122.729 E.22517
G1 X211.708 Y127.079 E.22523
G1 X210.5 Y131.373 E.22517
G1 X209.079 Y135.602 E.2252
G1 X207.449 Y139.755 E.22521
G1 X205.614 Y143.822 E.22523
G1 X203.579 Y147.792 E.2252
G1 X201.348 Y151.655 E.22518
G1 X198.928 Y155.403 E.22521
G1 X196.323 Y159.025 E.22521
G1 X193.542 Y162.513 E.22518
G1 X190.59 Y165.858 E.2252
G1 X187.475 Y169.052 E.22521
G1 X184.204 Y172.087 E.22524
G1 X180.787 Y174.954 E.22516
G1 X177.23 Y177.648 E.22524
G1 X173.544 Y180.161 E.22519
G1 X169.737 Y182.487 E.2252
G1 X165.819 Y184.621 E.22521
G1 X161.8 Y186.557 E.22519
G1 X157.689 Y188.29 E.2252
M73 Q0 S136
G1 X153.497 Y189.816 E.22519
G1 X149.233 Y191.131 E.22524
G1 X144.91 Y192.232 E.22519
G1 X140.537 Y193.116 E.22521
G1 X136.126 Y193.78 E.22517
G1 X131.686 Y194.225 E.22525
G1 X127.231 Y194.447 E.22516
G1 X122.769 Y194.447 E.22524
G1 X118.314 Y194.225 E.22516
G1 X113.874 Y193.78 E.22525
G1 X109.463 Y193.116 E.22517
G1 X105.09 Y192.232 E.22521
G1 X100.767 Y191.131 E.22519
G1 X96.503 Y189.816 E.22524
G1 X92.311 Y188.29 E.22519
G1 X88.2 Y186.557 E.2252
G1 X84.181 Y184.621 E.22519
G1 X80.263 Y182.487 E.22521
G1 X76.456 Y180.161 E.2252
G1 X72.77 Y177.648 E.22519
G1 X69.213 Y174.954 E.22524
G1 X65.796 Y172.087 E.22516
G1 X62.525 Y169.052 E.22524
G1 X59.41 Y165.858 E.22521
G1 X56.458 Y162.513 E.2252
G1 X53.677 Y159.025 E.22518
G1 X51.072 Y155.403 E.22521
G1 X48.652 Y151.655 E.22521
G1 X46.421 Y147.792 E.22518
G1 X44.386 Y143.822 E.2252
G1 X42.551 Y139.755 E.22523
G1 X40.921 Y135.602 E.22521
G1 X39.5 Y131.373 E.2252
G1 X38.292 Y127.079 E.22517
G1 X37.299 Y122.729 E.22523
G1 X36.525 Y118.336 E.22517
G1 X35.97 Y113.909 E.22522
M73 Q1 S136
G1 X35.636 Y109.46 E.22521
M73 P1 R136
G1 X35.525 Y105 E.22521
G1 X35.636 Y100.54 E.22521
G1 X35.97 Y96.091 E.22521
G1 X36.525 Y91.664 E.22522
G1 X37.299 Y87.271 E.22517
G1 X38.292 Y82.921 E.22523
G1 X39.5 Y78.627 E.22517
G1 X40.921 Y74.398 E.2252
G1 X42.551 Y70.245 E.22521
G1 X44.386 Y66.178 E.22523
G1 X46.421 Y62.208 E.2252
G1 X48.652 Y58.345 E.22518
G1 X51.072 Y54.597 E.22521
G1 X53.677 Y50.975 E.22521
G1 X56.458 Y47.487 E.22518
G1 X59.41 Y44.142 E.2252
G1 X62.525 Y40.948 E.22521
G1 X65.796 Y37.913 E.22524
G1 X69.213 Y35.046 E.22516
G1 X72.77 Y32.352 E.22524
G1 X76.456 Y29.839 E.22519
G1 X80.263 Y27.513 E.2252
G1 X84.181 Y25.379 E.22521
G1 X88.2 Y23.443 E.22519
G1 X92.311 Y21.71 E.2252
G1 X96.503 Y20.184 E.22519
G1 X100.767 Y18.869 E.22524
G1 X105.09 Y17.768 E.22519
G1 X109.463 Y16.884 E.22521
G1 X113.874 Y16.22 E.22517
G1 X118.314 Y15.775 E.22525
G1 X122.769 Y15.553 E.22516
G1 X127.231 Y15.553 E.22524
G1 X131.686 Y15.775 E.22516
G1 X136.126 Y16.22 E.22525
G1 X140.537 Y16.884 E.22517
G1 X144.91 Y17.768 E.22521
G1 X149.233 Y18.869 E.22519
G1 X153.497 Y20.184 E.22524
G1 X157.689 Y21.71 E.22519
G1 X161.8 Y23.443 E.2252
G1 X165.819 Y25.379 E.22519
G1 X169.737 Y27.513 E.22521
G1 X173.544 Y29.839 E.2252
G1 X177.23 Y32.352 E.22519
G1 X180.715 Y34.991 E.22067
M204 S1000
G1 X180.697 Y35.639 F10800
;WIPE_START
G1 F8640
G1 X184.035 Y37.772 E-1
;WIPE_END
G1 Z.4 F720
G1 X91.57 Y107.562 F10800
G1 Z.2 F720
G1 E1 F2100
M204 S800
;TYPE:Perimeter
G1 F1200
G1 X91.168 Y107.7 E.02145
G1 X90.661 Y107.775 E.02587
G1 X90.108 Y107.751 E.02794
G1 X89.571 Y107.619 E.02791
G1 X89.07 Y107.383 E.02796
G1 X88.626 Y107.052 E.02796
G1 X88.257 Y106.64 E.02792
G1 X87.977 Y106.163 E.02792
G1 X87.796 Y105.639 E.02798
G1 X87.723 Y105.091 E.02791
G1 X87.76 Y104.538 E.02798
G1 X87.906 Y104.005 E.0279
G1 X88.155 Y103.51 E.02797
G1 X88.497 Y103.075 E.02793
G1 X88.918 Y102.716 E.02793
G1 X89.402 Y102.448 E.02793
G1 X89.898 Y102.284 E.02637
G1 X90.397 Y102.22 E.0254
G1 X90.91 Y102.25 E.02594
G1 X91.431 Y102.381 E.02712
G1 X91.932 Y102.617 E.02796
G1 X92.376 Y102.948 E.02796
G1 X92.745 Y103.36 E.02792
G1 X93.025 Y103.837 E.02792
G1 X93.206 Y104.361 E.02798
G1 X93.279 Y104.909 E.02791
G1 X93.242 Y105.462 E.02798
G1 X93.096 Y105.995 E.0279
G1 X92.847 Y106.49 E.02797
G1 X92.505 Y106.925 E.02793
G1 X92.084 Y107.284 E.02793
G1 X91.654 Y107.531 E.02503
M204 S1000
G1 X91.387 Y106.983 F10800
M204 S800
;TYPE:External perimeter
G1 F1200
G1 X90.955 Y107.126 E.02297
G1 X90.453 Y107.168 E.02543
G1 X90.094 Y107.135 E.0182
G1 X89.679 Y107.012 E.02185
G1 X89.296 Y106.81 E.02186
G1 X88.962 Y106.535 E.02184
G1 X88.688 Y106.199 E.02189
G1 X88.486 Y105.816 E.02186
G1 X88.364 Y105.401 E.02184
G1 X88.327 Y105.03 E.01882
G1 X88.376 Y104.54 E.02486
G1 X88.51 Y104.128 E.02187
G1 X88.722 Y103.751 E.02183
G1 X89.005 Y103.423 E.02187
G1 X89.347 Y103.158 E.02184
G1 X89.728 Y102.968 E.02149
G1 X90.057 Y102.872 E.0173
G1 X90.477 Y102.826 E.02133
G1 X90.908 Y102.865 E.02185
G1 X91.388 Y103.021 E.02548
G1 X91.706 Y103.19 E.01818
G1 X92.04 Y103.465 E.02184
G1 X92.314 Y103.801 E.02189
G1 X92.516 Y104.184 E.02186
G1 X92.638 Y104.599 E.02184
G1 X92.675 Y105.03 E.02184
G1 X92.625 Y105.461 E.0219
G1 X92.492 Y105.872 E.02181
G1 X92.28 Y106.249 E.02183
G1 X91.997 Y106.577 E.02187
G1 X91.662 Y106.839 E.02147
G1 X91.467 Y106.941 E.01111
M204 S1000
G1 X91.335 Y107.435 F10800
;WIPE_START
G1 F8640
G1 X90.955 Y107.126 E-.1257
G1 X90.453 Y107.168 E-.11632
G1 X90.094 Y107.135 E-.08324
G1 X89.679 Y107.012 E-.09994
G1 X89.296 Y106.81 E-.09998
G1 X88.962 Y106.535 E-.0999
G1 X88.688 Y106.199 E-.10011
G1 X88.486 Y105.816 E-.09998
G1 X88.364 Y105.401 E-.09988
G1 X88.332 Y105.078 E-.07495
;WIPE_END
G1 Z.4 F720
G1 X130.356 Y66.924 F10800
G1 Z.2 F720
G1 E1 F2100
M204 S800
;TYPE:Perimeter
G1 F1200
G1 X130.174 Y67.439 E.02757
G1 X129.909 Y68.002 E.03141
G1 X129.595 Y68.526 E.03084
G1 X129.231 Y69.016 E.03081
G1 X128.819 Y69.467 E.03084
G1 X128.364 Y69.875 E.03085
G1 X127.872 Y70.236 E.0308
G1 X127.345 Y70.545 E.03084
G1 X126.791 Y70.801 E.03081
G1 X126.214 Y71.001 E.03083
G1 X125.619 Y71.142 E.03087
G1 X125.014 Y71.224 E.03082
G1 X123.988 Y71.224 E.05179
G1 X123.472 Y71.158 E.02626
G1 X122.876 Y71.026 E.03081
G1 X122.295 Y70.835 E.03087
G1 X121.737 Y70.587 E.03082
G1 X121.207 Y70.285 E.03079
G1 X120.708 Y69.931 E.03088
G1 X120.248 Y69.53 E.0308
G1 X119.83 Y69.085 E.03082
G1 X119.458 Y68.601 E.03081
G1 X119.136 Y68.082 E.03083
G1 X118.867 Y67.533 E.03086
G1 X118.655 Y66.961 E.03079
G1 X118.5 Y66.37 E.03084
G1 X118.405 Y65.766 E.03086
G1 X118.37 Y65.156 E.03084
G1 X118.396 Y64.546 E.03082
G1 X118.483 Y63.941 E.03085
G1 X118.63 Y63.348 E.03084
G1 X118.835 Y62.772 E.03086
G1 X119.096 Y62.22 E.03082
G1 X119.411 Y61.696 E.03086
G1 X119.776 Y61.206 E.03084
G1 X120.189 Y60.755 E.03087
G1 X120.644 Y60.348 E.03082
