; generated by PrusaSlicer 2.5.0+linux-x64-GTK3 on 2022-11-08 at 13:25:09 UTC


;
;

;
;
; 

; external perimeters extrusion width = 0.45mm
; perimeters extrusion width = 0.45mm
; infill extrusion width = 0.45mm
; solid infill extrusion width = 0.45mm
; top infill extrusion width = 0.40mm
; support material extrusion width = 0.35mm
; first layer extrusion width = 0.42mm

; external perimeters extrusion width = 0.45mm
; perimeters extrusion width = 0.45mm
; infill extrusion width = 0.45mm
; solid infill extrusion width = 0.45mm
; top infill extrusion width = 0.40mm
; support material extrusion width = 0.35mm
; first layer extrusion width = 0.42mm

; external perimeters extrusion width = 0.45mm
; perimeters extrusion width = 0.45mm
; infill extrusion width = 0.45mm
; solid infill extrusion width = 0.45mm
; top infill extrusion width = 0.40mm
; support material extrusion width = 0.35mm
; first layer extrusion width = 0.42mm

; external perimeters extrusion width = 0.45mm
; perimeters extrusion width = 0.45mm
; infill extrusion width = 0.45mm
; solid infill extrusion width = 0.45mm
; top infill extrusion width = 0.40mm
; support material extrusion width = 0.35mm
; first layer extrusion width = 0.42mm

M73 P0 R108
M73 Q0 S110
M201 X1000 Y1000 Z200 E5000 ; sets maximum accelerations, mm/sec^2
M203 X200 Y200 Z12 E120 ; sets maximum feedrates, mm / sec
M204 P1250 R1250 T1250 ; sets acceleration (P, T) and retract acceleration (R), mm/sec^2
M205 X8.00 Y8.00 Z0.40 E4.50 ; sets the jerk limits, mm/sec
M205 S0 T0 ; sets the minimum extruding and travel feed rate, mm/sec
M107
;TYPE:Custom
M862.3 P "MK3S" ; printer model check
M862.1 P0.4 ; nozzle diameter check
M115 U3.9.2 ; tell printer latest fw version
G90 ; use absolute coordinates
M83 ; extruder relative mode
M104 S240 ; set extruder temp
M140 S85 ; set bed temp
M190 S85 ; wait for bed temp
M109 S240 ; wait for extruder temp
G28 W ; home all without mesh bed level
G80 ; mesh bed leveling
G1 Y-3.0 F1000.0 ; go outside print area
G92 E0.0
G1 X60.0 E9.0 F1000.0 ; intro line
G1 X100.0 E12.5 F1000.0 ; intro line
G92 E0.0
M221 S95

; Don't change E values below. Excessive value can damage the printer.
M907 E430 ; set extruder motor current
G21 ; set units to millimeters
G90 ; use absolute coordinates
M83 ; use relative distances for extrusion
M900 K0.08 ; Filament gcode LA 1.5
M900 K45 ; Filament gcode LA 1.0
M107
;LAYER_CHANGE
;Z:0.2
;HEIGHT:0.2
;BEFORE_LAYER_CHANGE
G92 E0.0
;0.2


G1 E-1 F2100
G1 Z.2 F720
;AFTER_LAYER_CHANGE
;0.2
; printing object 10PinPad.stl id:3 copy 2
G1 Z.4
G1 X178.143 Y65.196 F10800
G1 Z.2 F720
G1 E1 F2100
M204 S800
;TYPE:Perimeter
;WIDTH:0.419999
G1 F1200
G1 X177.928 Y64.981 E.00955
G1 X150.685 Y64.981 E.85418
G1 X150.469 Y65.196 E.00955
G1 X150.47 Y62.109 E.09679
G1 X178.143 Y62.109 E.86764
G1 X178.143 Y65.136 E.09491
M204 S1000
G1 X178.366 Y65.785 F10800
M204 S800
;WIDTH:0.447174
G1 F1200
G1 X177.928 Y65.358 E.02057
;WIDTH:0.419999
G1 X150.685 Y65.358 E.85418
;WIDTH:0.447178
G1 X150.106 Y65.923 E.02721
G1 X150.093 Y64.765 E.03893
;WIDTH:0.419999
G1 X150.093 Y61.732 E.0951
G1 X178.52 Y61.732 E.89128
G1 X178.52 Y64.765 E.0951
;WIDTH:0.447174
G1 X178.507 Y65.923 E.03893
G1 X178.409 Y65.827 E.00462
M204 S1000
G1 X178.117 Y65.924 F10800
M204 S800
;TYPE:External perimeter
;WIDTH:0.419999
G1 F1200
G1 X178.106 Y71.65 E.17955
G1 X178.049 Y72.17 E.01638
G1 X177.907 Y72.716 E.01771
G1 X177.724 Y72.856 E.0072
;WIDTH:0.418444
G1 X150.889 Y72.856 E.83795
;WIDTH:0.419999
G1 X150.706 Y72.716 E.0072
G1 X150.569 Y72.197 E.01683
G1 X150.508 Y71.667 E.01673
G1 X150.496 Y65.924 E.18007
G1 X150.685 Y65.735 E.00837
G1 X177.928 Y65.735 E.85418
G1 X178.074 Y65.881 E.00648
M204 S1000
G1 X178.517 Y65.925 F10800
G1 E-1 F2100
G1 Z.4 F720
G1 X178.897 Y61.355 F10800
G1 Z.2 F720
G1 E1 F2100
M204 S800
G1 F1200
G1 X178.9 Y73.063 E.36708
G1 X177.724 Y73.231 E.03723
;WIDTH:0.418444
G1 X150.889 Y73.231 E.83795
;WIDTH:0.419999
G1 X149.713 Y73.063 E.03723
G1 X149.716 Y61.355 E.36708
G1 X178.837 Y61.355 E.91304
M204 S1000
G1 X178.742 Y61.724 F10800
;WIPE_START
G1 F8640
G1 X178.859 Y65.469 E-.95
;WIPE_END
G1 E-.05 F2100
G1 Z.4 F720
G1 X178.741 Y65.499 F10800
G1 X178.525 Y73.014
G1 X149.872 Y72.956
G1 X149.872 Y72.643
G1 X150.192 Y72.643
G1 Z.2 F720
G1 E1 F2100
M204 S800
;TYPE:Perimeter
;WIDTH:0.623076
G1 F1200
G1 X150.172 Y72.41 E.01129
;WIDTH:0.583094
G1 X150.152 Y72.177 E.01051
;WIDTH:0.543112
G1 X150.132 Y71.944 E.00973
;WIDTH:0.50313
G1 X150.112 Y71.711 E.00895
;WIDTH:0.463148
G1 X150.11 Y71.647 E.00221
;WIDTH:0.459588
G1 X150.106 Y65.925 E.19827
;WIDTH:0.447178
G1 X150.106 Y65.923 E.00004
M204 S1000
G1 E-1 F2100
G1 Z.4 F720
G1 X178.507 Y65.923 F10800
G1 Z.2 F720
G1 E1 F2100
M204 S800
;WIDTH:0.447176
G1 F1200
G1 X178.507 Y65.924 E.00001
;WIDTH:0.44932
G1 X178.508 Y71.145 E.17645
;WIDTH:0.459658
G1 X178.503 Y71.658 E.01777
;WIDTH:0.489257
G1 X178.488 Y71.937 E.01037
;WIDTH:0.518856
G1 X178.473 Y72.216 E.01106
;WIDTH:0.553574
G1 X178.456 Y72.359 E.00608
;WIDTH:0.588291
G1 X178.438 Y72.501 E.0065
;WIDTH:0.623008
G1 X178.421 Y72.643 E.00691
M204 S1000
G1 E-1 F2100
G1 Z.4 F720
G1 X178.03 Y62.993 F10800
G1 Z.2 F720
G1 E1 F2100
M204 S800
;TYPE:Solid infill
;WIDTH:0.423844
G1 F1200
G1 X177.429 Y62.392 E.02692
G1 X176.89 Y62.392 E.01706
G1 X177.86 Y63.362 E.04345
G1 X177.86 Y63.901 E.01707
G1 X176.351 Y62.392 E.06759
G1 X175.813 Y62.392 E.01706
G1 X177.86 Y64.44 E.09173
G1 X177.861 Y64.698 E.00818
G1 X177.58 Y64.698 E.00888
G1 X175.274 Y62.392 E.1033
G1 X174.735 Y62.392 E.01706
G1 X177.041 Y64.698 E.1033
G1 X176.503 Y64.698 E.01706
G1 X174.197 Y62.392 E.1033
G1 X173.658 Y62.392 E.01706
G1 X175.964 Y64.698 E.1033
G1 X175.425 Y64.698 E.01706
G1 X173.119 Y62.392 E.1033
G1 X172.58 Y62.392 E.01706
G1 X174.886 Y64.698 E.1033
G1 X174.348 Y64.698 E.01706
G1 X172.042 Y62.392 E.1033
G1 X171.503 Y62.392 E.01706
G1 X173.809 Y64.698 E.1033
G1 X173.27 Y64.698 E.01706
G1 X170.964 Y62.392 E.1033
G1 X170.426 Y62.392 E.01706
G1 X172.732 Y64.698 E.1033
G1 X172.193 Y64.698 E.01706
G1 X169.887 Y62.392 E.1033
G1 X169.348 Y62.392 E.01706
G1 X171.654 Y64.698 E.1033
G1 X171.116 Y64.698 E.01706
G1 X168.809 Y62.392 E.1033
G1 X168.271 Y62.392 E.01706
G1 X170.577 Y64.698 E.1033
G1 X170.038 Y64.698 E.01706
G1 X167.732 Y62.392 E.1033
G1 X167.193 Y62.392 E.01706
G1 X169.499 Y64.698 E.1033
G1 X168.961 Y64.698 E.01706
G1 X166.655 Y62.392 E.1033
G1 X166.116 Y62.392 E.01706
G1 X168.422 Y64.698 E.1033
G1 X167.883 Y64.698 E.01706
G1 X165.577 Y62.392 E.1033
G1 X165.039 Y62.392 E.01706
G1 X167.345 Y64.698 E.1033
G1 X166.806 Y64.698 E.01706
G1 X164.5 Y62.392 E.1033
G1 X163.961 Y62.392 E.01706
G1 X166.267 Y64.698 E.1033
G1 X165.728 Y64.698 E.01706
G1 X163.422 Y62.392 E.1033
G1 X162.884 Y62.392 E.01706
M73 Q0 S109
G1 X165.19 Y64.698 E.1033
G1 X164.651 Y64.698 E.01706
G1 X162.345 Y62.392 E.1033
G1 X161.806 Y62.392 E.01706
G1 X164.112 Y64.698 E.1033
G1 X163.574 Y64.698 E.01706
G1 X161.268 Y62.392 E.1033
G1 X160.729 Y62.392 E.01706
G1 X163.035 Y64.698 E.1033
G1 X162.496 Y64.698 E.01706
G1 X160.19 Y62.392 E.1033
G1 X159.651 Y62.392 E.01706
G1 X161.958 Y64.698 E.1033
G1 X161.419 Y64.698 E.01706
G1 X159.113 Y62.392 E.1033
G1 X158.574 Y62.392 E.01706
G1 X160.88 Y64.698 E.1033
G1 X160.341 Y64.698 E.01706
G1 X158.035 Y62.392 E.1033
G1 X157.497 Y62.392 E.01706
G1 X159.803 Y64.698 E.1033
G1 X159.264 Y64.698 E.01706
G1 X156.958 Y62.392 E.1033
G1 X156.419 Y62.392 E.01706
G1 X158.725 Y64.698 E.1033
G1 X158.187 Y64.698 E.01706
G1 X155.88 Y62.392 E.1033
G1 X155.342 Y62.392 E.01706
G1 X157.648 Y64.698 E.1033
G1 X157.109 Y64.698 E.01706
G1 X154.803 Y62.392 E.1033
G1 X154.264 Y62.392 E.01706
G1 X156.57 Y64.698 E.1033
G1 X156.032 Y64.698 E.01706
G1 X153.726 Y62.392 E.1033
G1 X153.187 Y62.392 E.01706
G1 X155.493 Y64.698 E.1033
G1 X154.954 Y64.698 E.01706
G1 X152.648 Y62.392 E.1033
G1 X152.11 Y62.392 E.01706
G1 X154.416 Y64.698 E.1033
G1 X153.877 Y64.698 E.01706
G1 X151.571 Y62.392 E.1033
G1 X151.032 Y62.392 E.01706
G1 X153.338 Y64.698 E.1033
G1 X152.799 Y64.698 E.01706
G1 X150.753 Y62.652 E.09167
G1 X150.753 Y63.19 E.01706
G1 X152.261 Y64.698 E.06754
G1 X151.722 Y64.698 E.01706
G1 X150.753 Y63.729 E.04342
G1 X150.753 Y64.267 E.01706
G1 X151.353 Y64.868 E.0269
M204 S1000
; stop printing object 10PinPad.stl id:3 copy 2
; printing object 10PinPad.stl id:3 copy 1
;WIPE_START
G1 F8640
G1 X150.753 Y64.267 E-.19608
G1 X150.753 Y63.729 E-.12435
G1 X151.722 Y64.698 E-.31654
G1 X152.261 Y64.698 E-.12439
G1 X151.683 Y64.12 E-.18864
;WIPE_END
G1 E-.05 F2100
G1 Z.4 F720
G1 X151.57 Y65.956 F10800
G1 X150.718 Y65.956
G1 X150.469 Y83.766
G1 Z.2 F720
G1 E1 F2100
M204 S800
;TYPE:Perimeter
;WIDTH:0.419999
G1 F1200
G1 X150.47 Y80.679 E.09679
G1 X178.143 Y80.679 E.86764
G1 X178.143 Y83.766 E.09679
G1 X177.928 Y83.551 E.00955
G1 X150.685 Y83.551 E.85418
G1 X150.512 Y83.724 E.00767
M204 S1000
G1 X150.551 Y84.059 F10800
M204 S800
;WIDTH:0.447178
G1 F1200
G1 X150.106 Y84.493 E.0209
G1 X150.093 Y83.335 E.03893
;WIDTH:0.419999
G1 X150.093 Y80.302 E.0951
G1 X178.52 Y80.302 E.89128
G1 X178.52 Y83.335 E.0951
;WIDTH:0.447174
G1 X178.507 Y84.493 E.03893
G1 X177.928 Y83.928 E.02721
;WIDTH:0.419999
G1 X150.685 Y83.928 E.85418
;WIDTH:0.447178
G1 X150.594 Y84.017 E.0043
M204 S1000
G1 X150.685 Y84.305 F10800
M204 S800
;TYPE:External perimeter
;WIDTH:0.419999
G1 F1200
G1 X177.928 Y84.305 E.85418
G1 X178.117 Y84.494 E.00836
M73 P0 R107
G1 X178.106 Y90.22 E.17955
G1 X178.049 Y90.74 E.01638
G1 X177.907 Y91.286 E.01771
G1 X177.724 Y91.426 E.0072
;WIDTH:0.418444
G1 X150.889 Y91.426 E.83795
;WIDTH:0.419999
G1 X150.706 Y91.286 E.0072
G1 X150.569 Y90.767 E.01683
G1 X150.508 Y90.237 E.01673
G1 X150.496 Y84.494 E.18007
G1 X150.643 Y84.347 E.00649
M204 S1000
G1 E-1 F2100
G1 Z.4 F720
G1 X149.716 Y79.925 F10800
G1 Z.2 F720
G1 E1 F2100
M204 S800
G1 F1200
G1 X178.897 Y79.925 E.91492
G1 X178.9 Y91.633 E.36708
G1 X177.724 Y91.801 E.03723
;WIDTH:0.418444
G1 X150.889 Y91.801 E.83795
;WIDTH:0.419999
G1 X149.713 Y91.633 E.03723
G1 X149.716 Y79.985 E.3652
M204 S1000
G1 E-1 F2100
G1 Z.4 F720
G1 X150.192 Y91.213 F10800
G1 Z.2 F720
G1 E1 F2100
M204 S800
;TYPE:Perimeter
;WIDTH:0.623076
G1 F1200
G1 X150.172 Y90.98 E.01129
;WIDTH:0.583094
G1 X150.152 Y90.747 E.01051
;WIDTH:0.543112
G1 X150.132 Y90.514 E.00973
;WIDTH:0.50313
G1 X150.112 Y90.281 E.00895
;WIDTH:0.463148
G1 X150.11 Y90.217 E.00221
;WIDTH:0.459588
G1 X150.106 Y84.495 E.19827
;WIDTH:0.447178
G1 X150.106 Y84.493 E.00004
M204 S1000
G1 E-1 F2100
G1 Z.4 F720
G1 X178.507 Y84.493 F10800
G1 Z.2 F720
G1 E1 F2100
M204 S800
;WIDTH:0.447176
G1 F1200
G1 X178.507 Y84.494 E.00001
;WIDTH:0.44932
G1 X178.508 Y89.715 E.17645
;WIDTH:0.459658
G1 X178.503 Y90.228 E.01777
;WIDTH:0.489257
G1 X178.488 Y90.507 E.01037
;WIDTH:0.518856
G1 X178.473 Y90.786 E.01106
;WIDTH:0.553574
G1 X178.456 Y90.929 E.00608
;WIDTH:0.588291
G1 X178.438 Y91.071 E.0065
;WIDTH:0.623008
G1 X178.421 Y91.213 E.00691
M204 S1000
G1 E-1 F2100
G1 Z.4 F720
G1 X178.03 Y81.563 F10800
G1 Z.2 F720
G1 E1 F2100
M204 S800
;TYPE:Solid infill
;WIDTH:0.423844
G1 F1200
G1 X177.429 Y80.962 E.02692
G1 X176.89 Y80.962 E.01706
G1 X177.86 Y81.932 E.04345
G1 X177.86 Y82.471 E.01707
G1 X176.351 Y80.962 E.06759
G1 X175.813 Y80.962 E.01706
G1 X177.86 Y83.01 E.09173
G1 X177.861 Y83.268 E.00818
G1 X177.58 Y83.268 E.00888
G1 X175.274 Y80.962 E.1033
G1 X174.735 Y80.962 E.01706
G1 X177.041 Y83.268 E.1033
G1 X176.503 Y83.268 E.01706
G1 X174.197 Y80.962 E.1033
G1 X173.658 Y80.962 E.01706
G1 X175.964 Y83.268 E.1033
G1 X175.425 Y83.268 E.01706
G1 X173.119 Y80.962 E.1033
G1 X172.58 Y80.962 E.01706
G1 X174.886 Y83.268 E.1033
G1 X174.348 Y83.268 E.01706
G1 X172.042 Y80.962 E.1033
G1 X171.503 Y80.962 E.01706
G1 X173.809 Y83.268 E.1033
G1 X173.27 Y83.268 E.01706
G1 X170.964 Y80.962 E.1033
G1 X170.426 Y80.962 E.01706
G1 X172.732 Y83.268 E.1033
G1 X172.193 Y83.268 E.01706
G1 X169.887 Y80.962 E.1033
G1 X169.348 Y80.962 E.01706
G1 X171.654 Y83.268 E.1033
G1 X171.116 Y83.268 E.01706
G1 X168.809 Y80.962 E.1033
G1 X168.271 Y80.962 E.01706
G1 X170.577 Y83.268 E.1033
G1 X170.038 Y83.268 E.01706
G1 X167.732 Y80.962 E.1033
G1 X167.193 Y80.962 E.01706
G1 X169.499 Y83.268 E.1033
G1 X168.961 Y83.268 E.01706
G1 X166.655 Y80.962 E.1033
G1 X166.116 Y80.962 E.01706
G1 X168.422 Y83.268 E.1033
G1 X167.883 Y83.268 E.01706
G1 X165.577 Y80.962 E.1033
G1 X165.039 Y80.962 E.01706
G1 X167.345 Y83.268 E.1033
G1 X166.806 Y83.268 E.01706
G1 X164.5 Y80.962 E.1033
G1 X163.961 Y80.962 E.01706
G1 X166.267 Y83.268 E.1033
G1 X165.728 Y83.268 E.01706
G1 X163.422 Y80.962 E.1033
G1 X162.884 Y80.962 E.01706
G1 X165.19 Y83.268 E.1033
G1 X164.651 Y83.268 E.01706
G1 X162.345 Y80.962 E.1033
G1 X161.806 Y80.962 E.01706
G1 X164.112 Y83.268 E.1033
G1 X163.574 Y83.268 E.01706
G1 X161.268 Y80.962 E.1033
G1 X160.729 Y80.962 E.01706
G1 X163.035 Y83.268 E.1033
G1 X162.496 Y83.268 E.01706
G1 X160.19 Y80.962 E.1033
G1 X159.651 Y80.962 E.01706
G1 X161.958 Y83.268 E.1033
G1 X161.419 Y83.268 E.01706
G1 X159.113 Y80.962 E.1033
G1 X158.574 Y80.962 E.01706
G1 X160.88 Y83.268 E.1033
G1 X160.341 Y83.268 E.01706
G1 X158.035 Y80.962 E.1033
G1 X157.497 Y80.962 E.01706
G1 X159.803 Y83.268 E.1033
G1 X159.264 Y83.268 E.01706
G1 X156.958 Y80.962 E.1033
G1 X156.419 Y80.962 E.01706
G1 X158.725 Y83.268 E.1033
G1 X158.187 Y83.268 E.01706
G1 X155.88 Y80.962 E.1033
G1 X155.342 Y80.962 E.01706
G1 X157.648 Y83.268 E.1033
G1 X157.109 Y83.268 E.01706
G1 X154.803 Y80.962 E.1033
G1 X154.264 Y80.962 E.01706
G1 X156.57 Y83.268 E.1033
G1 X156.032 Y83.268 E.01706
G1 X153.726 Y80.962 E.1033
G1 X153.187 Y80.962 E.01706
G1 X155.493 Y83.268 E.1033
G1 X154.954 Y83.268 E.01706
G1 X152.648 Y80.962 E.1033
G1 X152.11 Y80.962 E.01706
G1 X154.416 Y83.268 E.1033
G1 X153.877 Y83.268 E.01706
G1 X151.571 Y80.962 E.1033
G1 X151.032 Y80.962 E.01706
G1 X153.338 Y83.268 E.1033
G1 X152.799 Y83.268 E.01706
G1 X150.753 Y81.222 E.09167
G1 X150.753 Y81.76 E.01706
G1 X152.261 Y83.268 E.06754
G1 X151.722 Y83.268 E.01706
G1 X150.753 Y82.299 E.04342
G1 X150.753 Y82.837 E.01706
G1 X151.353 Y83.438 E.0269
M204 S1000
; stop printing object 10PinPad.stl id:3 copy 1
; printing object 10PinPad.stl id:3 copy 0
;WIPE_START
G1 F8640
G1 X150.753 Y82.837 E-.19608
G1 X150.753 Y82.299 E-.12435
G1 X151.722 Y83.268 E-.31654
G1 X152.261 Y83.268 E-.12439
G1 X151.683 Y82.69 E-.18864
;WIPE_END
G1 E-.05 F2100
G1 Z.4 F720
G1 X150.718 Y84.526 F10800
G1 X150.469 Y102.336
G1 Z.2 F720
G1 E1 F2100
M204 S800
;TYPE:Perimeter
;WIDTH:0.419999
G1 F1200
G1 X150.47 Y99.249 E.09679
G1 X178.143 Y99.249 E.86764
G1 X178.143 Y102.336 E.09679
G1 X177.928 Y102.121 E.00955
G1 X150.685 Y102.121 E.85418
G1 X150.512 Y102.294 E.00767
M204 S1000
M73 P1 R107
G1 X150.551 Y102.629 F10800
M204 S800
;WIDTH:0.447178
G1 F1200
G1 X150.106 Y103.063 E.0209
G1 X150.093 Y101.905 E.03893
;WIDTH:0.419999
G1 X150.093 Y98.872 E.0951
G1 X178.52 Y98.872 E.89128
M73 Q1 S109
G1 X178.52 Y101.905 E.0951
;WIDTH:0.447174
G1 X178.507 Y103.063 E.03893
G1 X177.928 Y102.498 E.02721
;WIDTH:0.419999
G1 X150.685 Y102.498 E.85418
;WIDTH:0.447178
G1 X150.594 Y102.587 E.0043
M204 S1000
G1 X150.685 Y102.875 F10800
M204 S800
;TYPE:External perimeter
;WIDTH:0.419999
G1 F1200
G1 X177.928 Y102.875 E.85418
G1 X178.117 Y103.064 E.00836
G1 X178.106 Y108.79 E.17955
G1 X178.049 Y109.31 E.01638
G1 X177.907 Y109.856 E.01771
G1 X177.724 Y109.996 E.0072
;WIDTH:0.418444
G1 X150.889 Y109.996 E.83795
;WIDTH:0.419999
G1 X150.706 Y109.856 E.0072
G1 X150.569 Y109.337 E.01683
G1 X150.508 Y108.807 E.01673
G1 X150.496 Y103.064 E.18007
G1 X150.643 Y102.917 E.00649
M204 S1000
G1 E-1 F2100
G1 Z.4 F720
G1 X149.716 Y98.495 F10800
G1 Z.2 F720
G1 E1 F2100
M204 S800
G1 F1200
G1 X178.897 Y98.495 E.91492
G1 X178.9 Y110.203 E.36708
G1 X177.724 Y110.371 E.03723
;WIDTH:0.418444
G1 X150.889 Y110.371 E.83795
;WIDTH:0.419999
G1 X149.713 Y110.203 E.03723
G1 X149.716 Y98.555 E.3652
M204 S1000
G1 E-1 F2100
G1 Z.4 F720
G1 X150.192 Y109.783 F10800
G1 Z.2 F720
G1 E1 F2100
M204 S800
;TYPE:Perimeter
;WIDTH:0.623076
G1 F1200
G1 X150.172 Y109.55 E.01129
;WIDTH:0.583094
G1 X150.152 Y109.317 E.01051
;WIDTH:0.543112
G1 X150.132 Y109.084 E.00973
;WIDTH:0.50313
