; generated by PrusaSlicer 2.5.0+linux-x64-GTK3 on 2022-10-22 at 00:30:33 UTC


;
;

;
;
; 

; external perimeters extrusion width = 0.45mm
; perimeters extrusion width = 0.45mm
; infill extrusion width = 0.45mm
; solid infill extrusion width = 0.45mm
; top infill extrusion width = 0.40mm
; support material extrusion width = 0.35mm
; first layer extrusion width = 0.42mm

M73 P0 R61
M73 Q0 S62
M201 X1000 Y1000 Z200 E5000 ; sets maximum accelerations, mm/sec^2
M203 X200 Y200 Z12 E120 ; sets maximum feedrates, mm / sec
M204 P1250 R1250 T1250 ; sets acceleration (P, T) and retract acceleration (R), mm/sec^2
M205 X8.00 Y8.00 Z0.40 E4.50 ; sets the jerk limits, mm/sec
M205 S0 T0 ; sets the minimum extruding and travel feed rate, mm/sec
M107
;TYPE:Custom
M862.3 P "MK3S" ; printer model check
M862.1 P0.4 ; nozzle diameter check
M115 U3.9.2 ; tell printer latest fw version
G90 ; use absolute coordinates
M83 ; extruder relative mode
M104 S240 ; set extruder temp
M140 S85 ; set bed temp
M190 S85 ; wait for bed temp
M109 S240 ; wait for extruder temp
G28 W ; home all without mesh bed level
G80 ; mesh bed leveling
G1 Y-3.0 F1000.0 ; go outside print area
G92 E0.0
G1 X60.0 E9.0 F1000.0 ; intro line
G1 X100.0 E12.5 F1000.0 ; intro line
G92 E0.0
M221 S95

; Don't change E values below. Excessive value can damage the printer.
M907 E430 ; set extruder motor current
G21 ; set units to millimeters
G90 ; use absolute coordinates
M83 ; use relative distances for extrusion
M900 K0.08 ; Filament gcode LA 1.5
M900 K45 ; Filament gcode LA 1.0
M107
;LAYER_CHANGE
;Z:0.2
;HEIGHT:0.2
;BEFORE_LAYER_CHANGE
G92 E0.0
;0.2


G1 E-1 F2100
G1 Z.2 F720
;AFTER_LAYER_CHANGE
;0.2
; printing object BattPack6S7P_Lid.stl id:0 copy 0
G1 Z.4
G1 X80.314 Y106.164 F10800
G1 Z.2 F720
G1 E1 F2100
M204 S800
;TYPE:Support material
;WIDTH:0.42
G1 F1200
G1 X80.775 Y106.233 E.0146
G1 X81.213 Y106.392 E.01461
G1 X81.61 Y106.634 E.0146
G1 X81.952 Y106.95 E.0146
G1 X82.166 Y107.233 E.01112
G1 X82.378 Y107.648 E.01461
G1 X82.504 Y108.096 E.0146
G1 X82.538 Y108.561 E.0146
G1 X82.493 Y108.964 E.01271
G1 X82.356 Y109.409 E.01461
G1 X82.133 Y109.818 E.01461
G1 X81.834 Y110.175 E.01461
G1 X81.469 Y110.465 E.01461
G1 X81.055 Y110.678 E.01461
G1 X80.606 Y110.804 E.01461
G1 X80.142 Y110.839 E.01461
G1 X79.679 Y110.781 E.01461
G1 X79.238 Y110.633 E.01461
G1 X78.834 Y110.4 E.01461
G1 X78.485 Y110.091 E.01461
G1 X78.204 Y109.72 E.01461
G1 X78.001 Y109.3 E.01461
G1 X77.886 Y108.849 E.01461
G1 X77.862 Y108.444 E.01271
G1 X77.919 Y107.982 E.01461
G1 X78.067 Y107.54 E.0146
G1 X78.299 Y107.137 E.0146
G1 X78.607 Y106.787 E.01461
G1 X78.978 Y106.505 E.0146
G1 X79.398 Y106.303 E.01461
G1 X79.849 Y106.187 E.0146
G1 X80.258 Y106.162 E.01284
M204 S1000
G1 X81.845 Y109.914 F10800
M204 S800
G1 F1200
G1 X81.845 Y107.363 E.07999
G1 X81.63 Y107.103 E.01059
M73 Q0 S61
G1 X81.447 Y106.936 E.00776
G1 X81.426 Y106.92 E.00082
G1 X81.426 Y110.08 E.09905
G1 X81.244 Y110.205 E.00694
G1 X81.007 Y110.329 E.00837
G1 X81.007 Y106.671 E.11468
G1 X80.588 Y106.538 E.01378
G1 X80.588 Y110.462 E.12301
G1 X80.349 Y110.495 E.00756
G1 X80.169 Y110.5 E.00565
G1 X80.169 Y106.5 E.1254
G1 X79.75 Y106.551 E.01323
G1 X79.75 Y110.449 E.12222
G1 X79.563 Y110.396 E.00611
G1 X79.332 Y110.301 E.00785
G1 X79.332 Y106.699 E.11295
G1 X79.072 Y106.849 E.00939
G1 X78.913 Y106.97 E.00628
G1 X78.913 Y110.03 E.09595
G1 X78.702 Y109.824 E.00923
G1 X78.494 Y109.544 E.01096
G1 X78.494 Y107.16 E.07472
M204 S1000
;WIPE_START
G1 F8640
G1 X78.494 Y109.544 E-.55027
G1 X78.702 Y109.824 E-.08073
G1 X78.913 Y110.03 E-.06798
G1 X78.913 Y108.943 E-.25102
;WIPE_END
G1 E-.05 F2100
G1 Z.4 F720
G1 X82.709 Y105.715 F10800
G1 X121.351 Y72.863
G1 X125.114 Y69.664
G1 Z.2 F720
G1 E1 F2100
M204 S800
G1 F1200
G1 X125.575 Y69.733 E.01461
G1 X126.013 Y69.892 E.0146
G1 X126.41 Y70.134 E.0146
G1 X126.752 Y70.45 E.0146
G1 X126.966 Y70.733 E.01112
G1 X127.178 Y71.148 E.01461
G1 X127.304 Y71.596 E.0146
G1 X127.338 Y72.061 E.0146
G1 X127.293 Y72.464 E.01271
G1 X127.156 Y72.909 E.01461
G1 X126.933 Y73.318 E.01461
G1 X126.634 Y73.675 E.01461
G1 X126.269 Y73.965 E.01461
G1 X125.855 Y74.178 E.01461
G1 X125.406 Y74.304 E.01461
G1 X124.942 Y74.339 E.01461
G1 X124.479 Y74.281 E.01461
G1 X124.038 Y74.133 E.01461
G1 X123.634 Y73.9 E.01461
G1 X123.285 Y73.591 E.01461
G1 X123.004 Y73.22 E.01461
G1 X122.801 Y72.8 E.01461
G1 X122.686 Y72.349 E.01461
G1 X122.662 Y71.944 E.01271
G1 X122.719 Y71.482 E.0146
G1 X122.867 Y71.04 E.01461
G1 X123.099 Y70.637 E.0146
G1 X123.407 Y70.287 E.0146
G1 X123.778 Y70.005 E.0146
G1 X124.198 Y69.803 E.01461
G1 X124.649 Y69.687 E.0146
G1 X125.058 Y69.662 E.01284
M204 S1000
G1 X126.676 Y73.378 F10800
M204 S800
G1 F1200
G1 X126.676 Y70.909 E.0774
G1 X126.5 Y70.678 E.0091
G1 X126.257 Y70.444 E.01058
G1 X126.257 Y73.556 E.09755
G1 X126.085 Y73.68 E.00665
G1 X125.838 Y73.815 E.00883
G1 X125.838 Y70.185 E.11381
G1 X125.419 Y70.045 E.01385
G1 X125.419 Y73.955 E.12258
G1 X125.15 Y73.995 E.00854
G1 X125 Y74 E.00469
G1 X125 Y70 E.12539
G1 X124.581 Y70.045 E.01321
G1 X124.581 Y73.955 E.12262
G1 X124.363 Y73.896 E.00709
G1 X124.162 Y73.816 E.00678
G1 X124.162 Y70.184 E.11387
G1 X123.959 Y70.293 E.00723
G1 X123.743 Y70.446 E.00829
G1 X123.743 Y73.554 E.09748
G1 X123.534 Y73.361 E.00895
G1 X123.324 Y73.09 E.01072
G1 X123.324 Y70.623 E.07735
M204 S1000
;WIPE_START
G1 F8640
G1 X123.324 Y73.09 E-.56965
G1 X123.534 Y73.361 E-.07894
G1 X123.743 Y73.554 E-.06589
G1 X123.743 Y72.534 E-.23552
;WIPE_END
G1 E-.05 F2100
G1 Z.4 F720
G1 X127.188 Y75.044 F10800
G1 X168.366 Y105.036
G1 X169.914 Y106.164
G1 Z.2 F720
G1 E1 F2100
M204 S800
G1 F1200
G1 X170.375 Y106.233 E.0146
G1 X170.813 Y106.392 E.0146
G1 X171.21 Y106.634 E.0146
G1 X171.552 Y106.95 E.01461
G1 X171.766 Y107.233 E.01112
G1 X171.978 Y107.648 E.0146
G1 X172.104 Y108.096 E.0146
G1 X172.138 Y108.561 E.01461
G1 X172.093 Y108.964 E.01271
G1 X171.956 Y109.409 E.01461
G1 X171.733 Y109.818 E.01461
G1 X171.434 Y110.175 E.01461
G1 X171.069 Y110.465 E.01461
G1 X170.655 Y110.678 E.01461
G1 X170.206 Y110.804 E.01461
G1 X169.742 Y110.839 E.01461
G1 X169.279 Y110.781 E.01461
G1 X168.838 Y110.633 E.01461
G1 X168.434 Y110.4 E.01461
G1 X168.085 Y110.091 E.01461
G1 X167.804 Y109.72 E.01461
G1 X167.601 Y109.3 E.01461
G1 X167.486 Y108.849 E.01461
G1 X167.462 Y108.444 E.01271
G1 X167.519 Y107.982 E.0146
G1 X167.667 Y107.54 E.0146
G1 X167.899 Y107.137 E.0146
G1 X168.207 Y106.787 E.01461
G1 X168.578 Y106.505 E.0146
G1 X168.998 Y106.303 E.01461
G1 X169.449 Y106.187 E.0146
G1 X169.858 Y106.162 E.01284
M204 S1000
G1 X171.506 Y109.839 F10800
M204 S800
G1 F1200
G1 X171.506 Y107.459 E.07462
G1 X171.332 Y107.214 E.00941
G1 X171.087 Y106.97 E.01084
G1 X171.087 Y110.03 E.09594
G1 X170.885 Y110.18 E.0079
G1 X170.668 Y110.301 E.00778
G1 X170.668 Y106.699 E.11295
G1 X170.486 Y106.622 E.00623
G1 X170.25 Y106.552 E.00771
G1 X170.25 Y110.448 E.12214
G1 X169.831 Y110.499 E.01323
G1 X169.831 Y106.501 E.12535
G1 X169.702 Y106.503 E.00403
G1 X169.412 Y106.539 E.00918
G1 X169.412 Y110.461 E.12299
G1 X168.993 Y110.33 E.01377
G1 X168.993 Y106.67 E.11474
G1 X168.8 Y106.768 E.00677
G1 X168.574 Y106.921 E.00857
G1 X168.574 Y110.079 E.099
G1 X168.513 Y110.031 E.00242
G1 X168.334 Y109.861 E.00776
G1 X168.155 Y109.635 E.00902
G1 X168.155 Y107.087 E.0799
M204 S1000
;WIPE_START
G1 F8640
G1 X168.155 Y109.635 E-.5884
G1 X168.334 Y109.861 E-.06645
G1 X168.513 Y110.031 E-.05714
G1 X168.574 Y110.079 E-.01779
G1 X168.574 Y109.125 E-.22022
;WIPE_END
G1 E-.05 F2100
G1 Z.4 F720
G1 X166.729 Y110.65 F10800
G1 X137.829 Y134.548
G1 X136.48 Y135.664
G1 Z.2 F720
G1 E1 F2100
M204 S800
G1 F1200
G1 X136.941 Y135.733 E.0146
G1 X137.379 Y135.892 E.0146
G1 X137.777 Y136.134 E.0146
G1 X138.118 Y136.45 E.0146
G1 X138.333 Y136.733 E.01112
G1 X138.545 Y137.148 E.0146
G1 X138.67 Y137.596 E.0146
G1 X138.705 Y138.061 E.01461
G1 X138.66 Y138.464 E.01271
G1 X138.522 Y138.909 E.01461
G1 X138.3 Y139.318 E.01461
G1 X138 Y139.675 E.01461
G1 X137.636 Y139.965 E.01461
G1 X137.221 Y140.178 E.01461
G1 X136.773 Y140.304 E.01461
G1 X136.308 Y140.339 E.01461
G1 X135.846 Y140.281 E.01461
G1 X135.404 Y140.133 E.01461
G1 X135.001 Y139.9 E.01461
G1 X134.651 Y139.591 E.01461
G1 X134.37 Y139.22 E.01461
G1 X134.168 Y138.8 E.01461
G1 X134.053 Y138.349 E.01461
G1 X134.028 Y137.944 E.01271
G1 X134.085 Y137.482 E.0146
G1 X134.233 Y137.04 E.0146
G1 X134.466 Y136.637 E.01461
G1 X134.774 Y136.287 E.0146
G1 X135.145 Y136.005 E.01461
G1 X135.564 Y135.803 E.0146
G1 X136.015 Y135.687 E.01461
G1 X136.424 Y135.662 E.01284
M204 S1000
G1 X137.988 Y139.44 F10800
M204 S800
G1 F1200
G1 X137.988 Y136.831 E.08183
G1 X137.797 Y136.603 E.00934
G1 X137.614 Y136.436 E.00776
G1 X137.569 Y136.403 E.00173
G1 X137.569 Y139.597 E.10015
G1 X137.411 Y139.705 E.00603
G1 X137.15 Y139.839 E.00918
G1 X137.15 Y136.161 E.11534
G1 X136.731 Y136.034 E.01373
G1 X136.731 Y139.966 E.12331
G1 X136.516 Y139.995 E.00681
G1 X136.312 Y139.999 E.00638
G1 X136.312 Y136.001 E.12538
G1 X135.893 Y136.057 E.01326
G1 X135.893 Y139.943 E.12184
G1 X135.684 Y139.88 E.00686
G1 X135.474 Y139.789 E.00716
G1 X135.474 Y136.211 E.11219
G1 X135.238 Y136.349 E.00857
G1 X135.055 Y136.49 E.00724
G1 X135.055 Y139.51 E.09471
G1 X134.802 Y139.245 E.0115
G1 X134.636 Y139.003 E.0092
G1 X134.636 Y136.69 E.07253
M204 S1000
;WIPE_START
G1 F8640
G1 X134.636 Y139.003 E-.5341
G1 X134.802 Y139.245 E-.06777
G1 X135.055 Y139.51 E-.08467
G1 X135.055 Y138.369 E-.26346
;WIPE_END
G1 E-.05 F2100
G1 Z.4 F720
G1 X134.397 Y134.81 F10800
G1 X121.34 Y72.815
G1 X121.311 Y72.671
G1 X121.292 Y72.559
G1 X121.277 Y72.446
G1 X121.263 Y72.3
G1 X121.254 Y72.187
G1 X121.252 Y72.073
G1 X121.252 Y71.927
G1 X121.254 Y71.813
G1 X121.263 Y71.7
G1 X121.277 Y71.554
G1 X121.292 Y71.441
G1 X121.311 Y71.329
G1 X121.34 Y71.185
G1 X121.366 Y71.075
G1 X121.396 Y70.965
G1 X121.44 Y70.825
G1 X121.476 Y70.717
G1 X121.517 Y70.612
G1 X121.574 Y70.476
G1 X121.621 Y70.373
G1 X121.673 Y70.272
G1 X121.743 Y70.143
G1 X121.8 Y70.044
G1 X121.862 Y69.949
G1 X121.944 Y69.828
G1 X122.011 Y69.736
G1 X122.081 Y69.647
G1 X122.176 Y69.534
G1 X122.251 Y69.449
G1 X122.33 Y69.368
G1 X122.435 Y69.265
G1 X122.518 Y69.188
G1 X122.524 Y69.184
G1 X122.172 Y68.764
G1 Z.2 F720
G1 E1 F2100
M204 S800
;TYPE:Perimeter
;WIDTH:0.419999
G1 F1200
G1 X121.777 Y69.138 E.01704
G1 X121.274 Y69.833 E.02691
G1 X120.918 Y70.614 E.02692
G1 X120.725 Y71.439 E.02655
G1 X120.694 Y72.181 E.02331
G1 X120.816 Y73.031 E.02692
G1 X121.103 Y73.84 E.02691
G1 X121.545 Y74.576 E.02691
G1 X122.124 Y75.209 E.02691
G1 X122.817 Y75.716 E.02691
G1 X123.578 Y76.07 E.02632
G1 X124.257 Y76.245 E.022
G1 X124.926 Y76.309 E.02107
G1 X125.23 Y76.298 E.00953
G1 X125.84 Y76.228 E.01928
G1 X126.669 Y75.974 E.02716
G1 X127.457 Y75.537 E.02826
G1 X128.076 Y75.02 E.02531
G1 X128.614 Y74.35 E.02691
G1 X129.008 Y73.587 E.02691
G1 X129.243 Y72.762 E.02691
G1 X129.31 Y71.906 E.02691
G1 X129.206 Y71.054 E.02691
G1 X128.935 Y70.24 E.02691
G1 X128.508 Y69.495 E.02691
G1 X128.076 Y68.98 E.02105
G1 X127.835 Y68.764 E.01016
G1 X173.036 Y68.764 E1.41724
G1 X173.036 Y105.671 E1.15717
G1 X172.742 Y105.349 E.01365
G1 X172.059 Y104.829 E.02691
G1 X171.287 Y104.454 E.02691
G1 X170.456 Y104.24 E.02691
G1 X169.599 Y104.194 E.02691
G1 X168.75 Y104.319 E.02691
G1 X167.942 Y104.61 E.02691
G1 X167.208 Y105.056 E.02691
G1 X166.577 Y105.638 E.02691
G1 X166.052 Y106.379 E.0285
G1 X165.716 Y107.122 E.02555
G1 X165.525 Y107.939 E.02631
G1 X165.494 Y108.681 E.02331
G1 X165.616 Y109.531 E.02692
G1 X165.903 Y110.34 E.02691
G1 X166.345 Y111.076 E.02691
G1 X166.787 Y111.581 E.02104
G1 X167.174 Y111.9 E.01573
G1 X167.617 Y112.216 E.01705
G1 X168.378 Y112.57 E.02632
G1 X169.057 Y112.745 E.022
G1 X169.898 Y112.81 E.02645
G1 X170.64 Y112.728 E.02341
G1 X171.462 Y112.477 E.02693
G1 X172.217 Y112.069 E.02691
G1 X172.742 Y111.651 E.02105
G1 X173.036 Y111.329 E.01365
G1 X173.036 Y122.486 E.3498
G1 X173.013 Y123.419 E.02928
G1 X172.945 Y124.336 E.02883
G1 X172.833 Y125.249 E.02883
G1 X172.675 Y126.155 E.02883
G1 X172.474 Y127.052 E.02883
G1 X172.229 Y127.939 E.02883
G1 X171.94 Y128.812 E.02883
G1 X171.609 Y129.67 E.02883
G1 X171.254 Y130.471 E.02749
G1 X170.823 Y131.333 E.03021
G1 X170.37 Y132.132 E.0288
G1 X169.878 Y132.909 E.02883
G1 X169.349 Y133.661 E.02883
G1 X168.783 Y134.386 E.02883
G1 X168.182 Y135.082 E.02883
G1 X167.548 Y135.748 E.02883
G1 X166.882 Y136.382 E.02883
G1 X166.186 Y136.982 E.0288
G1 X165.426 Y137.573 E.03021
G1 X164.709 Y138.078 E.02749
G1 X163.932 Y138.57 E.02883
G1 X163.132 Y139.023 E.02883
G1 X162.31 Y139.437 E.02883
G1 X161.47 Y139.809 E.02883
G1 X160.612 Y140.14 E.02883
G1 X159.739 Y140.429 E.02883
G1 X158.852 Y140.674 E.02883
G1 X157.955 Y140.875 E.02883
G1 X157.049 Y141.033 E.02883
G1 X156.136 Y141.145 E.02883
G1 X155.219 Y141.213 E.02883
G1 X154.286 Y141.236 E.02928
G1 X139.195 Y141.236 E.47316
G1 X139.646 Y140.795 E.01978
G1 X140.135 Y140.09 E.02691
G1 X140.47 Y139.32 E.02632
G1 X140.629 Y138.637 E.022
G1 X140.672 Y137.794 E.02645
G1 X140.572 Y137.054 E.02341
G1 X140.301 Y136.24 E.02693
G1 X139.874 Y135.495 E.02691
G1 X139.308 Y134.849 E.02691
G1 X138.626 Y134.329 E.02691
G1 X137.853 Y133.954 E.02691
G1 X137.022 Y133.74 E.02691
G1 X136.165 Y133.694 E.02691
G1 X135.316 Y133.819 E.02691
G1 X134.508 Y134.11 E.02692
G1 X133.774 Y134.556 E.02691
G1 X133.143 Y135.138 E.02691
G1 X132.64 Y135.833 E.02691
G1 X132.285 Y136.614 E.02691
G1 X132.091 Y137.451 E.02691
G1 X132.067 Y138.309 E.02691
G1 X132.213 Y139.154 E.02691
G1 X132.524 Y139.954 E.02691
G1 X132.988 Y140.677 E.02691
G1 X133.52 Y141.236 E.0242
G1 X95.714 Y141.236 E1.18537
G1 X94.781 Y141.213 E.02928
G1 X93.864 Y141.145 E.02883
G1 X92.951 Y141.033 E.02883
G1 X92.045 Y140.875 E.02883
G1 X91.148 Y140.674 E.02883
G1 X90.261 Y140.429 E.02883
G1 X89.388 Y140.14 E.02883
G1 X88.53 Y139.809 E.02883
G1 X87.69 Y139.437 E.02883
G1 X86.868 Y139.023 E.02883
G1 X86.068 Y138.57 E.02883
G1 X85.291 Y138.078 E.02883
G1 X84.574 Y137.573 E.02749
G1 X83.814 Y136.982 E.03021
G1 X83.118 Y136.382 E.0288
G1 X82.452 Y135.748 E.02883
G1 X81.818 Y135.082 E.02883
G1 X81.217 Y134.386 E.02883
G1 X80.652 Y133.661 E.02883
G1 X80.122 Y132.909 E.02883
G1 X79.63 Y132.132 E.02883
G1 X79.177 Y131.332 E.02883
G1 X78.763 Y130.51 E.02883
G1 X78.391 Y129.67 E.02883
G1 X78.06 Y128.812 E.02883
G1 X77.771 Y127.939 E.02883
G1 X77.526 Y127.052 E.02883
G1 X77.325 Y126.155 E.02883
G1 X77.167 Y125.249 E.02883
G1 X77.055 Y124.336 E.02883
G1 X76.987 Y123.419 E.02883
G1 X76.964 Y122.486 E.02928
G1 X76.964 Y111.332 E.34971
G1 X77.195 Y111.589 E.01084
G1 X77.867 Y112.123 E.02691
G1 X78.631 Y112.514 E.02691
G1 X79.457 Y112.745 E.02691
G1 X80.298 Y112.81 E.02644
G1 X81.04 Y112.728 E.02341
G1 X81.862 Y112.477 E.02693
G1 X82.459 Y112.171 E.02105
G1 X82.884 Y111.856 E.01658
G1 X83.276 Y111.52 E.01621
G1 X83.814 Y110.85 E.02691
G1 X84.208 Y110.087 E.02691
G1 X84.443 Y109.262 E.02691
G1 X84.51 Y108.406 E.02691
G1 X84.406 Y107.554 E.02691
G1 X84.135 Y106.74 E.02691
G1 X83.708 Y105.995 E.02691
G1 X83.142 Y105.349 E.02691
G1 X82.459 Y104.829 E.02691
G1 X81.687 Y104.454 E.02691
G1 X80.856 Y104.24 E.02691
G1 X79.999 Y104.194 E.02691
M73 Q1 S61
G1 X79.15 Y104.319 E.02691
G1 X78.342 Y104.61 E.02691
G1 X77.608 Y105.056 E.02691
G1 X76.964 Y105.655 E.02757
G1 X76.964 Y68.764 E1.15667
G1 X122.112 Y68.764 E1.41557
M204 S1000
M73 P1 R61
G1 E-1 F2100
G1 Z.4 F720
G1 X123.433 Y68.389 F10800
G1 Z.2 F720
G1 E1 F2100
M204 S800
G1 F1200
G1 X122.658 Y68.838 E.02809
G1 X122.078 Y69.365 E.02457
G1 X121.613 Y69.997 E.02457
G1 X121.284 Y70.707 E.02457
G1 X121.102 Y71.462 E.02435
G1 X121.069 Y72.136 E.02115
G1 X121.174 Y72.913 E.02457
G1 X121.43 Y73.653 E.02456
G1 X121.829 Y74.328 E.02456
G1 X122.353 Y74.91 E.02456
G1 X122.982 Y75.377 E.02456
G1 X123.68 Y75.707 E.02421
G1 X124.293 Y75.87 E.01989
G1 X124.962 Y75.934 E.02107
G1 X125.738 Y75.865 E.02444
G1 X126.497 Y75.638 E.02482
G1 X127.222 Y75.242 E.02591
G1 X127.787 Y74.777 E.02296
G1 X128.282 Y74.17 E.02457
G1 X128.647 Y73.476 E.02457
G1 X128.868 Y72.724 E.02457
G1 X128.934 Y71.944 E.02457
G1 X128.845 Y71.165 E.02457
G1 X128.604 Y70.42 E.02457
G1 X128.219 Y69.737 E.02457
