; generated by PrusaSlicer 2.6.1+linux-x64-GTK3 on 2023-11-18 at 12:43:43 UTC


;
;
; 

; external perimeters extrusion width = 0.45mm
; perimeters extrusion width = 0.45mm
; infill extrusion width = 0.45mm
; solid infill extrusion width = 0.45mm
; top infill extrusion width = 0.40mm
; support material extrusion width = 0.35mm
; first layer extrusion width = 0.42mm

M73 P0 R30
M73 Q0 S31
M201 X1000 Y1000 Z200 E5000 ; sets maximum accelerations, mm/sec^2
M203 X200 Y200 Z12 E120 ; sets maximum feedrates, mm / sec
M204 S1250 T1250 ; sets acceleration (S) and retract acceleration (R), mm/sec^2
M205 X8.00 Y8.00 Z0.40 E4.50 ; sets the jerk limits, mm/sec
M205 S0 T0 ; sets the minimum extruding and travel feed rate, mm/sec
;TYPE:Custom
M862.3 P "MK3S" ; printer model check
M862.1 P0.4 ; nozzle diameter check
M115 U3.11.0 ; tell printer latest fw version
G90 ; use absolute coordinates
M83 ; extruder relative mode
M104 S240 ; set extruder temp
M140 S85 ; set bed temp
M190 S85 ; wait for bed temp
M109 S240 ; wait for extruder temp
G28 W ; home all without mesh bed level
G80 ; mesh bed leveling

G1 Z0.2 F720
G1 Y-3 F1000 ; go outside print area
G92 E0
G1 X60 E9 F1000 ; intro line
G1 X100 E12.5 F1000 ; intro line

G92 E0
M221 S95

; Don't change E values below. Excessive value can damage the printer.
M907 E430 ; set extruder motor current
G21 ; set units to millimeters
G90 ; use absolute coordinates
M83 ; use relative distances for extrusion
M900 K0.08 ; Filament gcode LA 1.5
M900 K45 ; Filament gcode LA 1.0
M107
;LAYER_CHANGE
;Z:0.2
;HEIGHT:0.2
;BEFORE_LAYER_CHANGE
G92 E0.0
;0.2


G1 E-1 F2100
G1 Z.2 F720
;AFTER_LAYER_CHANGE
;0.2
G1 Z.4
G1 X108.397 Y84.676 F10800
G1 Z.2 F720
G1 E1 F2100
M204 S800
;TYPE:Skirt/Brim
;WIDTH:0.42
G1 F1200
G1 X109.407 Y83.504 E.04851
G1 X110.238 Y82.743 E.03533
G1 X111.228 Y82.008 E.03866
G1 X112.58 Y81.242 E.04872
G1 X113.722 Y80.769 E.03876
G1 X115.338 Y80.331 E.0525
G1 X116.996 Y80.135 E.05235
G1 X129.527 Y80.171 E.3929
M73 Q0 S30
G1 X141.977 Y82.721 E.39846
G1 X143.179 Y83.367 E.04279
G1 X143.877 Y85.05 E.05713
G1 X143.877 Y124.95 E1.25104
G1 X143.485 Y126.257 E.04278
G1 X141.977 Y127.279 E.05712
G1 X129.527 Y129.829 E.39846
G1 X117 Y129.866 E.39278
G1 X115.338 Y129.669 E.05248
G1 X114.142 Y129.37 E.03865
G1 X112.689 Y128.809 E.04884
G1 X111.228 Y127.992 E.05248
G1 X110.238 Y127.257 E.03866
G1 X109.031 Y126.097 E.05249
G1 X108.016 Y124.783 E.05206
G1 X107.241 Y123.417 E.04924
G1 X106.769 Y122.278 E.03866
G1 X106.332 Y120.666 E.05237
G1 X106.173 Y119.561 E.035
G1 X106.123 Y118.5 E.0333
G1 X106.123 Y91.5 E.84657
G1 X106.255 Y89.773 E.05431
G1 X106.629 Y88.146 E.05234
G1 X107.012 Y87.093 E.03513
G1 X107.712 Y85.701 E.04885
G1 X108.364 Y84.726 E.03678
M204 S1000
; printing object IMU_cover_rear.stl id:0 copy 0
;WIPE_START
G1 F8640
G1 X109.407 Y83.504 E-.37097
G1 X110.238 Y82.743 E-.26018
G1 X111.228 Y82.008 E-.28471
G1 X111.545 Y81.828 E-.08414
;WIPE_END
G1 Z.4 F720
G1 X128.284 Y124.645 F10800
G1 Z.2 F720
G1 E1 F2100
M204 S800
;TYPE:Perimeter
;WIDTH:0.419999
G1 F1200
G1 X128.263 Y124.729 E.00271
G1 X128.263 Y126.712 E.06218
G1 X117.104 Y126.702 E.34988
G1 X115.898 Y126.553 E.0381
G1 X114.727 Y126.229 E.0381
G1 X113.995 Y125.926 E.02484
G1 X112.932 Y125.324 E.0383
G1 X112.296 Y124.852 E.02483
G1 X111.411 Y124.009 E.03832
G1 X110.904 Y123.392 E.02504
G1 X110.46 Y122.727 E.02507
G1 X109.911 Y121.636 E.03829
G1 X109.641 Y120.884 E.02505
G1 X109.447 Y120.109 E.02505
G1 X109.336 Y119.205 E.02856
G1 X109.287 Y118.49 E.02247
G1 X109.287 Y91.524 E.8455
G1 X109.378 Y90.288 E.03886
M73 Q1 S30
G1 X109.534 Y89.505 E.02503
G1 X109.766 Y88.74 E.02506
G1 X110.258 Y87.629 E.0381
G1 X110.908 Y86.603 E.03808
M73 P1 R30
G1 X111.415 Y85.985 E.02506
G1 X111.98 Y85.42 E.02505
G1 X112.944 Y84.668 E.03833
G1 X113.629 Y84.257 E.02505
G1 X114.357 Y83.913 E.02525
G1 X115.116 Y83.641 E.02528
G1 X115.891 Y83.447 E.02505
G1 X116.795 Y83.336 E.02856
G1 X117.51 Y83.287 E.02247
G1 X128.263 Y83.287 E.33715
G1 X128.263 Y85.271 E.06221
G1 X128.285 Y85.428 E.00497
G1 X128.374 Y85.608 E.0063
G1 X128.578 Y85.778 E.00833
G1 X128.829 Y85.837 E.00808
G1 X140.713 Y85.837 E.37261
G1 X140.713 Y124.163 E1.20168
G1 X128.792 Y124.164 E.37377
G1 X128.517 Y124.256 E.00909
G1 X128.328 Y124.465 E.00884
G1 X128.298 Y124.587 E.00394
M204 S1000
G1 X128.64 Y124.729 F10800
M204 S800
;TYPE:External perimeter
G1 F1200
G1 X128.64 Y127.09 E.07403
G1 X117.081 Y127.079 E.36242
G1 X115.824 Y126.924 E.03971
G1 X114.604 Y126.587 E.03968
G1 X113.829 Y126.266 E.0263
G1 X112.726 Y125.641 E.03975
G1 X112.052 Y125.141 E.02631
G1 X111.134 Y124.266 E.03976
G1 X110.601 Y123.617 E.02633
G1 X110.134 Y122.918 E.02636
G1 X109.563 Y121.785 E.03978
G1 X109.28 Y120.993 E.02637
G1 X109.076 Y120.178 E.02634
G1 X108.962 Y119.251 E.02928
G1 X108.91 Y118.495 E.02376
G1 X108.91 Y91.51 E.84609
G1 X109.004 Y90.237 E.04002
G1 X109.168 Y89.413 E.02634
G1 X109.412 Y88.608 E.02637
G1 X109.925 Y87.451 E.03968
G1 X110.602 Y86.381 E.0397
G1 X111.135 Y85.732 E.02633
G1 X111.73 Y85.137 E.02638
G1 X112.73 Y84.357 E.03976
G1 X113.451 Y83.924 E.02637
G1 X114.213 Y83.564 E.02642
G1 X115.007 Y83.28 E.02644
G1 X115.822 Y83.076 E.02634
G1 X116.748 Y82.962 E.02925
G1 X117.505 Y82.91 E.02379
G1 X128.64 Y82.91 E.34913
G1 X128.64 Y85.271 E.07403
G1 X128.691 Y85.401 E.00438
G1 X128.829 Y85.46 E.00471
G1 X141.09 Y85.46 E.38443
G1 X141.09 Y124.54 E1.22532
G1 X128.829 Y124.54 E.38443
G1 X128.704 Y124.587 E.00419
G1 X128.665 Y124.674 E.00299
M204 S1000
G1 X128.254 Y124.832 F10800
;WIPE_START
G1 F8640
G1 X128.64 Y127.09 E-.55789
G1 X126.725 Y127.088 E-.44211
;WIPE_END
G1 Z.4 F720
G1 X140.6 Y86.718 F10800
G1 Z.2 F720
G1 E1 F2100
M204 S800
;TYPE:Solid infill
;WIDTH:0.422792
G1 F1200
G1 X140.001 Y86.12 E.02674
G1 X139.464 Y86.12 E.01696
G1 X140.43 Y87.086 E.04315
G1 X140.43 Y87.623 E.01696
G1 X138.927 Y86.12 E.06714
G1 X138.389 Y86.12 E.01699
G1 X140.43 Y88.16 E.09115
G1 X140.43 Y88.698 E.01699
G1 X137.852 Y86.12 E.11516
G1 X137.315 Y86.119 E.01696
G1 X140.43 Y89.235 E.13917
G1 X140.43 Y89.772 E.01696
G1 X136.777 Y86.119 E.16318
G1 X136.24 Y86.119 E.01696
G1 X140.43 Y90.309 E.18717
G1 X140.43 Y90.846 E.01696
G1 X135.703 Y86.119 E.21116
G1 X135.166 Y86.119 E.01696
G1 X140.43 Y91.384 E.23517
G1 X140.43 Y91.921 E.01696
G1 X134.628 Y86.119 E.25918
G1 X134.091 Y86.119 E.01696
G1 X140.43 Y92.458 E.28316
G1 X140.43 Y92.995 E.01696
G1 X133.554 Y86.119 E.30715
G1 X133.016 Y86.119 E.01699
G1 X140.43 Y93.533 E.33118
G1 X140.43 Y94.07 E.01696
G1 X132.479 Y86.119 E.35517
G1 X131.942 Y86.119 E.01696
G1 X140.43 Y94.607 E.37916
G1 X140.43 Y95.144 E.01696
G1 X131.405 Y86.119 E.40315
G1 X130.867 Y86.119 E.01699
M73 P2 R30
M73 Q2 S30
G1 X140.43 Y95.681 E.42716
G1 X140.43 Y96.219 E.01699
G1 X130.33 Y86.118 E.45119
G1 X129.793 Y86.118 E.01696
G1 X140.43 Y96.756 E.47518
G1 X140.43 Y97.293 E.01696
G1 X129.086 Y85.949 E.50674
M204 S1000
;WIPE_START
G1 F8640
G1 X132.148 Y89.011 E-1
;WIPE_END
G1 Z.4 F720
G1 X128.15 Y83.938 F10800
G1 Z.2 F720
G1 E1 F2100
M204 S800
G1 F1200
G1 X127.781 Y83.57 E.01646
G1 X127.244 Y83.57 E.01696
G1 X127.98 Y84.306 E.03288
G1 X127.98 Y84.843 E.01696
G1 X126.707 Y83.57 E.05686
G1 X126.17 Y83.57 E.01696
G1 X127.997 Y85.397 E.08161
G1 X128.012 Y85.505 E.00344
G1 X128.078 Y85.669 E.00558
G1 X128.211 Y85.855 E.00722
G1 X128.449 Y86.031 E.00935
G1 X128.708 Y86.109 E.00854
G1 X140.43 Y97.83 E.5236
G1 X140.43 Y98.368 E.01699
G1 X125.632 Y83.57 E.66103
G1 X125.095 Y83.57 E.01696
G1 X140.43 Y98.905 E.68502
G1 X140.43 Y99.442 E.01696
G1 X124.558 Y83.57 E.709
G1 X124.021 Y83.57 E.01696
G1 X140.43 Y99.979 E.73299
G1 X140.43 Y100.516 E.01696
G1 X123.484 Y83.57 E.75698
G1 X122.946 Y83.57 E.01699
G1 X140.43 Y101.054 E.78101
G1 X140.43 Y101.591 E.01696
G1 X122.409 Y83.57 E.805
G1 X121.872 Y83.57 E.01696
G1 X140.43 Y102.128 E.82899
G1 X140.43 Y102.665 E.01696
G1 X121.335 Y83.57 E.85297
G1 X120.797 Y83.57 E.01699
G1 X140.43 Y103.203 E.87701
G1 X140.43 Y103.74 E.01696
G1 X120.26 Y83.57 E.90099
G1 X119.723 Y83.57 E.01696
M73 P3 R29
M73 Q3 S30
G1 X140.43 Y104.277 E.92498
G1 X140.43 Y104.814 E.01696
G1 X119.186 Y83.57 E.94897
G1 X118.649 Y83.57 E.01696
G1 X140.43 Y105.351 E.97296
G1 X140.43 Y105.889 E.01699
G1 X118.111 Y83.57 E.99699
G1 X117.574 Y83.57 E.01696
G1 X140.43 Y106.426 E1.02098
G1 X140.43 Y106.963 E.01696
G1 X117.056 Y83.589 E1.04412
G1 X116.577 Y83.648 E.01524
G1 X140.43 Y107.5 E1.06549
G1 X140.43 Y108.038 E.01699
M73 Q3 S29
G1 X116.099 Y83.707 E1.08687
G1 X115.943 Y83.726 E.00496
G1 X115.654 Y83.798 E.00941
G1 X140.43 Y108.575 E1.10677
G1 X140.43 Y109.112 E.01696
G1 X115.224 Y83.906 E1.12595
G1 X114.826 Y84.045 E.01332
G1 X140.43 Y109.649 E1.14373
G1 X140.43 Y110.186 E.01696
M73 P4 R29
M73 Q4 S29
G1 X114.433 Y84.19 E1.16126
G1 X114.069 Y84.362 E.01272
G1 X140.43 Y110.724 E1.17757
G1 X140.43 Y111.261 E.01696
G1 X113.709 Y84.539 E1.19365
G1 X113.373 Y84.741 E.01238
G1 X140.43 Y111.798 E1.20864
G1 X140.43 Y112.335 E.01696
G1 X113.044 Y84.949 E1.22333
G1 X112.742 Y85.184 E.01209
G1 X140.43 Y112.873 E1.23685
G1 X140.43 Y113.41 E.01696
G1 X112.44 Y85.42 E1.25031
G1 X112.142 Y85.659 E.01207
G1 X140.43 Y113.947 E1.26363
G1 X140.43 Y114.484 E.01696
G1 X111.873 Y85.927 E1.27564
G1 X111.606 Y86.198 E.01202
G1 X140.43 Y115.021 E1.28755
G1 X140.43 Y115.559 E.01699
M73 P5 R29
M73 Q5 S29
G1 X111.364 Y86.493 E1.29838
G1 X111.124 Y86.79 E.01206
G1 X140.43 Y116.096 E1.3091
G1 X140.43 Y116.633 E.01696
G1 X110.916 Y87.119 E1.31839
G1 X110.708 Y87.448 E.01229
G1 X140.43 Y117.17 E1.32768
G1 X140.43 Y117.707 E.01696
G1 X110.501 Y87.779 E1.33691
G1 X110.336 Y88.151 E.01285
G1 X140.43 Y118.245 E1.3443
G1 X140.43 Y118.782 E.01696
G1 X110.171 Y88.523 E1.35167
G1 X110.012 Y88.901 E.01295
G1 X140.43 Y119.319 E1.35877
G1 X140.43 Y119.856 E.01696
M73 P6 R29
M73 Q6 S29
G1 X109.887 Y89.314 E1.36433
G1 X109.776 Y89.739 E.01387
G1 X140.43 Y120.394 E1.36934
G1 X140.43 Y120.931 E.01696
M73 P6 R28
G1 X109.687 Y90.187 E1.37331
G1 X109.633 Y90.671 E.01538
G1 X140.43 Y121.468 E1.3757
G1 X140.43 Y122.005 E.01696
G1 X109.597 Y91.172 E1.37731
G1 X109.57 Y91.682 E.01613
G1 X140.43 Y122.542 E1.37852
G1 X140.43 Y123.08 E.01699
G1 X109.57 Y92.219 E1.37854
G1 X109.57 Y92.757 E.01699
G1 X140.43 Y123.617 E1.37852
G1 X140.43 Y123.88 E.00831
M73 Q6 S28
G1 X140.156 Y123.88 E.00865
G1 X109.57 Y93.294 E1.36628
G1 X109.57 Y93.831 E.01696
M73 P7 R28
M73 Q7 S28
G1 X139.619 Y123.88 E1.34229
G1 X139.082 Y123.88 E.01696
G1 X109.57 Y94.368 E1.3183
G1 X109.57 Y94.906 E.01699
G1 X138.544 Y123.88 E1.29427
G1 X138.007 Y123.88 E.01696
G1 X109.57 Y95.443 E1.27028
G1 X109.57 Y95.98 E.01696
G1 X137.47 Y123.88 E1.24629
G1 X136.933 Y123.88 E.01696
G1 X109.57 Y96.517 E1.22231
G1 X109.57 Y97.054 E.01696
G1 X136.396 Y123.88 E1.19832
G1 X135.858 Y123.88 E.01699
G1 X109.57 Y97.592 E1.17429
G1 X109.57 Y98.129 E.01696
G1 X135.321 Y123.88 E1.1503
G1 X134.784 Y123.88 E.01696
M73 P8 R28
M73 Q8 S28
G1 X109.57 Y98.666 E1.12631
G1 X109.57 Y99.203 E.01696
G1 X134.247 Y123.88 E1.10232
G1 X133.709 Y123.88 E.01699
G1 X109.57 Y99.741 E1.07829
G1 X109.57 Y100.278 E.01696
G1 X133.172 Y123.88 E1.0543
G1 X132.635 Y123.88 E.01696
G1 X109.57 Y100.815 E1.03031
G1 X109.57 Y101.352 E.01696
G1 X132.098 Y123.88 E1.00633
G1 X131.561 Y123.88 E.01696
G1 X109.57 Y101.889 E.98234
G1 X109.57 Y102.427 E.01699
G1 X131.023 Y123.88 E.95831
G1 X130.486 Y123.88 E.01696
G1 X109.57 Y102.964 E.93432
G1 X109.57 Y103.501 E.01696
G1 X129.949 Y123.88 E.91033
G1 X129.412 Y123.88 E.01696
G1 X109.57 Y104.038 E.88634
G1 X109.57 Y104.576 E.01699
M73 P9 R28
M73 Q9 S28
G1 X128.874 Y123.88 E.86231
G1 X128.671 Y123.894 E.00643
G1 X128.436 Y123.978 E.00788
G1 X109.57 Y105.113 E.84272
G1 X109.57 Y105.65 E.01696
G1 X128.145 Y124.225 E.82975
G1 X128.013 Y124.491 E.00938
G1 X127.996 Y124.613 E.00389
G1 X109.57 Y106.187 E.82309
G1 X109.57 Y106.724 E.01696
G1 X127.98 Y125.135 E.8224
G1 X127.98 Y125.672 E.01696
G1 X109.57 Y107.262 E.82238
G1 X109.57 Y107.799 E.01696
M73 P9 R27
G1 X127.98 Y126.209 E.82238
G1 X127.98 Y126.429 E.00695
G1 X127.663 Y126.429 E.01001
G1 X109.57 Y108.336 E.80822
G1 X109.57 Y108.873 E.01696
G1 X127.125 Y126.429 E.7842
G1 X126.587 Y126.428 E.01699
G1 X109.57 Y109.411 E.76015
G1 X109.57 Y109.948 E.01696
G1 X126.05 Y126.428 E.73616
G1 X125.512 Y126.427 E.01699
G1 X109.57 Y110.485 E.71213
G1 X109.57 Y111.022 E.01696
G1 X124.974 Y126.427 E.68812
G1 X124.437 Y126.426 E.01696
G1 X109.57 Y111.559 E.66411
G1 X109.57 Y112.097 E.01699
M73 P10 R27
G1 X123.899 Y126.426 E.64008
G1 X123.361 Y126.425 E.01699
M73 Q10 S28
G1 X109.57 Y112.634 E.61604
G1 X109.57 Y113.171 E.01696
M73 Q10 S27
G1 X122.823 Y126.425 E.59203
G1 X122.286 Y126.424 E.01696
G1 X109.57 Y113.708 E.56802
G1 X109.57 Y114.245 E.01696
G1 X121.748 Y126.424 E.54401
G1 X121.21 Y126.423 E.01699
G1 X109.57 Y114.783 E.51996
G1 X109.57 Y115.32 E.01696
G1 X120.673 Y126.423 E.49597
G1 X120.135 Y126.422 E.01699
G1 X109.57 Y115.857 E.47194
G1 X109.57 Y116.394 E.01696
G1 X119.597 Y126.422 E.44793
G1 X119.06 Y126.421 E.01696
G1 X109.57 Y116.932 E.4239
G1 X109.57 Y117.469 E.01696
G1 X118.522 Y126.421 E.39989
G1 X117.984 Y126.42 E.01699
G1 X109.57 Y118.006 E.37585
G1 X109.571 Y118.545 E.01703
G1 X117.446 Y126.42 E.35178
G1 X117.122 Y126.419 E.01023
G1 X116.879 Y126.39 E.00773
G1 X109.61 Y119.121 E.32471
G1 X109.686 Y119.734 E.01951
G1 X116.266 Y126.314 E.29393
G1 X115.953 Y126.275 E.00996
G1 X115.59 Y126.175 E.01189
G1 X109.811 Y120.396 E.25815
G1 X109.912 Y120.802 E.01321
G1 X110.042 Y121.164 E.01215
G1 X114.847 Y125.969 E.21464
G1 X114.119 Y125.672 E.02483
G1 X113.872 Y125.532 E.00897
G1 X110.481 Y122.141 E.15148
G1 X110.705 Y122.585 E.01571
G1 X111.132 Y123.224 E.02428
G1 X111.611 Y123.807 E.02383
G1 X113.083 Y125.279 E.06575
M204 S1000
; stop printing object IMU_cover_rear.stl id:0 copy 0
;LAYER_CHANGE
;Z:0.4
;HEIGHT:0.2
;BEFORE_LAYER_CHANGE
G92 E0.0
;0.4


;WIPE_START
G1 F8640
G1 X111.611 Y123.807 E-.48068
G1 X111.132 Y123.224 E-.17423
G1 X110.705 Y122.585 E-.17746
G1 X110.481 Y122.141 E-.11483
G1 X110.643 Y122.303 E-.0528
;WIPE_END
G1 Z.4 F720
;AFTER_LAYER_CHANGE
;0.4
M104 S250 ; set temperature
M140 S90 ; set bed temperature
G1 Z.6
G1 X107.591 Y124.034 F10800
G1 Z.4 F720
G1 E1 F2100
;TYPE:Skirt/Brim
;WIDTH:0.42
G1 F3000
G1 X107.241 Y123.417 E.02224
G1 X106.769 Y122.278 E.03866
G1 X106.332 Y120.666 E.05237
G1 X106.173 Y119.561 E.035
G1 X106.123 Y118.5 E.0333
G1 X106.123 Y91.5 E.84657
G1 X106.255 Y89.773 E.05431
G1 X106.629 Y88.146 E.05234
G1 X107.012 Y87.093 E.03513
G1 X107.712 Y85.701 E.04885
G1 X108.397 Y84.676 E.03865
G1 X109.407 Y83.504 E.04851
G1 X110.238 Y82.743 E.03533
G1 X111.228 Y82.008 E.03866
G1 X112.58 Y81.242 E.04872
G1 X113.722 Y80.769 E.03876
G1 X115.338 Y80.331 E.0525
G1 X116.996 Y80.135 E.05235
G1 X129.527 Y80.171 E.3929
G1 X141.977 Y82.721 E.39846
G1 X143.179 Y83.367 E.04279
G1 X143.877 Y85.05 E.05713
G1 X143.877 Y124.95 E1.25104
G1 X143.485 Y126.257 E.04278
G1 X141.977 Y127.279 E.05712
G1 X129.527 Y129.829 E.39846
G1 X117 Y129.866 E.39278
G1 X115.338 Y129.669 E.05248
G1 X114.142 Y129.37 E.03865
G1 X112.689 Y128.809 E.04884
G1 X111.228 Y127.992 E.05248
G1 X110.238 Y127.257 E.03866
G1 X109.031 Y126.097 E.05249
G1 X108.016 Y124.783 E.05206
G1 X107.621 Y124.086 E.02512
; printing object IMU_cover_rear.stl id:0 copy 0
;WIPE_START
G1 F8640
G1 X107.241 Y123.417 E-.17765
G1 X106.769 Y122.278 E-.28469
G1 X106.332 Y120.666 E-.38565
G1 X106.238 Y120.014 E-.15201
;WIPE_END
G1 Z.6 F720
G1 X128.624 Y124.495 F10800
G1 Z.4 F720
G1 E1 F2100
M204 S800
;TYPE:Perimeter
;WIDTH:0.449999
G1 F2700
G1 X128.491 Y124.64 E.00666
G1 X128.418 Y124.929 E.01009
G1 X128.418 Y126.867 E.0656
G1 X117.09 Y126.857 E.38344
G1 X116.28 Y126.777 E.02755
G1 X115.064 Y126.504 E.04218
G1 X114.314 Y126.236 E.02696
G1 X113.199 Y125.676 E.04223
G1 X112.192 Y124.967 E.04169
G1 X111.296 Y124.113 E.0419
G1 X110.784 Y123.49 E.0273
G1 X110.117 Y122.437 E.04219
G1 X109.77 Y121.702 E.02751
G1 X109.493 Y120.929 E.02779
G1 X109.296 Y120.142 E.02746
G1 X109.173 Y119.32 E.02813
G1 X109.132 Y118.484 E.02833
G1 X109.132 Y91.516 E.91283
G1 X109.173 Y90.68 E.02833
M73 P11 R27
G1 X109.294 Y89.868 E.02779
