; generated by PrusaSlicer 2.6.1+linux-x64-GTK3 on 2023-11-18 at 14:24:33 UTC


;
;
; 

; external perimeters extrusion width = 0.45mm
; perimeters extrusion width = 0.45mm
; infill extrusion width = 0.45mm
; solid infill extrusion width = 0.45mm
; top infill extrusion width = 0.40mm
; support material extrusion width = 0.35mm
; first layer extrusion width = 0.42mm

M73 P0 R95
M73 Q0 S96
M201 X1000 Y1000 Z200 E5000 ; sets maximum accelerations, mm/sec^2
M203 X200 Y200 Z12 E120 ; sets maximum feedrates, mm / sec
M204 S1250 T1250 ; sets acceleration (S) and retract acceleration (R), mm/sec^2
M205 X8.00 Y8.00 Z0.40 E4.50 ; sets the jerk limits, mm/sec
M205 S0 T0 ; sets the minimum extruding and travel feed rate, mm/sec
;TYPE:Custom
M862.3 P "MK3S" ; printer model check
M862.1 P0.4 ; nozzle diameter check
M115 U3.11.0 ; tell printer latest fw version
G90 ; use absolute coordinates
M83 ; extruder relative mode
M104 S240 ; set extruder temp
M140 S85 ; set bed temp
M190 S85 ; wait for bed temp
M109 S240 ; wait for extruder temp
G28 W ; home all without mesh bed level
G80 ; mesh bed leveling

G1 Z0.2 F720
G1 Y-3 F1000 ; go outside print area
G92 E0
G1 X60 E9 F1000 ; intro line
G1 X100 E12.5 F1000 ; intro line

G92 E0
M221 S95

; Don't change E values below. Excessive value can damage the printer.
M907 E430 ; set extruder motor current
G21 ; set units to millimeters
G90 ; use absolute coordinates
M83 ; use relative distances for extrusion
M900 K0.08 ; Filament gcode LA 1.5
M900 K45 ; Filament gcode LA 1.0
M107
;LAYER_CHANGE
;Z:0.2
;HEIGHT:0.2
;BEFORE_LAYER_CHANGE
G92 E0.0
;0.2


G1 E-1 F2100
G1 Z.2 F720
;AFTER_LAYER_CHANGE
;0.2
G1 Z.4
G1 X97.247 Y79.653 F10800
G1 Z.2 F720
G1 E1 F2100
M204 S800
;TYPE:Skirt/Brim
;WIDTH:0.42
G1 F1200
G1 X98.293 Y78.777 E.04278
G1 X99.233 Y78.583 E.03009
G1 X110.935 Y78.592 E.36691
G1 X143.037 Y81.441 E1.01049
G1 X144.706 Y81.831 E.05374
G1 X146.26 Y82.551 E.0537
G1 X147.635 Y83.573 E.05372
G1 X148.773 Y84.854 E.05372
G1 X149.627 Y86.339 E.05371
G1 X150.161 Y87.966 E.05369
G1 X150.353 Y89.669 E.05373
G1 X150.354 Y99 E.29257
G1 X150.161 Y100.784 E.05626
G1 X149.842 Y101.881 E.03582
G1 X149.377 Y102.925 E.03583
G1 X148.773 Y103.896 E.03585
G1 X148.043 Y104.776 E.03585
G1 X120.395 Y130.772 E1.1899
G1 X118.767 Y131.417 E.05491
G1 X99.233 Y131.417 E.61247
G1 X97.926 Y131.025 E.04278
G1 X97.049 Y129.98 E.04277
G1 X96.856 Y129.04 E.03009
G1 X96.856 Y80.96 E1.50751
G1 X97.23 Y79.71 E.04091
M204 S1000
; printing object IMU_holder_rear_V2_no_inner_supports.stl id:0 copy 0
;WIPE_START
G1 F8640
G1 X98.293 Y78.777 E-.32658
G1 X99.233 Y78.583 E-.22162
G1 X101.19 Y78.585 E-.4518
;WIPE_END
G1 Z.4 F720
G1 X109.045 Y82.64 F10800
G1 Z.2 F720
G1 E1 F2100
M204 S800
;TYPE:Support material
G1 F1200
G1 X105.863 Y82.64 E.09977
G1 X105.213 Y83.29 E.02882
G1 X105.213 Y87.712 E.13865
G1 X99.233 Y87.712 E.1875
G1 X99.233 Y80.96 E.2117
G1 X110.725 Y80.96 E.36032
G1 X109.085 Y82.6 E.07272
M204 S1000
G1 X109.498 Y81.947 F10800
M204 S800
G1 F1200
G1 X109.498 Y81.299 E.02032
G1 X109.079 Y81.299 E.01314
G1 X109.079 Y82.126 E.02593
G1 X108.904 Y82.301 E.00776
G1 X108.66 Y82.301 E.00765
G1 X108.66 Y81.299 E.03142
G1 X108.241 Y81.299 E.01314
G1 X108.241 Y82.301 E.03142
G1 X107.822 Y82.301 E.01314
G1 X107.822 Y81.299 E.03142
G1 X107.403 Y81.299 E.01314
G1 X107.403 Y82.301 E.03142
G1 X106.984 Y82.301 E.01314
G1 X106.984 Y81.299 E.03142
G1 X106.565 Y81.299 E.01314
G1 X106.565 Y82.301 E.03142
G1 X106.146 Y82.301 E.01314
G1 X106.146 Y81.299 E.03142
G1 X105.727 Y81.299 E.01314
G1 X105.727 Y82.301 E.03142
G1 X105.308 Y82.715 E.01847
G1 X105.308 Y81.299 E.0444
G1 X104.889 Y81.299 E.01314
G1 X104.873 Y87.372 E.19042
G1 X104.47 Y87.372 E.01264
G1 X104.47 Y81.299 E.19041
G1 X104.051 Y81.299 E.01314
G1 X104.051 Y87.372 E.19041
G1 X103.632 Y87.372 E.01314
G1 X103.632 Y81.299 E.19041
G1 X103.213 Y81.299 E.01314
G1 X103.213 Y87.372 E.19041
G1 X102.794 Y87.372 E.01314
G1 X102.794 Y81.299 E.19041
G1 X102.375 Y81.299 E.01314
M73 Q0 S95
G1 X102.375 Y87.372 E.19041
G1 X101.956 Y87.372 E.01314
G1 X101.956 Y81.299 E.19041
G1 X101.537 Y81.299 E.01314
G1 X101.537 Y87.372 E.19041
G1 X101.118 Y87.372 E.01314
G1 X101.118 Y81.299 E.19041
G1 X100.699 Y81.299 E.01314
G1 X100.699 Y87.372 E.19041
G1 X100.28 Y87.372 E.01314
G1 X100.28 Y81.299 E.19041
G1 X99.861 Y81.299 E.01314
G1 X99.861 Y87.542 E.19574
M204 S1000
;WIPE_START
G1 F8640
G1 X99.861 Y83.211 E-1
;WIPE_END
G1 Z.4 F720
G1 X105.213 Y114.828 F10800
G1 Z.2 F720
G1 E1 F2100
M204 S800
G1 F1200
G1 X105.213 Y118.01 E.09977
G1 X105.863 Y118.66 E.02882
G1 X116.437 Y118.66 E.33154
G1 X117.087 Y118.01 E.02882
G1 X117.087 Y114.828 E.09977
G1 X118.767 Y113.148 E.07449
G1 X118.767 Y129.04 E.49828
G1 X99.233 Y129.04 E.61247
G1 X99.233 Y122.282 E.21189
G1 X103.533 Y122.282 E.13482
G1 X103.533 Y113.148 E.28639
G1 X105.173 Y114.788 E.07272
M204 S1000
;WIPE_START
G1 F8640
G1 X103.533 Y113.148 E-.53554
G1 X103.533 Y115.159 E-.46446
;WIPE_END
G1 Z.4 F720
G1 X118.296 Y128.87 F10800
G1 Z.2 F720
G1 E1 F2100
M204 S800
G1 F1200
G1 X118.296 Y114.099 E.46313
G1 X117.877 Y114.518 E.01858
M73 P0 R94
G1 X117.877 Y128.701 E.4447
G1 X117.458 Y128.701 E.01314
G1 X117.458 Y114.937 E.43156
G1 X117.427 Y114.968 E.00137
G1 X117.427 Y118.15 E.09977
G1 X117.039 Y118.538 E.0172
G1 X117.039 Y128.701 E.31865
G1 X116.62 Y128.701 E.01314
G1 X116.62 Y118.957 E.30552
G1 X116.578 Y118.999 E.00186
G1 X116.201 Y118.999 E.01182
G1 X116.201 Y128.701 E.3042
G1 X115.783 Y128.701 E.01311
G1 X115.783 Y118.999 E.3042
G1 X115.364 Y118.999 E.01314
G1 X115.364 Y128.701 E.3042
G1 X114.945 Y128.701 E.01314
G1 X114.945 Y118.999 E.3042
G1 X114.526 Y118.999 E.01314
G1 X114.526 Y128.701 E.3042
G1 X114.107 Y128.701 E.01314
G1 X114.107 Y118.999 E.3042
G1 X113.688 Y118.999 E.01314
G1 X113.688 Y128.701 E.3042
G1 X113.269 Y128.701 E.01314
G1 X113.269 Y118.999 E.3042
G1 X112.85 Y118.999 E.01314
G1 X112.85 Y128.701 E.3042
G1 X112.431 Y128.701 E.01314
G1 X112.431 Y118.999 E.3042
G1 X112.012 Y118.999 E.01314
G1 X112.012 Y128.701 E.3042
G1 X111.593 Y128.701 E.01314
G1 X111.593 Y118.999 E.3042
G1 X111.174 Y118.999 E.01314
G1 X111.174 Y128.701 E.3042
G1 X110.755 Y128.701 E.01314
G1 X110.755 Y118.999 E.3042
G1 X110.336 Y118.999 E.01314
G1 X110.336 Y128.701 E.3042
G1 X109.917 Y128.701 E.01314
G1 X109.917 Y118.999 E.3042
G1 X109.498 Y118.999 E.01314
G1 X109.498 Y128.701 E.3042
G1 X109.079 Y128.701 E.01314
G1 X109.079 Y118.999 E.3042
G1 X108.66 Y118.999 E.01314
G1 X108.66 Y128.701 E.3042
G1 X108.241 Y128.701 E.01314
G1 X108.241 Y118.999 E.3042
G1 X107.822 Y118.999 E.01314
G1 X107.822 Y128.701 E.3042
G1 X107.403 Y128.701 E.01314
G1 X107.403 Y118.999 E.3042
G1 X106.984 Y118.999 E.01314
G1 X106.984 Y128.701 E.3042
G1 X106.565 Y128.701 E.01314
G1 X106.565 Y118.999 E.3042
G1 X106.146 Y118.999 E.01314
G1 X106.146 Y128.701 E.3042
G1 X105.727 Y128.701 E.01314
G1 X105.727 Y118.999 E.3042
G1 X105.308 Y118.585 E.01847
G1 X105.308 Y128.701 E.31718
G1 X104.889 Y128.701 E.01314
G1 X104.873 Y114.968 E.43059
G1 X104.47 Y114.565 E.01787
G1 X104.47 Y128.701 E.44322
G1 X104.051 Y128.701 E.01314
G1 X104.051 Y114.146 E.45636
G1 X103.872 Y113.967 E.00794
G1 X103.872 Y122.621 E.27134
G1 X103.632 Y122.621 E.00753
G1 X103.632 Y128.701 E.19063
G1 X103.213 Y128.701 E.01314
G1 X103.213 Y122.621 E.19063
G1 X102.794 Y122.621 E.01314
G1 X102.794 Y128.701 E.19063
G1 X102.375 Y128.701 E.01314
G1 X102.375 Y122.621 E.19063
G1 X101.956 Y122.621 E.01314
G1 X101.956 Y128.701 E.19063
G1 X101.537 Y128.701 E.01314
G1 X101.537 Y122.621 E.19063
G1 X101.118 Y122.621 E.01314
G1 X101.118 Y128.701 E.19063
G1 X100.699 Y128.701 E.01314
G1 X100.699 Y122.621 E.19063
G1 X100.28 Y122.621 E.01314
G1 X100.28 Y128.701 E.19063
G1 X99.861 Y128.701 E.01314
G1 X99.861 Y122.451 E.19596
M204 S1000
;WIPE_START
G1 F8640
G1 X99.861 Y126.782 E-1
;WIPE_END
G1 Z.4 F720
G1 X115.19 Y116.764 F10800
G1 Z.2 F720
G1 E1 F2100
M204 S800
;TYPE:Perimeter
;WIDTH:0.419999
G1 F1200
G1 X112.541 Y116.771 E.08306
G1 X111.988 Y116.826 E.01742
G1 X112.032 Y116.772 E.00218
G1 X112.119 Y116.141 E.01997
G1 X112.153 Y115.611 E.01665
G1 X112.16 Y110.994 E.14476
G1 X112.146 Y110.845 E.00469
G1 X112.028 Y110.607 E.00833
G1 X111.838 Y110.46 E.00753
G1 X111.594 Y110.405 E.00784
G1 X109.151 Y110.405 E.0766
G1 X108.933 Y110.448 E.00697
G1 X108.698 Y110.631 E.00934
G1 X108.586 Y110.97 E.01119
G1 X108.592 Y115.611 E.14552
G1 X108.711 Y116.754 E.03603
G1 X108.784 Y116.827 E.00324
G1 X108.258 Y116.774 E.01658
G1 X107.11 Y116.767 E.036
G1 X107.11 Y84.537 E1.01055
G1 X141.955 Y84.537 E1.09254
G1 X142.687 Y84.587 E.023
M73 P1 R94
M73 Q1 S95
G1 X143.383 Y84.732 E.02229
G1 X144.054 Y84.97 E.02232
G1 X144.685 Y85.297 E.02228
G1 X145.266 Y85.707 E.0223
G1 X145.786 Y86.193 E.02232
G1 X146.235 Y86.745 E.02231
G1 X146.604 Y87.352 E.02227
G1 X146.888 Y88.005 E.02233
G1 X147.08 Y88.69 E.02231
G1 X147.158 Y89.26 E.01804
G1 X147.19 Y89.81 E.01727
G1 X147.19 Y98.977 E.28742
G1 X147.14 Y99.71 E.02304
G1 X146.996 Y100.406 E.02228
G1 X146.757 Y101.076 E.0223
G1 X146.43 Y101.708 E.02231
G1 X146.02 Y102.289 E.0223
G1 X145.534 Y102.809 E.02232
G1 X144.983 Y103.258 E.02229
G1 X144.375 Y103.627 E.0223
G1 X143.722 Y103.911 E.02233
G1 X143.038 Y104.102 E.02227
G1 X142.511 Y104.175 E.01668
G1 X141.964 Y104.213 E.01719
G1 X121.935 Y104.214 E.62799
G1 X120.929 Y104.301 E.03166
G1 X120.109 Y104.476 E.02629
G1 X119.224 Y104.799 E.02954
G1 X118.418 Y105.222 E.02854
G1 X117.665 Y105.76 E.02902
G1 X116.992 Y106.396 E.02903
G1 X116.379 Y107.171 E.03098
G1 X115.934 Y107.912 E.0271
G1 X115.57 Y108.764 E.02905
G1 X115.325 Y109.657 E.02903
G1 X115.21 Y110.498 E.02661
G1 X115.19 Y110.995 E.0156
G1 X115.19 Y116.704 E.179
M204 S1000
G1 X115.567 Y117.14 F10800
M204 S800
;TYPE:External perimeter
;WIDTH:0.419986
G1 F1200
G1 X112.627 Y117.145 E.09218
G1 X111.147 Y117.259 E.04654
G1 X109.273 Y117.255 E.05876
;WIDTH:0.41765
G1 X109.214 Y117.253 E.00184
;WIDTH:0.419999
G1 X108.256 Y117.151 E.03021
G1 X106.733 Y117.141 E.04775
G1 X106.733 Y84.16 E1.03409
G1 X141.968 Y84.16 E1.10477
G1 X142.738 Y84.213 E.0242
G1 X143.485 Y84.368 E.02392
G1 X144.204 Y84.623 E.02392
G1 X144.881 Y84.974 E.02391
G1 X145.505 Y85.414 E.02394
G1 X146.062 Y85.935 E.02391
G1 X146.544 Y86.527 E.02394
G1 X146.94 Y87.178 E.02389
G1 X147.244 Y87.878 E.02393
G1 X147.45 Y88.613 E.02393
G1 X147.532 Y89.208 E.01883
G1 X147.567 Y89.81 E.01891
;WIDTH:0.419986
G1 X147.567 Y98.99 E.28782
G1 X147.515 Y99.761 E.02423
G1 X147.359 Y100.508 E.02393
G1 X147.104 Y101.227 E.02392
G1 X146.753 Y101.904 E.02391
G1 X146.313 Y102.527 E.02391
G1 X145.792 Y103.085 E.02394
G1 X145.201 Y103.566 E.02389
G1 X144.549 Y103.963 E.02393
G1 X143.849 Y104.267 E.02393
G1 X143.114 Y104.473 E.02393
G1 X142.563 Y104.548 E.01743
G1 X141.97 Y104.59 E.01864
G1 X121.961 Y104.59 E.62735
G1 X121.005 Y104.67 E.03008
G1 X120.236 Y104.831 E.02463
G1 X119.397 Y105.134 E.02797
G1 X118.636 Y105.53 E.0269
G1 X117.922 Y106.036 E.02744
G1 X117.284 Y106.634 E.02742
G1 X116.701 Y107.367 E.02936
G1 X116.28 Y108.063 E.0255
G1 X115.933 Y108.866 E.02743
G1 X115.699 Y109.709 E.02743
G1 X115.583 Y110.55 E.02662
G1 X115.567 Y110.994 E.01393
G1 X115.567 Y117.08 E.19082
M204 S1000
G1 X115.221 Y116.94 F10800
;WIPE_START
G1 F8640
G1 X112.627 Y117.145 E-.67902
G1 X111.241 Y117.252 E-.32098
;WIPE_END
G1 Z.4 F720
G1 X144.124 Y93.164 F10800
G1 Z.2 F720
G1 E1 F2100
M204 S800
;TYPE:Perimeter
;WIDTH:0.419999
G1 F1200
G1 X144.353 Y93.674 E.01753
G1 X144.455 Y94.301 E.01992
G1 X144.392 Y94.933 E.01991
G1 X144.166 Y95.527 E.01993
G1 X143.795 Y96.043 E.01993
G1 X143.303 Y96.445 E.01992
G1 X142.789 Y96.679 E.01771
G1 X142.44 Y96.762 E.01125
G1 X141.949 Y96.808 E.01546
G1 X141.322 Y96.706 E.01992
G1 X140.803 Y96.485 E.01769
G1 X140.355 Y96.147 E.0176
G1 X139.953 Y95.655 E.01992
G1 X139.692 Y95.076 E.01991
G1 X139.59 Y94.449 E.01992
G1 X139.662 Y93.771 E.02138
G1 X139.879 Y93.223 E.01848
G1 X140.25 Y92.707 E.01993
G1 X140.742 Y92.305 E.01992
G1 X141.322 Y92.044 E.01994
G1 X141.928 Y91.944 E.01926
G1 X142.577 Y92.006 E.02044
G1 X143.175 Y92.231 E.02003
G1 X143.691 Y92.603 E.01994
G1 X144.099 Y93.109 E.02038
M204 S1000
G1 X143.685 Y93.186 F10800
M204 S800
;TYPE:External perimeter
G1 F1200
G1 X143.793 Y93.324 E.00549
G1 X144.005 Y93.818 E.01686
G1 X144.082 Y94.35 E.01685
G1 X144.018 Y94.884 E.01686
G1 X143.818 Y95.383 E.01686
G1 X143.496 Y95.813 E.01684
G1 X143.073 Y96.146 E.01688
G1 X142.579 Y96.357 E.01684
G1 X142.047 Y96.434 E.01685
G1 X141.514 Y96.37 E.01683
G1 X141.015 Y96.17 E.01686
G1 X140.584 Y95.848 E.01687
G1 X140.252 Y95.426 E.01684
G1 X140.04 Y94.932 E.01686
G1 X139.964 Y94.4 E.01685
G1 X140.03 Y93.851 E.01734
G1 X140.227 Y93.367 E.01638
G1 X140.549 Y92.937 E.01684
G1 X140.972 Y92.604 E.01688
G1 X141.466 Y92.393 E.01684
G1 X141.978 Y92.317 E.01623
G1 X142.53 Y92.38 E.01742
G1 X143.031 Y92.58 E.01691
G1 X143.461 Y92.902 E.01684
G1 X143.648 Y93.139 E.00947
M204 S1000
G1 X143.857 Y93.152 F10800
;WIPE_START
G1 F8640
G1 X143.793 Y93.324 E-.05427
G1 X144.005 Y93.818 E-.12413
G1 X144.082 Y94.35 E-.12412
G1 X144.018 Y94.884 E-.12418
G1 X143.818 Y95.383 E-.12413
G1 X143.496 Y95.813 E-.12404
G1 X143.073 Y96.146 E-.12431
G1 X142.579 Y96.357 E-.12404
G1 X142.25 Y96.405 E-.07678
;WIPE_END
G1 Z.4 F720
G1 X122.364 Y95.005 F10800
G1 Z.2 F720
G1 E1 F2100
M204 S800
;TYPE:Perimeter
G1 F1200
G1 X122.166 Y95.527 E.0175
G1 X121.795 Y96.043 E.01993
G1 X121.303 Y96.445 E.01992
G1 X120.724 Y96.706 E.01991
G1 X120.097 Y96.808 E.01992
G1 X119.464 Y96.744 E.01995
G1 X118.885 Y96.525 E.01941
G1 X118.355 Y96.147 E.02041
G1 X117.953 Y95.655 E.01992
G1 X117.692 Y95.076 E.01991
G1 X117.59 Y94.449 E.01992
G1 X117.654 Y93.817 E.01992
G1 X117.879 Y93.223 E.01992
G1 X118.25 Y92.707 E.01993
G1 X118.742 Y92.305 E.01992
G1 X119.322 Y92.044 E.01994
G1 X119.928 Y91.944 E.01926
G1 X120.577 Y92.006 E.02044
G1 X121.175 Y92.231 E.02003
G1 X121.691 Y92.603 E.01994
G1 X122.093 Y93.095 E.01992
G1 X122.353 Y93.674 E.0199
G1 X122.455 Y94.301 E.01992
G1 X122.386 Y94.949 E.02043
M204 S1000
G1 X121.968 Y95.009 F10800
M204 S800
;TYPE:External perimeter
G1 F1200
G1 X121.818 Y95.383 E.01263
G1 X121.496 Y95.813 E.01684
G1 X121.073 Y96.146 E.01688
G1 X120.579 Y96.357 E.01684
G1 X120.047 Y96.434 E.01685
G1 X119.514 Y96.37 E.01683
G1 X119.03 Y96.177 E.01634
G1 X118.584 Y95.848 E.01738
G1 X118.252 Y95.426 E.01684
G1 X118.04 Y94.932 E.01686
G1 X117.964 Y94.4 E.01685
G1 X118.028 Y93.866 E.01686
G1 X118.227 Y93.367 E.01684
G1 X118.549 Y92.937 E.01684
G1 X118.972 Y92.604 E.01688
G1 X119.466 Y92.393 E.01684
G1 X119.978 Y92.317 E.01623
G1 X120.53 Y92.38 E.01742
G1 X121.031 Y92.58 E.01691
G1 X121.461 Y92.902 E.01684
G1 X121.793 Y93.324 E.01684
G1 X122.005 Y93.818 E.01686
G1 X122.082 Y94.35 E.01685
G1 X122.018 Y94.884 E.01686
G1 X121.99 Y94.953 E.00233
M204 S1000
G1 X122.236 Y95.306 F10800
;WIPE_START
G1 F8640
G1 X121.818 Y95.383 E-.10694
G1 X121.496 Y95.813 E-.12404
G1 X121.073 Y96.146 E-.12431
G1 X120.579 Y96.357 E-.12404
G1 X120.047 Y96.434 E-.12412
G1 X119.514 Y96.37 E-.12396
G1 X119.03 Y96.177 E-.12031
G1 X118.584 Y95.848 E-.12797
G1 X118.519 Y95.765 E-.02431
;WIPE_END
G1 Z.4 F720
G1 X109.073 Y92.64 F10800
G1 Z.2 F720
G1 E1 F2100
M204 S800
;TYPE:Perimeter
G1 F1200
G1 X109.151 Y92.625 E.00249
G1 X111.594 Y92.625 E.0766
G1 X111.8 Y92.663 E.00657
G1 X112.029 Y92.829 E.00887
G1 X112.15 Y93.088 E.00896
G1 X112.16 Y99.033 E.1864
G1 X112.098 Y99.291 E.00832
G1 X111.903 Y99.507 E.00912
G1 X111.646 Y99.596 E.00853
G1 X111.594 Y99.599 E.00163
G1 X109.151 Y99.599 E.0766
G1 X108.934 Y99.555 E.00694
G1 X108.699 Y99.372 E.00934
G1 X108.586 Y99.033 E.0112
G1 X108.586 Y93.19 E.1832
G1 X108.699 Y92.851 E.0112
G1 X108.934 Y92.668 E.00934
G1 X109.014 Y92.652 E.00256
M204 S1000
G1 X109.151 Y93.002 F10800
M204 S800
;TYPE:External perimeter
G1 F1200
G1 X111.594 Y93.002 E.0766
G1 X111.739 Y93.07 E.00502
G1 X111.783 Y93.19 E.00401
G1 X111.783 Y99.033 E.1832
G1 X111.718 Y99.175 E.0049
G1 X111.594 Y99.222 E.00416
G1 X109.151 Y99.222 E.0766
G1 X109 Y99.146 E.0053
G1 X108.963 Y99.033 E.00373
G1 X108.963 Y93.19 E.1832
G1 X109 Y93.077 E.00373
G1 X109.098 Y93.028 E.00344
M204 S1000
