; generated by PrusaSlicer 2.6.0-alpha6+linux-x64-GTK3 on 2023-04-09 at 18:01:27 UTC


;
;
; 

; external perimeters extrusion width = 0.45mm
; perimeters extrusion width = 0.45mm
; infill extrusion width = 0.45mm
; solid infill extrusion width = 0.45mm
; top infill extrusion width = 0.40mm
; support material extrusion width = 0.35mm
; first layer extrusion width = 0.42mm

M73 P0 R77
M73 Q0 S78
M201 X1000 Y1000 Z200 E5000 ; sets maximum accelerations, mm/sec^2
M203 X200 Y200 Z12 E120 ; sets maximum feedrates, mm / sec
M204 S1250 T1250 ; sets acceleration (S) and retract acceleration (R), mm/sec^2
M205 X8.00 Y8.00 Z0.40 E4.50 ; sets the jerk limits, mm/sec
M205 S0 T0 ; sets the minimum extruding and travel feed rate, mm/sec
;TYPE:Custom
M862.3 P "MK3S" ; printer model check
M862.1 P0.4 ; nozzle diameter check
M115 U3.11.0 ; tell printer latest fw version
G90 ; use absolute coordinates
M83 ; extruder relative mode
M104 S240 ; set extruder temp
M140 S85 ; set bed temp
M190 S85 ; wait for bed temp
M109 S240 ; wait for extruder temp
G28 W ; home all without mesh bed level
G80 ; mesh bed leveling

G1 Z0.2 F720
G1 Y-3 F1000 ; go outside print area
G92 E0
G1 X60 E9 F1000 ; intro line
G1 X100 E12.5 F1000 ; intro line

G92 E0
M221 S95

; Don't change E values below. Excessive value can damage the printer.
M907 E430 ; set extruder motor current
G21 ; set units to millimeters
G90 ; use absolute coordinates
M83 ; use relative distances for extrusion
M900 K0.08 ; Filament gcode LA 1.5
M900 K45 ; Filament gcode LA 1.0
M107
;LAYER_CHANGE
;Z:0.2
;HEIGHT:0.2
;BEFORE_LAYER_CHANGE
G92 E0.0
;0.2


G1 E-1 F2100
G1 Z.2 F720
;AFTER_LAYER_CHANGE
;0.2
G1 Z.4
G1 X106.515 Y83.743 F10800
G1 Z.2 F720
G1 E1 F2100
M204 S800
;TYPE:Skirt/Brim
;WIDTH:0.42
G1 F1200
G1 X108.114 Y82.705 E.05977
G1 X120.564 Y80.655 E.39562
G1 X132.617 Y80.626 E.37791
G1 X134.507 Y80.812 E.05955
G1 X135.768 Y81.128 E.04076
G1 X136.769 Y81.498 E.03346
G1 X137.729 Y81.965 E.03347
G1 X139.308 Y83.02 E.05954
G1 X140.107 Y83.728 E.03347
G1 X140.832 Y84.511 E.03346
G1 X141.606 Y85.556 E.04077
G1 X142.145 Y86.477 E.03346
G1 X142.591 Y87.446 E.03345
G1 X143.143 Y89.264 E.05957
G1 X143.31 Y90.318 E.03346
G1 X143.377 Y91.5 E.03712
G1 X143.374 Y118.617 E.85023
G1 X143.188 Y120.507 E.05955
G1 X142.94 Y121.545 E.03346
G1 X142.591 Y122.554 E.03348
G1 X142.035 Y123.729 E.04076
G1 X140.98 Y125.308 E.05954
G1 X140.272 Y126.107 E.03347
G1 X139.308 Y126.98 E.04078
G1 X138.444 Y127.606 E.03345
G1 X137.523 Y128.145 E.03346
G1 X135.768 Y128.872 E.05956
G1 X134.736 Y129.143 E.03345
G1 X133.45 Y129.333 E.04076
G1 X120.564 Y129.345 E.40403
G1 X108.114 Y127.295 E.39562
G1 X106.888 Y126.697 E.04277
G1 X106.123 Y124.95 E.0598
G1 X106.123 Y85.05 E1.25104
G1 X106.497 Y83.8 E.04091
M204 S1000
; printing object Imu_holder_cover.stl id:0 copy 0
;WIPE_START
G1 F8640
G1 X108.114 Y82.705 E-.45092
G1 X110.46 Y82.319 E-.54908
;WIPE_END
G1 Z.4 F720
G1 X121.723 Y85.347 F10800
G1 Z.2 F720
G1 E1 F2100
M204 S800
;TYPE:Perimeter
;WIDTH:0.419999
G1 F1200
G1 X121.737 Y85.271 E.00242
G1 X121.737 Y84.187 E.03399
G1 X132.645 Y84.195 E.34201
G1 X133.217 Y84.223 E.01796
G1 X133.927 Y84.328 E.0225
G1 X134.623 Y84.503 E.0225
G1 X135.298 Y84.744 E.02247
G1 X135.939 Y85.048 E.02224
G1 X136.924 Y85.68 E.03669
G1 X137.346 Y86.026 E.01711
G1 X138.158 Y86.868 E.03668
G1 X138.58 Y87.438 E.02224
G1 X138.949 Y88.053 E.02249
G1 X139.252 Y88.694 E.02223
G1 X139.612 Y89.807 E.03668
G1 X139.718 Y90.343 E.01713
G1 X139.813 Y91.528 E.03727
G1 X139.813 Y118.475 E.8449
G1 X139.741 Y119.501 E.03225
G1 X139.572 Y120.354 E.02727
G1 X139.41 Y120.887 E.01747
G1 X139.074 Y121.698 E.02752
G1 X138.812 Y122.189 E.01745
G1 X138.325 Y122.917 E.02746
G1 X137.864 Y123.467 E.0225
G1 X137.473 Y123.859 E.01736
G1 X136.559 Y124.581 E.03652
G1 X135.691 Y125.077 E.03135
G1 X134.887 Y125.41 E.02729
G1 X134.359 Y125.57 E.0173
G1 X133.208 Y125.777 E.03667
G1 X132.481 Y125.813 E.02282
G1 X121.737 Y125.813 E.33687
G1 X121.737 Y124.729 E.03399
G1 X121.697 Y124.521 E.00664
G1 X121.632 Y124.4 E.00431
G1 X121.448 Y124.235 E.00775
G1 X121.171 Y124.163 E.00897
G1 X109.287 Y124.163 E.37261
G1 X109.287 Y85.837 E1.20168
G1 X121.171 Y85.837 E.37261
G1 X121.265 Y85.829 E.00296
G1 X121.521 Y85.716 E.00877
G1 X121.697 Y85.48 E.00923
G1 X121.711 Y85.406 E.00236
M204 S1000
G1 X121.36 Y85.271 F10800
M204 S800
;TYPE:External perimeter
G1 F1200
G1 X121.36 Y83.81 E.04581
G1 X132.654 Y83.818 E.35411
G1 X133.254 Y83.847 E.01883
G1 X134 Y83.958 E.02365
G1 X134.732 Y84.141 E.02366
G1 X135.443 Y84.396 E.02368
G1 X136.122 Y84.717 E.02355
G1 X137.146 Y85.374 E.03815
G1 X137.602 Y85.749 E.01851
G1 X138.446 Y86.624 E.03812
G1 X138.894 Y87.228 E.02358
G1 X139.282 Y87.875 E.02365
G1 X139.603 Y88.555 E.02358
G1 X139.977 Y89.712 E.03813
G1 X140.092 Y90.291 E.01851
G1 X140.19 Y91.513 E.03844
G1 X140.19 Y118.488 E.84578
G1 X140.116 Y119.551 E.03341
G1 X139.938 Y120.446 E.02861
G1 X139.765 Y121.014 E.01862
G1 X139.415 Y121.86 E.02871
G1 X139.135 Y122.383 E.0186
G1 X138.627 Y123.143 E.02866
G1 X138.143 Y123.722 E.02366
G1 X137.724 Y124.141 E.01858
G1 X136.771 Y124.894 E.03808
G1 X135.857 Y125.416 E.033
G1 X135.014 Y125.765 E.02861
G1 X134.448 Y125.937 E.01855
G1 X133.251 Y126.153 E.03814
G1 X132.49 Y126.19 E.02389
G1 X121.36 Y126.19 E.34897
G1 X121.36 Y124.729 E.04581
G1 X121.305 Y124.595 E.00454
G1 X121.171 Y124.54 E.00454
G1 X108.91 Y124.54 E.38443
G1 X108.91 Y85.46 E1.22532
G1 X121.171 Y85.46 E.38443
G1 X121.288 Y85.42 E.00388
G1 X121.334 Y85.325 E.00331
M204 S1000
G1 X121.746 Y85.168 F10800
;WIPE_START
G1 F8640
G1 X121.36 Y83.81 E-.34987
G1 X124.176 Y83.812 E-.65013
;WIPE_END
G1 Z.4 F720
G1 X136.389 Y85.471 F10800
G1 Z.2 F720
G1 E1 F2100
M204 S800
;TYPE:Solid infill
;WIDTH:0.421614
G1 F1200
G1 X137.941 Y87.051 E.06974
G1 X138.344 Y87.595 E.02132
G1 X138.699 Y88.187 E.02174
G1 X138.816 Y88.433 E.00858
G1 X135.567 Y85.184 E.14468
G1 X135.19 Y85.006 E.01313
G1 X134.665 Y84.818 E.01756
G1 X139.152 Y89.305 E.19981
G1 X139.338 Y89.879 E.019
M73 Q0 S77
G1 X139.374 Y90.063 E.0059
G1 X133.933 Y84.622 E.2423
G1 X133.297 Y84.521 E.02028
G1 X139.462 Y90.686 E.27454
G1 X139.508 Y91.268 E.01838
G1 X132.722 Y84.482 E.30219
G1 X132.182 Y84.478 E.017
G1 X139.53 Y91.825 E.3272
G1 X139.53 Y92.361 E.01688
G1 X131.646 Y84.477 E.35109
G1 X131.111 Y84.477 E.01685
G1 X139.53 Y92.896 E.37491
G1 X139.53 Y93.432 E.01688
G1 X130.575 Y84.476 E.3988
G1 X130.039 Y84.476 E.01688
G1 X139.53 Y93.968 E.42267
G1 X139.53 Y94.503 E.01685
G1 X129.503 Y84.476 E.44652
G1 X128.967 Y84.475 E.01688
G1 X139.53 Y95.039 E.47041
G1 X139.53 Y95.574 E.01685
G1 X128.431 Y84.475 E.49426
G1 X127.895 Y84.475 E.01688
G1 X139.53 Y96.11 E.51812
G1 X139.53 Y96.645 E.01685
G1 X127.359 Y84.474 E.54199
G1 X126.823 Y84.474 E.01688
G1 X139.53 Y97.181 E.56586
G1 X139.53 Y97.716 E.01685
G1 X126.287 Y84.473 E.58973
G1 X125.751 Y84.473 E.01688
G1 X139.53 Y98.252 E.6136
G1 X139.53 Y98.788 E.01688
G1 X125.215 Y84.473 E.63747
G1 X124.679 Y84.472 E.01688
G1 X139.53 Y99.323 E.66134
G1 X139.53 Y99.859 E.01688
G1 X124.143 Y84.472 E.68521
G1 X123.608 Y84.472 E.01685
G1 X139.53 Y100.394 E.70903
G1 X139.53 Y100.93 E.01688
M73 P1 R77
M73 Q1 S77
G1 X123.072 Y84.471 E.73292
G1 X122.536 Y84.471 E.01688
G1 X139.53 Y101.465 E.75677
G1 X139.53 Y102.001 E.01688
G1 X122.02 Y84.491 E.77975
G1 X122.02 Y85.026 E.01685
G1 X139.53 Y102.536 E.77975
G1 X139.53 Y103.072 E.01688
G1 X121.975 Y85.517 E.78175
G1 X121.962 Y85.581 E.00206
G1 X121.862 Y85.766 E.00662
G1 X121.777 Y85.855 E.00388
G1 X139.53 Y103.608 E.79057
G1 X139.53 Y104.143 E.01685
G1 X121.455 Y86.068 E.80491
G1 X121.269 Y86.115 E.00604
G1 X120.967 Y86.115 E.00951
G1 X139.53 Y104.679 E.82666
G1 X139.53 Y105.214 E.01685
G1 X120.431 Y86.115 E.85051
G1 X119.896 Y86.116 E.01685
G1 X139.53 Y105.75 E.87433
G1 X139.53 Y106.285 E.01685
M73 P1 R76
G1 X119.361 Y86.116 E.89816
G1 X118.825 Y86.116 E.01688
G1 X139.53 Y106.821 E.92202
G1 X139.53 Y107.356 E.01685
G1 X118.29 Y86.116 E.94585
G1 X117.755 Y86.116 E.01685
G1 X139.53 Y107.892 E.9697
G1 X139.53 Y108.428 E.01688
G1 X117.219 Y86.117 E.99354
G1 X116.684 Y86.117 E.01685
G1 X139.53 Y108.963 E1.01737
G1 X139.53 Y109.499 E.01688
G1 X116.149 Y86.117 E1.04121
G1 X115.613 Y86.117 E.01688
G1 X139.53 Y110.034 E1.06506
G1 X139.53 Y110.57 E.01688
G1 X115.078 Y86.118 E1.08888
G1 X114.543 Y86.118 E.01685
G1 X139.53 Y111.105 E1.11271
G1 X139.53 Y111.641 E.01688
G1 X114.007 Y86.118 E1.13658
G1 X113.472 Y86.118 E.01685
G1 X139.53 Y112.176 E1.1604
G1 X139.53 Y112.712 E.01688
G1 X112.937 Y86.118 E1.18425
G1 X112.401 Y86.119 E.01688
G1 X139.53 Y113.247 E1.20807
G1 X139.53 Y113.783 E.01688
G1 X111.866 Y86.119 E1.23192
G1 X111.331 Y86.119 E.01685
G1 X139.53 Y114.319 E1.25577
G1 X139.53 Y114.854 E.01685
G1 X110.795 Y86.119 E1.27961
G1 X110.26 Y86.12 E.01685
G1 X139.53 Y115.39 E1.30344
G1 X139.53 Y115.925 E.01685
M73 Q1 S76
G1 X109.725 Y86.12 E1.32726
G1 X109.57 Y86.12 E.00488
M73 P2 R76
M73 Q2 S76
G1 X109.57 Y86.501 E.012
G1 X139.53 Y116.461 E1.33416
G1 X139.53 Y116.996 E.01685
G1 X109.57 Y87.036 E1.33416
G1 X109.57 Y87.572 E.01688
G1 X139.53 Y117.532 E1.33416
G1 X139.53 Y118.067 E.01685
G1 X109.57 Y88.107 E1.33416
G1 X109.57 Y88.643 E.01688
G1 X139.521 Y118.594 E1.33376
G1 X139.486 Y119.095 E.01581
G1 X109.57 Y89.178 E1.33223
G1 X109.57 Y89.714 E.01688
G1 X139.437 Y119.581 E1.33002
G1 X139.348 Y120.028 E.01435
G1 X109.57 Y90.249 E1.32608
G1 X109.57 Y90.785 E.01688
G1 X139.244 Y120.459 E1.32143
G1 X139.113 Y120.864 E.0134
G1 X109.57 Y91.321 E1.31559
G1 X109.57 Y91.856 E.01685
G1 X138.956 Y121.243 E1.30863
G1 X138.796 Y121.618 E.01284
G1 X109.57 Y92.392 E1.30148
G1 X109.57 Y92.927 E.01685
M73 P2 R75
G1 X138.61 Y121.967 E1.2932
G1 X138.401 Y122.294 E.01222
G1 X109.57 Y93.463 E1.28389
G1 X109.57 Y93.998 E.01685
G1 X138.187 Y122.615 E1.27436
G1 X137.955 Y122.919 E.01204
G1 X109.57 Y94.534 E1.26403
G1 X109.57 Y95.069 E.01685
G1 X137.711 Y123.21 E1.25316
G1 X137.448 Y123.483 E.01194
G1 X109.57 Y95.605 E1.24145
G1 X109.57 Y96.141 E.01688
G1 X137.168 Y123.739 E1.22898
G1 X136.869 Y123.975 E.01199
G1 X109.57 Y96.676 E1.21567
G1 X109.57 Y97.212 E.01688
G1 X136.57 Y124.212 E1.20235
G1 X136.401 Y124.346 E.00679
G1 X136.253 Y124.43 E.00536
G1 X109.57 Y97.747 E1.18823
G1 X109.57 Y98.283 E.01688
G1 X135.912 Y124.625 E1.17305
G1 X135.571 Y124.82 E.01237
M73 P3 R75
M73 Q3 S76
G1 X109.57 Y98.818 E1.15789
G1 X109.57 Y99.354 E.01688
G1 X135.193 Y124.977 E1.14103
G1 X134.814 Y125.134 E.01292
G1 X109.57 Y99.889 E1.12418
G1 X109.57 Y100.425 E.01688
G1 X134.405 Y125.261 E1.10596
G1 X133.963 Y125.354 E.01422
G1 X109.57 Y100.961 E1.08626
G1 X109.57 Y101.496 E.01685
M73 Q3 S75
G1 X133.509 Y125.436 E1.06606
G1 X133.176 Y125.496 E.01065
G1 X133.041 Y125.502 E.00426
G1 X109.57 Y102.032 E1.04518
G1 X109.57 Y102.567 E.01685
G1 X132.53 Y125.527 E1.02244
G1 X131.997 Y125.53 E.01678
G1 X109.57 Y103.103 E.99871
G1 X109.57 Y103.638 E.01685
G1 X131.462 Y125.53 E.97488
G1 X130.926 Y125.53 E.01688
G1 X109.57 Y104.174 E.95101
G1 X109.57 Y104.709 E.01685
G1 X130.391 Y125.53 E.92719
G1 X129.855 Y125.53 E.01688
G1 X109.57 Y105.245 E.90332
G1 X109.57 Y105.781 E.01688
G1 X129.319 Y125.53 E.87945
G1 X128.784 Y125.53 E.01685
G1 X109.57 Y106.316 E.85563
G1 X109.57 Y106.852 E.01688
G1 X128.248 Y125.53 E.83176
G1 X127.713 Y125.53 E.01685
G1 X109.57 Y107.387 E.80794
G1 X109.57 Y107.923 E.01688
G1 X127.177 Y125.53 E.78407
G1 X126.642 Y125.53 E.01685
G1 X109.57 Y108.458 E.76024
G1 X109.57 Y108.994 E.01688
G1 X126.106 Y125.53 E.73637
G1 X125.571 Y125.53 E.01685
G1 X109.57 Y109.529 E.71255
G1 X109.57 Y110.065 E.01688
G1 X125.035 Y125.53 E.68868
G1 X124.499 Y125.53 E.01688
G1 X109.57 Y110.601 E.66481
G1 X109.57 Y111.136 E.01685
G1 X123.964 Y125.53 E.64099
G1 X123.428 Y125.53 E.01688
G1 X109.57 Y111.672 E.61712
G1 X109.57 Y112.207 E.01685
G1 X121.248 Y123.885 E.52004
G1 X121.491 Y123.942 E.00786
G1 X121.697 Y124.062 E.00751
G1 X121.862 Y124.235 E.00753
G1 X121.963 Y124.419 E.00661
G1 X122.005 Y124.642 E.00715
G1 X122.893 Y125.53 E.03954
G1 X122.357 Y125.53 E.01688
M73 P3 R74
G1 X121.85 Y125.023 E.02258
M204 S1000
;WIPE_START
G1 F8640
G1 X122.357 Y125.53 E-.16556
G1 X122.893 Y125.53 E-.12376
G1 X122.005 Y124.642 E-.28997
G1 X121.963 Y124.419 E-.0524
G1 X121.862 Y124.235 E-.04847
G1 X121.697 Y124.062 E-.0552
G1 X121.491 Y123.942 E-.05505
G1 X121.248 Y123.885 E-.05763
G1 X120.783 Y123.42 E-.15196
;WIPE_END
G1 Z.4 F720
G1 X120.882 Y124.055 F10800
G1 Z.2 F720
G1 E1 F2100
M204 S800
G1 F1200
G1 X109.57 Y112.743 E.50374
G1 X109.57 Y113.278 E.01685
G1 X120.176 Y123.885 E.47232
G1 X119.64 Y123.884 E.01688
G1 X109.57 Y113.814 E.44843
G1 X109.57 Y114.349 E.01685
G1 X119.105 Y123.884 E.42461
G1 X118.569 Y123.884 E.01688
G1 X109.57 Y114.885 E.40074
G1 X109.57 Y115.421 E.01688
G1 X118.033 Y123.884 E.37687
G1 X117.497 Y123.883 E.01688
G1 X109.57 Y115.956 E.353
G1 X109.57 Y116.492 E.01688
G1 X116.961 Y123.883 E.32913
G1 X116.426 Y123.883 E.01685
G1 X109.57 Y117.027 E.30531
G1 X109.57 Y117.563 E.01688
G1 X115.89 Y123.883 E.28144
G1 X115.354 Y123.883 E.01688
G1 X109.57 Y118.098 E.25759
G1 X109.57 Y118.634 E.01688
M73 P4 R74
G1 X114.818 Y123.882 E.2337
G1 X114.283 Y123.882 E.01685
G1 X109.57 Y119.169 E.20988
G1 X109.57 Y119.705 E.01688
G1 X113.747 Y123.882 E.18601
G1 X113.211 Y123.882 E.01688
M73 Q4 S75
G1 X109.57 Y120.241 E.16214
G1 X109.57 Y120.776 E.01685
G1 X112.675 Y123.881 E.13827
G1 X112.139 Y123.881 E.01688
G1 X109.57 Y121.312 E.1144
G1 X109.57 Y121.847 E.01685
G1 X111.604 Y123.881 E.09058
G1 X111.068 Y123.881 E.01688
G1 X109.57 Y122.383 E.06671
G1 X109.57 Y122.918 E.01685
G1 X110.532 Y123.881 E.04286
G1 X109.996 Y123.88 E.01688
G1 X109.4 Y123.284 E.02654
M204 S1000
; stop printing object Imu_holder_cover.stl id:0 copy 0
;LAYER_CHANGE
;Z:0.4
;HEIGHT:0.2
;BEFORE_LAYER_CHANGE
G92 E0.0
;0.4


;WIPE_START
G1 F8640
G1 X109.996 Y123.88 E-.19462
G1 X110.532 Y123.881 E-.12376
G1 X109.57 Y122.918 E-.3143
G1 X109.57 Y122.383 E-.12353
G1 X110.317 Y123.13 E-.24379
;WIPE_END
G1 Z.4 F720
;AFTER_LAYER_CHANGE
;0.4
M104 S250 ; set temperature
M140 S90 ; set bed temperature
G1 Z.6
G1 X106.123 Y123.13 F10800
G1 Z.4 F720
G1 E1 F2100
;TYPE:Skirt/Brim
;WIDTH:0.42
G1 F3000
G1 X106.123 Y85.05 E1.19397
G1 X106.515 Y83.743 E.04278
G1 X108.114 Y82.705 E.05977
G1 X120.564 Y80.655 E.39562
G1 X132.617 Y80.626 E.37791
G1 X134.507 Y80.812 E.05955
G1 X135.768 Y81.128 E.04076
G1 X136.769 Y81.498 E.03346
G1 X137.729 Y81.965 E.03347
G1 X139.308 Y83.02 E.05954
G1 X140.107 Y83.728 E.03347
G1 X140.832 Y84.511 E.03346
G1 X141.606 Y85.556 E.04077
G1 X142.145 Y86.477 E.03346
G1 X142.591 Y87.446 E.03345
G1 X143.143 Y89.264 E.05957
G1 X143.31 Y90.318 E.03346
G1 X143.377 Y91.5 E.03712
G1 X143.374 Y118.617 E.85023
G1 X143.188 Y120.507 E.05955
G1 X142.94 Y121.545 E.03346
G1 X142.591 Y122.554 E.03348
G1 X142.035 Y123.729 E.04076
G1 X140.98 Y125.308 E.05954
G1 X140.272 Y126.107 E.03347
G1 X139.308 Y126.98 E.04078
G1 X138.444 Y127.606 E.03345
G1 X137.523 Y128.145 E.03346
G1 X135.768 Y128.872 E.05956
G1 X134.736 Y129.143 E.03345
G1 X133.45 Y129.333 E.04076
G1 X120.564 Y129.345 E.40403
G1 X108.114 Y127.295 E.39562
G1 X106.888 Y126.697 E.04277
G1 X106.123 Y124.95 E.0598
G1 X106.123 Y123.19 E.05518
; printing object Imu_holder_cover.stl id:0 copy 0
;WIPE_START
G1 F8640
G1 X106.123 Y118.859 E-1
;WIPE_END
G1 Z.6 F720
G1 X121.568 Y85.149 F10800
G1 Z.4 F720
G1 E1 F2100
M204 S800
;TYPE:Perimeter
;WIDTH:0.449999
G1 F2700
G1 X121.582 Y85.071 E.00268
G1 X121.582 Y83.832 E.04194
G1 X132.481 Y83.832 E.36892
G1 X133.398 Y83.888 E.0311
G1 X134.141 Y84.013 E.0255
G1 X134.724 Y84.162 E.02037
G1 X135.434 Y84.416 E.02552
G1 X136.116 Y84.739 E.02554
G1 X136.634 Y85.045 E.02036
G1 X137.248 Y85.483 E.02553
G1 X137.924 Y86.081 E.03055
G1 X138.427 Y86.636 E.02535
G1 X138.876 Y87.242 E.02553
G1 X139.187 Y87.754 E.02028
G1 X139.586 Y88.571 E.03078
G1 X139.79 Y89.133 E.02024
G1 X139.987 Y89.861 E.02553
G1 X140.13 Y90.752 E.03055
G1 X140.168 Y91.516 E.02589
G1 X140.168 Y118.481 E.91273
G1 X140.112 Y119.402 E.03123
G1 X140.02 Y119.996 E.02035
G1 X139.877 Y120.58 E.02035
G1 X139.583 Y121.434 E.03057
G1 X139.187 Y122.246 E.03058
