; generated by PrusaSlicer 2.5.0+linux-x64-GTK3 on 2023-02-15 at 21:07:23 UTC


;
;

;
;
; 

; external perimeters extrusion width = 0.45mm
; perimeters extrusion width = 0.45mm
; infill extrusion width = 0.45mm
; solid infill extrusion width = 0.45mm
; top infill extrusion width = 0.40mm
; first layer extrusion width = 0.42mm

M73 P0 R72
M73 Q0 S73
M201 X1000 Y1000 Z200 E5000 ; sets maximum accelerations, mm/sec^2
M203 X200 Y200 Z12 E120 ; sets maximum feedrates, mm / sec
M204 P1250 R1250 T1250 ; sets acceleration (P, T) and retract acceleration (R), mm/sec^2
M205 X8.00 Y8.00 Z0.40 E4.50 ; sets the jerk limits, mm/sec
M205 S0 T0 ; sets the minimum extruding and travel feed rate, mm/sec
M107
;TYPE:Custom
M862.3 P "MK3S" ; printer model check
M862.1 P0.4 ; nozzle diameter check
M115 U3.9.2 ; tell printer latest fw version
G90 ; use absolute coordinates
M83 ; extruder relative mode
M104 S240 ; set extruder temp
M140 S85 ; set bed temp
M190 S85 ; wait for bed temp
M109 S240 ; wait for extruder temp
G28 W ; home all without mesh bed level
G80 ; mesh bed leveling
G1 Y-3.0 F1000.0 ; go outside print area
G92 E0.0
G1 X60.0 E9.0 F1000.0 ; intro line
G1 X100.0 E12.5 F1000.0 ; intro line
G92 E0.0
M221 S95

; Don't change E values below. Excessive value can damage the printer.
M907 E430 ; set extruder motor current
G21 ; set units to millimeters
G90 ; use absolute coordinates
M83 ; use relative distances for extrusion
M900 K0.08 ; Filament gcode LA 1.5
M900 K45 ; Filament gcode LA 1.0
M107
;LAYER_CHANGE
;Z:0.2
;HEIGHT:0.2
;BEFORE_LAYER_CHANGE
G92 E0.0
;0.2


G1 E-1 F2100
G1 Z.2 F720
;AFTER_LAYER_CHANGE
;0.2
G1 Z.4
G1 X80.713 Y69.155 F10800
G1 Z.2 F720
G1 E1 F2100
M204 S800
;TYPE:Skirt/Brim
;WIDTH:0.42
G1 F1200
G1 X81.561 Y68.236 E.0392
G1 X82.472 Y67.561 E.03555
G1 X83.414 Y67.087 E.03306
G1 X84.499 Y66.758 E.03555
G1 X85.742 Y66.624 E.03919
G1 X164.258 Y66.624 E2.46184
G1 X165.501 Y66.758 E.03919
G1 X166.586 Y67.087 E.03555
G1 X167.694 Y67.666 E.03919
G1 X168.525 Y68.315 E.03306
M73 Q0 S72
G1 X169.356 Y69.248 E.03919
G1 X169.989 Y70.326 E.03919
G1 X170.399 Y71.507 E.03919
G1 X170.566 Y72.629 E.03555
G1 X170.572 Y137.255 E2.0263
G1 X170.399 Y138.493 E.0392
G1 X169.989 Y139.674 E.03919
G1 X169.287 Y140.845 E.04283
G1 X168.439 Y141.764 E.0392
G1 X167.428 Y142.499 E.03919
G1 X166.403 Y142.984 E.03555
G1 X165.387 Y143.265 E.03306
G1 X164.258 Y143.376 E.03555
G1 X85.8 Y143.377 E2.46001
G1 X84.499 Y143.242 E.04101
G1 X83.126 Y142.789 E.04532
G1 X82.048 Y142.156 E.03919
G1 X81.036 Y141.239 E.04283
G1 X80.361 Y140.328 E.03555
G1 X79.816 Y139.203 E.03919
G1 X79.535 Y138.187 E.03306
G1 X79.424 Y137.058 E.03555
G1 X79.423 Y73 E2.0085
G1 X79.558 Y71.699 E.04102
G1 X80.011 Y70.327 E.04531
G1 X80.682 Y69.206 E.04095
M204 S1000
; printing object Left_cable_holder.stl id:0 copy 0
;WIPE_START
G1 F8640
G1 X81.561 Y68.236 E-.30223
G1 X82.472 Y67.561 E-.2618
G1 X83.414 Y67.087 E-.24349
G1 X84.004 Y66.908 E-.14247
;WIPE_END
G1 E-.05 F2100
G1 Z.4 F720
G1 X134.227 Y139.953 F10800
G1 Z.2 F720
G1 E1 F2100
M204 S800
;TYPE:Perimeter
;WIDTH:0.419999
G1 F1200
G1 X134.227 Y128.458 E.3604
G1 X134.121 Y127.56 E.02836
G1 X133.898 Y126.88 E.02243
G1 X133.551 Y126.247 E.02263
G1 X133.004 Y125.591 E.02679
G1 X132.381 Y125.102 E.02483
G1 X131.626 Y124.727 E.02644
G1 X130.935 Y124.537 E.02248
G1 X130.225 Y124.476 E.02234
G1 X129.506 Y124.547 E.02266
G1 X128.69 Y124.79 E.02671
G1 X127.999 Y125.166 E.02464
G1 X127.393 Y125.674 E.02481
G1 X126.867 Y126.339 E.02658
G1 X126.542 Y126.975 E.02239
G1 X126.336 Y127.667 E.02264
G1 X126.253 Y128.458 E.02494
G1 X126.253 Y139.951 E.36034
G1 X126.192 Y140.013 E.00272
G1 X85.672 Y140.009 E1.2705
G1 X84.965 Y139.891 E.02246
G1 X84.423 Y139.675 E.01829
G1 X83.889 Y139.325 E.02002
G1 X83.473 Y138.91 E.01842
G1 X83.144 Y138.418 E.01856
G1 X82.935 Y137.92 E.01692
G1 X82.847 Y137.5 E.01347
G1 X82.787 Y136.983 E.01631
G1 X82.787 Y106.508 E.95554
G1 X82.773 Y105.876 E.01982
;WIDTH:0.396471
G1 X82.787 Y105.944 E.00204
;WIDTH:0.419999
G1 X82.979 Y106.578 E.02078
G1 X83.368 Y107.304 E.02582
G1 X83.892 Y107.938 E.02581
G1 X84.532 Y108.456 E.02581
G1 X85.262 Y108.837 E.02581
G1 X86.053 Y109.066 E.02581
G1 X86.864 Y109.134 E.02552
G1 X87.573 Y109.062 E.02236
G1 X88.363 Y108.828 E.02582
G1 X89.09 Y108.442 E.02582
G1 X89.727 Y107.92 E.02582
G1 X90.248 Y107.282 E.02582
G1 X90.632 Y106.554 E.02582
G1 X90.864 Y105.764 E.02582
G1 X90.934 Y104.944 E.02582
G1 X90.841 Y104.126 E.02582
G1 X90.588 Y103.342 E.02582
G1 X90.184 Y102.625 E.02582
G1 X89.727 Y102.08 E.0223
G1 X88.996 Y101.496 E.02933
G1 X88.258 Y101.131 E.02582
G1 X87.462 Y100.919 E.02582
G1 X86.641 Y100.868 E.02582
G1 X85.825 Y100.982 E.02582
G1 X85.048 Y101.255 E.02582
G1 X84.341 Y101.676 E.02582
G1 X83.731 Y102.229 E.02582
G1 X83.243 Y102.892 E.02582
G1 X82.934 Y103.533 E.0223
G1 X82.787 Y104.066 E.01732
G1 X82.787 Y73.031 E.97307
G1 X82.848 Y72.415 E.01939
G1 X83.039 Y71.802 E.02015
G1 X83.27 Y71.37 E.01534
G1 X83.673 Y70.87 E.02015
G1 X84.128 Y70.497 E.01842
G1 X84.646 Y70.22 E.01843
G1 X85.261 Y70.039 E.0201
G1 X85.829 Y69.987 E.01789
G1 X164.23 Y69.989 E2.45821
G1 X164.785 Y70.047 E.0175
G1 X165.352 Y70.219 E.01856
G1 X165.872 Y70.497 E.0185
G1 X166.328 Y70.872 E.0185
G1 X166.703 Y71.328 E.0185
G1 X166.981 Y71.848 E.0185
G1 X167.154 Y72.419 E.01871
G1 X167.209 Y72.859 E.01391
G1 X167.211 Y104.027 E.97722
G1 X166.988 Y103.342 E.02257
G1 X166.584 Y102.625 E.02582
G1 X166.046 Y102.001 E.02582
G1 X165.396 Y101.496 E.02582
G1 X164.658 Y101.131 E.02582
G1 X163.862 Y100.919 E.02582
G1 X163.041 Y100.868 E.02582
M73 P0 R71
G1 X162.225 Y100.982 E.02582
G1 X161.448 Y101.255 E.02582
G1 X160.741 Y101.676 E.02582
G1 X160.131 Y102.229 E.02582
G1 X159.643 Y102.892 E.02582
G1 X159.296 Y103.639 E.02582
G1 X159.104 Y104.432 E.02559
G1 X159.069 Y105.143 E.0223
G1 X159.179 Y105.958 E.0258
G1 X159.443 Y106.726 E.02545
G1 X159.768 Y107.304 E.02078
G1 X160.292 Y107.938 E.02582
G1 X160.932 Y108.456 E.02581
G1 X161.662 Y108.837 E.02581
G1 X162.453 Y109.066 E.02581
G1 X163.264 Y109.134 E.02552
G1 X163.973 Y109.062 E.02236
G1 X164.763 Y108.828 E.02582
G1 X165.49 Y108.442 E.02582
G1 X166.127 Y107.92 E.02582
G1 X166.648 Y107.282 E.02582
G1 X167.032 Y106.554 E.02582
G1 X167.211 Y105.973 E.01906
G1 X167.213 Y136.969 E.97187
G1 X167.152 Y137.585 E.01939
G1 X166.961 Y138.196 E.02009
G1 X166.704 Y138.671 E.01692
G1 X166.328 Y139.129 E.01856
G1 X165.872 Y139.503 E.0185
G1 X165.354 Y139.78 E.01843
G1 X164.739 Y139.961 E.0201
G1 X164.171 Y140.013 E.01789
G1 X134.302 Y140.013 E.93653
G1 X134.274 Y139.99 E.00113
M204 S1000
;WIPE_START
G1 F8640
G1 X134.257 Y135.876 E-.95
;WIPE_END
G1 E-.05 F2100
G1 Z.4 F720
G1 X89.657 Y107.414 F10800
G1 Z.2 F720
M73 P1 R71
M73 Q1 S72
G1 E1 F2100
M204 S800
;TYPE:External perimeter
G1 F1200
G1 X89.438 Y107.678 E.01074
G1 X88.855 Y108.148 E.02347
G1 X88.191 Y108.492 E.02347
G1 X87.471 Y108.699 E.02347
G1 X86.831 Y108.758 E.02016
G1 X86.089 Y108.69 E.02336
G1 X85.372 Y108.476 E.02346
G1 X84.711 Y108.124 E.02346
G1 X84.134 Y107.648 E.02346
G1 X83.662 Y107.068 E.02347
G1 X83.314 Y106.404 E.02347
G1 X83.136 Y105.836 E.01868
;WIDTH:0.469345
G1 X83.093 Y105.696 E.00519
;WIDTH:0.51869
G1 X83.05 Y105.556 E.00579
;WIDTH:0.568035
G1 X83.007 Y105.416 E.00639
G1 X82.978 Y105.059 E.01565
;WIDTH:0.566874
G1 X83.007 Y104.451 E.0265
G1 X83.092 Y104.212 E.01108
;WIDTH:0.517916
G1 X83.176 Y103.972 E.01004
;WIDTH:0.468958
G1 X83.261 Y103.732 E.00901
;WIDTH:0.419999
G1 X83.583 Y103.056 E.02347
G1 X84.032 Y102.457 E.02347
G1 X84.59 Y101.959 E.02347
G1 X85.237 Y101.581 E.02347
G1 X85.945 Y101.339 E.02347
G1 X86.688 Y101.242 E.02347
G1 X87.434 Y101.295 E.02347
G1 X88.156 Y101.494 E.02347
G1 X88.824 Y101.832 E.02347
G1 X89.438 Y102.322 E.02464
G1 X89.895 Y102.867 E.0223
G1 X90.257 Y103.523 E.02347
G1 X90.481 Y104.237 E.02347
G1 X90.559 Y104.981 E.02347
G1 X90.488 Y105.726 E.02347
G1 X90.271 Y106.443 E.02347
G1 X89.917 Y107.102 E.02347
G1 X89.695 Y107.368 E.01085
M204 S1000
G1 X89.79 Y107.73 F10800
;WIPE_START
G1 F8640
G1 X89.438 Y107.678 E-.09294
G1 X88.855 Y108.148 E-.17285
G1 X88.191 Y108.492 E-.17286
G1 X87.471 Y108.699 E-.17285
G1 X86.831 Y108.758 E-.1485
G1 X86.089 Y108.69 E-.17206
G1 X86.014 Y108.668 E-.01795
;WIPE_END
G1 E-.05 F2100
G1 Z.4 F720
G1 X133.911 Y140.202 F10800
G1 Z.2 F720
G1 E1 F2100
M204 S800
G1 F1200
G1 X133.85 Y139.98 E.00724
G1 X133.85 Y128.458 E.36125
G1 X133.761 Y127.673 E.02478
G1 X133.564 Y127.056 E.02029
G1 X133.259 Y126.485 E.02033
G1 X132.766 Y125.884 E.02435
G1 X132.21 Y125.437 E.02238
G1 X131.522 Y125.089 E.02417
G1 X130.898 Y124.913 E.02034
G1 X130.257 Y124.852 E.0202
G1 X129.608 Y124.91 E.0204
G1 X128.865 Y125.124 E.02425
G1 X128.237 Y125.459 E.02231
G1 X127.686 Y125.912 E.02238
G1 X127.201 Y126.515 E.02428
G1 X126.902 Y127.088 E.02025
G1 X126.711 Y127.709 E.02036
G1 X126.63 Y128.458 E.02364
G1 X126.63 Y139.935 E.35983
G1 X126.612 Y140.099 E.00517
G1 X126.476 Y140.302 E.00769
G1 X126.22 Y140.39 E.0085
G1 X85.64 Y140.386 E1.27234
G1 X84.863 Y140.256 E.0247
G1 X84.248 Y140.012 E.02075
G1 X83.649 Y139.619 E.02244
G1 X83.18 Y139.15 E.0208
G1 X82.811 Y138.597 E.02085
G1 X82.573 Y138.033 E.0192
G1 X82.478 Y137.577 E.01462
G1 X82.41 Y136.992 E.01844
G1 X82.41 Y105.945 E.97345
;WIDTH:0.469345
G1 X82.435 Y105.78 E.00595
;WIDTH:0.51869
G1 X82.459 Y105.614 E.00664
;WIDTH:0.568035
G1 X82.484 Y105.448 E.00732
G1 X82.474 Y105.043 E.01768
;WIDTH:0.574582
G1 X82.487 Y104.336 E.03124
G1 X82.468 Y104.159 E.00791
;WIDTH:0.535937
G1 X82.449 Y103.981 E.00733
;WIDTH:0.497291
G1 X82.429 Y103.803 E.00676
;WIDTH:0.458645
G1 X82.41 Y103.625 E.00618
;WIDTH:0.419999
G1 X82.41 Y73.012 E.95985
G1 X82.476 Y72.34 E.02119
G1 X82.69 Y71.655 E.02248
G1 X82.954 Y71.161 E.01757
G1 X83.404 Y70.603 E.02248
G1 X83.917 Y70.182 E.0208
G1 X84.502 Y69.869 E.02081
G1 X85.19 Y69.667 E.02246
G1 X85.812 Y69.61 E.01958
G1 X164.25 Y69.612 E2.45938
G1 X164.861 Y69.676 E.01925
G1 X165.497 Y69.869 E.02085
G1 X166.083 Y70.182 E.02083
G1 X166.596 Y70.604 E.02083
G1 X167.018 Y71.117 E.02083
G1 X167.331 Y71.703 E.02083
G1 X167.524 Y72.341 E.02089
G1 X167.586 Y72.836 E.01565
G1 X167.588 Y103.419 E.9589
;WIDTH:0.46051
G1 X167.567 Y103.624 E.00715
;WIDTH:0.50102
G1 X167.547 Y103.829 E.00784
;WIDTH:0.54153
G1 X167.527 Y104.034 E.00854
;WIDTH:0.58204
G1 X167.507 Y104.239 E.00923
G1 X167.525 Y105.05 E.03639
;WIDTH:0.556384
G1 X167.52 Y105.87 E.035
G1 X167.542 Y106.107 E.01017
;WIDTH:0.510923
G1 X167.565 Y106.344 E.00927
;WIDTH:0.465461
G1 X167.588 Y106.581 E.00837
;WIDTH:0.419999
G1 X167.59 Y136.988 E.95338
G1 X167.524 Y137.66 E.02119
G1 X167.31 Y138.344 E.02246
G1 X167.018 Y138.882 E.0192
G1 X166.596 Y139.396 E.02085
G1 X166.083 Y139.818 E.02083
G1 X165.498 Y140.131 E.02081
G1 X164.81 Y140.333 E.02246
G1 X164.188 Y140.39 E.01958
G1 X134.31 Y140.39 E.93683
G1 X134.101 Y140.358 E.00662
G1 X133.958 Y140.24 E.00581
M204 S1000
G1 X134.02 Y139.999 F10800
;WIPE_START
G1 F8640
G1 X133.85 Y139.98 E-.06512
G1 X133.85 Y136.148 E-.88488
;WIPE_END
G1 E-.05 F2100
G1 Z.4 F720
G1 X159.74 Y103.565 F10800
G1 Z.2 F720
G1 E1 F2100
M204 S800
G1 F1200
G1 X159.983 Y103.056 E.01768
G1 X160.432 Y102.457 E.02347
G1 X160.99 Y101.959 E.02347
G1 X161.637 Y101.581 E.02347
G1 X162.345 Y101.339 E.02347
G1 X163.088 Y101.242 E.02347
G1 X163.834 Y101.295 E.02347
G1 X164.556 Y101.494 E.02347
G1 X165.224 Y101.832 E.02347
G1 X165.811 Y102.296 E.02347
G1 X166.295 Y102.867 E.02347
G1 X166.657 Y103.523 E.02347
;WIDTH:0.459297
G1 X166.75 Y103.755 E.00867
;WIDTH:0.498595
G1 X166.844 Y103.987 E.00949
;WIDTH:0.537892
G1 X166.937 Y104.219 E.01031
;WIDTH:0.58204
G1 X166.969 Y104.265 E.00251
G1 X167.022 Y104.975 E.03189
G1 X166.969 Y105.735 E.03413
G1 X166.895 Y105.912 E.00861
;WIDTH:0.541569
G1 X166.82 Y106.089 E.00796
;WIDTH:0.501046
G1 X166.746 Y106.266 E.00732
;WIDTH:0.460523
G1 X166.671 Y106.443 E.00667
;WIDTH:0.419999
G1 X166.317 Y107.102 E.02347
G1 X165.838 Y107.678 E.02347
G1 X165.255 Y108.148 E.02347
G1 X164.591 Y108.492 E.02347
G1 X163.871 Y108.699 E.02347
G1 X163.231 Y108.758 E.02016
G1 X162.489 Y108.69 E.02336
G1 X161.772 Y108.476 E.02346
G1 X161.111 Y108.124 E.02346
G1 X160.534 Y107.648 E.02347
G1 X160.062 Y107.067 E.02348
G1 X159.774 Y106.546 E.01868
G1 X159.537 Y105.84 E.02335
G1 X159.443 Y105.097 E.02346
G1 X159.48 Y104.456 E.02014
G1 X159.661 Y103.732 E.0234
G1 X159.715 Y103.619 E.00391
M204 S1000
G1 X159.496 Y103.248 F10800
;WIPE_START
G1 F8640
G1 X159.983 Y103.056 E-.14406
G1 X160.432 Y102.457 E-.17285
G1 X160.99 Y101.959 E-.17285
G1 X161.637 Y101.581 E-.17285
G1 X162.345 Y101.339 E-.17286
G1 X162.837 Y101.275 E-.11453
;WIPE_END
G1 E-.05 F2100
G1 Z.4 F720
G1 X167.098 Y107.829 F10800
G1 Z.2 F720
G1 E1 F2100
M204 S800
;TYPE:Solid infill
;WIDTH:0.42061
G1 F1200
G1 X166.811 Y107.542 E.01273
G1 X166.564 Y107.83 E.0119
G1 X166.928 Y108.193 E.01616
G1 X166.928 Y108.728 E.01678
G1 X166.316 Y108.115 E.02719
G1 X166.229 Y108.215 E.00416
G1 X166.033 Y108.366 E.00778
G1 X166.928 Y109.262 E.03977
G1 X166.928 Y109.796 E.01678
G1 X165.731 Y108.599 E.05318
G1 X165.532 Y108.751 E.00786
G1 X165.411 Y108.813 E.00427
G1 X166.928 Y110.33 E.06737
G1 X166.928 Y110.864 E.01678
G1 X165.058 Y108.994 E.08305
G1 X164.888 Y109.082 E.00602
G1 X164.685 Y109.155 E.00678
G1 X166.928 Y111.398 E.09966
G1 X166.928 Y111.933 E.01678
G1 X164.262 Y109.266 E.11841
G1 X163.829 Y109.367 E.01398
G1 X166.928 Y112.467 E.13767
G1 X166.928 Y113.001 E.01678
G1 X163.33 Y109.402 E.15983
G1 X163.141 Y109.416 E.00595
G1 X162.772 Y109.378 E.01166
G1 X166.929 Y113.535 E.18462
G1 X166.929 Y114.069 E.01678
G1 X161.875 Y109.016 E.22445
M204 S1000
;WIPE_START
G1 F8640
G1 X164.784 Y111.925 E-.95
;WIPE_END
G1 E-.05 F2100
G1 Z.4 F720
G1 X167.054 Y72.533 F10800
G1 Z.2 F720
G1 E1 F2100
M204 S800
G1 F1200
G1 X164.899 Y70.377 E.09573
G1 X164.729 Y70.326 E.00557
G1 X164.264 Y70.277 E.01468
G1 X166.926 Y72.938 E.11821
G1 X166.926 Y73.472 E.01678
G1 X163.725 Y70.271 E.14216
G1 X163.191 Y70.271 E.01677
G1 X166.926 Y74.007 E.16589
G1 X166.926 Y74.541 E.01678
G1 X162.657 Y70.271 E.18961
G1 X162.122 Y70.271 E.01677
G1 X166.926 Y75.075 E.21334
G1 X166.926 Y75.609 E.01678
G1 X161.588 Y70.271 E.23706
G1 X161.054 Y70.271 E.01677
G1 X166.926 Y76.143 E.26079
G1 X166.926 Y76.677 E.01678
G1 X160.52 Y70.271 E.28451
G1 X159.986 Y70.271 E.01677
M73 Q1 S71
G1 X166.926 Y77.212 E.30824
G1 X166.926 Y77.746 E.01678
G1 X159.452 Y70.271 E.33196
G1 X158.918 Y70.271 E.01677
G1 X166.926 Y78.28 E.35569
G1 X166.926 Y78.814 E.01678
G1 X158.383 Y70.271 E.37941
G1 X157.849 Y70.271 E.01677
G1 X166.926 Y79.348 E.40314
G1 X166.926 Y79.882 E.01678
G1 X157.315 Y70.271 E.42686
G1 X156.781 Y70.271 E.01677
G1 X166.926 Y80.417 E.45059
G1 X166.926 Y80.951 E.01678
G1 X156.247 Y70.271 E.47431
G1 X155.713 Y70.271 E.01677
G1 X166.926 Y81.485 E.49804
G1 X166.926 Y82.019 E.01678
G1 X155.179 Y70.271 E.52176
G1 X154.644 Y70.271 E.01677
G1 X166.926 Y82.553 E.54549
G1 X166.926 Y83.087 E.01678
G1 X154.11 Y70.271 E.56921
G1 X153.576 Y70.271 E.01677
G1 X166.926 Y83.622 E.59294
G1 X166.927 Y84.156 E.01678
G1 X153.042 Y70.271 E.61666
G1 X152.508 Y70.271 E.01677
G1 X166.927 Y84.69 E.64039
G1 X166.927 Y85.224 E.01678
G1 X151.974 Y70.271 E.66411
G1 X151.44 Y70.271 E.01677
G1 X166.927 Y85.758 E.68784
G1 X166.927 Y86.292 E.01678
G1 X150.905 Y70.271 E.71156
G1 X150.371 Y70.271 E.01677
G1 X166.927 Y86.827 E.73529
G1 X166.927 Y87.361 E.01678
M73 P2 R71
M73 Q2 S71
G1 X149.837 Y70.271 E.75901
G1 X149.303 Y70.271 E.01677
G1 X166.927 Y87.895 E.78273
G1 X166.927 Y88.429 E.01678
G1 X148.769 Y70.271 E.80646
G1 X148.235 Y70.271 E.01677
G1 X166.927 Y88.963 E.83018
G1 X166.927 Y89.497 E.01678
G1 X147.701 Y70.271 E.85391
G1 X147.166 Y70.271 E.01677
G1 X166.927 Y90.032 E.87763
G1 X166.927 Y90.566 E.01678
G1 X146.632 Y70.271 E.90136
G1 X146.098 Y70.271 E.01677
G1 X166.927 Y91.1 E.92508
G1 X166.927 Y91.634 E.01678
G1 X145.564 Y70.271 E.94881
G1 X145.03 Y70.271 E.01677
M73 P2 R70
G1 X166.927 Y92.168 E.97253
G1 X166.927 Y92.702 E.01678
G1 X144.496 Y70.271 E.99626
G1 X143.961 Y70.271 E.01677
G1 X166.927 Y93.237 E1.01998
G1 X166.927 Y93.771 E.01678
G1 X143.427 Y70.271 E1.04371
