; generated by PrusaSlicer 2.5.0+linux-x64-GTK3 on 2023-02-16 at 11:39:27 UTC


;
;

;
;
; 

; external perimeters extrusion width = 0.45mm
; perimeters extrusion width = 0.45mm
; infill extrusion width = 0.45mm
; solid infill extrusion width = 0.45mm
; top infill extrusion width = 0.40mm
; first layer extrusion width = 0.42mm

M73 P0 R108
M73 Q0 S109
M201 X1000 Y1000 Z200 E5000 ; sets maximum accelerations, mm/sec^2
M203 X200 Y200 Z12 E120 ; sets maximum feedrates, mm / sec
M204 P1250 R1250 T1250 ; sets acceleration (P, T) and retract acceleration (R), mm/sec^2
M205 X8.00 Y8.00 Z0.40 E4.50 ; sets the jerk limits, mm/sec
M205 S0 T0 ; sets the minimum extruding and travel feed rate, mm/sec
M107
;TYPE:Custom
M862.3 P "MK3S" ; printer model check
M862.1 P0.4 ; nozzle diameter check
M115 U3.9.2 ; tell printer latest fw version
G90 ; use absolute coordinates
M83 ; extruder relative mode
M104 S240 ; set extruder temp
M140 S85 ; set bed temp
M190 S85 ; wait for bed temp
M109 S240 ; wait for extruder temp
G28 W ; home all without mesh bed level
G80 ; mesh bed leveling
G1 Y-3.0 F1000.0 ; go outside print area
G92 E0.0
G1 X60.0 E9.0 F1000.0 ; intro line
G1 X100.0 E12.5 F1000.0 ; intro line
G92 E0.0
M221 S95

; Don't change E values below. Excessive value can damage the printer.
M907 E430 ; set extruder motor current
G21 ; set units to millimeters
G90 ; use absolute coordinates
M83 ; use relative distances for extrusion
M900 K0.08 ; Filament gcode LA 1.5
M900 K45 ; Filament gcode LA 1.0
M107
;LAYER_CHANGE
;Z:0.2
;HEIGHT:0.2
;BEFORE_LAYER_CHANGE
G92 E0.0
;0.2


G1 E-1 F2100
G1 Z.2 F720
;AFTER_LAYER_CHANGE
;0.2
G1 Z.4
G1 X58.732 Y68.45 F10800
G1 Z.2 F720
G1 E1 F2100
M204 S800
;TYPE:Skirt/Brim
;WIDTH:0.42
G1 F1200
G1 X59.972 Y67.501 E.04895
G1 X60.814 Y67.087 E.02941
G1 X61.594 Y66.829 E.02577
G1 X62.322 Y66.684 E.02327
G1 X63.2 Y66.623 E.02759
G1 X186.858 Y66.624 E3.87722
G1 X187.987 Y66.735 E.03555
G1 X189.186 Y67.087 E.03919
G1 X190.294 Y67.666 E.03919
G1 X191.268 Y68.45 E.0392
G1 X192.069 Y69.409 E.03919
G1 X192.669 Y70.506 E.03919
G1 X193.042 Y71.699 E.03919
G1 X193.172 Y72.745 E.03306
G1 X193.172 Y137.255 E2.02265
G1 X193.065 Y138.187 E.02941
G1 X192.885 Y138.907 E.02327
G1 X192.239 Y140.328 E.04895
G1 X191.268 Y141.55 E.04895
G1 X190.028 Y142.499 E.04895
G1 X189.294 Y142.869 E.02577
G1 X188.406 Y143.171 E.02941
G1 X187.678 Y143.316 E.02328
G1 X186.8 Y143.377 E.02759
G1 X63.142 Y143.376 E3.87722
G1 X61.594 Y143.171 E.04895
G1 X60.706 Y142.869 E.02941
G1 X59.972 Y142.499 E.02577
G1 X58.732 Y141.55 E.04895
G1 X58.234 Y141 E.02327
G1 X57.701 Y140.228 E.02941
G1 X57.331 Y139.494 E.02577
G1 X57.029 Y138.606 E.02941
G1 X56.824 Y137.058 E.04895
G1 X56.828 Y72.745 E2.01649
G1 X57.081 Y71.205 E.04895
G1 X57.701 Y69.772 E.04894
G1 X58.234 Y69 E.02942
G1 X58.692 Y68.494 E.02139
M204 S1000
; printing object Right_cable_holder.stl id:0 copy 0
;WIPE_START
G1 F8640
G1 X59.972 Y67.501 E-.37412
G1 X60.814 Y67.087 E-.21662
G1 X61.594 Y66.829 E-.18977
G1 X62.314 Y66.686 E-.16948
;WIPE_END
G1 E-.05 F2100
G1 Z.4 F720
G1 X114.898 Y69.99 F10800
G1 Z.2 F720
G1 E1 F2100
M204 S800
;TYPE:Perimeter
;WIDTH:0.419999
G1 F1200
G1 X132.778 Y69.987 E.56062
G1 X132.894 Y70.032 E.0039
G1 X132.902 Y74.85 E.15108
G1 X133.016 Y75.666 E.02584
G1 X133.295 Y76.494 E.02738
G1 X133.653 Y77.14 E.02314
G1 X134.268 Y77.878 E.03013
G1 X134.868 Y78.366 E.02425
G1 X135.65 Y78.791 E.02791
G1 X136.169 Y78.97 E.01721
G1 X137.039 Y79.125 E.02773
G1 X137.918 Y79.106 E.02755
G1 X138.707 Y78.939 E.02529
G1 X139.522 Y78.596 E.02773
G1 X140.254 Y78.1 E.02773
G1 X140.877 Y77.465 E.02791
G1 X141.396 Y76.657 E.0301
G1 X141.68 Y75.938 E.02424
G1 X141.866 Y74.85 E.0346
G1 X141.874 Y70.071 E.14984
G1 X141.898 Y69.999 E.00239
G1 X152.81 Y69.987 E.34212
G1 X152.894 Y70.042 E.00316
G1 X152.902 Y74.85 E.15075
G1 X153.016 Y75.666 E.02584
G1 X153.295 Y76.494 E.02738
G1 X153.653 Y77.14 E.02314
G1 X154.268 Y77.878 E.03013
G1 X154.957 Y78.425 E.02757
G1 X155.65 Y78.791 E.02458
G1 X156.169 Y78.97 E.01721
G1 X157.039 Y79.125 E.02773
G1 X157.918 Y79.106 E.02755
G1 X158.707 Y78.939 E.02529
G1 X159.522 Y78.596 E.02773
G1 X160.254 Y78.1 E.02773
G1 X160.877 Y77.465 E.02791
G1 X161.396 Y76.657 E.0301
G1 X161.712 Y75.823 E.02797
G1 X161.866 Y74.85 E.03088
G1 X161.874 Y70.074 E.14975
G1 X161.931 Y69.987 E.00327
G1 X186.769 Y69.987 E.77877
G1 X187.387 Y70.048 E.01947
G1 X187.952 Y70.219 E.0185
G1 X188.472 Y70.497 E.0185
G1 X188.928 Y70.872 E.0185
G1 X189.303 Y71.328 E.0185
G1 X189.581 Y71.848 E.0185
G1 X189.752 Y72.413 E.0185
G1 X189.813 Y73.031 E.01947
G1 X189.813 Y104.017 E.97156
G1 X189.551 Y103.264 E.025
G1 X189.133 Y102.555 E.02581
G1 X188.583 Y101.943 E.02581
G1 X187.922 Y101.452 E.02581
G1 X187.177 Y101.102 E.02581
G1 X186.389 Y100.908 E.02546
G1 X185.736 Y100.866 E.02049
G1 X185.027 Y100.938 E.02237
G1 X184.237 Y101.172 E.02582
G1 X183.51 Y101.558 E.02582
G1 X182.873 Y102.08 E.02582
G1 X182.352 Y102.718 E.02582
G1 X181.968 Y103.446 E.02582
G1 X181.736 Y104.236 E.02582
G1 X181.666 Y105.056 E.02582
G1 X181.759 Y105.874 E.02582
G1 X182.012 Y106.658 E.02582
G1 X182.416 Y107.376 E.02582
G1 X182.873 Y107.92 E.0223
G1 X183.604 Y108.504 E.02933
G1 X184.342 Y108.869 E.02582
G1 X185.138 Y109.081 E.02582
G1 X185.959 Y109.132 E.02582
G1 X186.775 Y109.018 E.02582
G1 X187.552 Y108.745 E.02582
G1 X188.259 Y108.324 E.02582
G1 X188.869 Y107.771 E.02582
G1 X189.357 Y107.108 E.02582
G1 X189.666 Y106.467 E.0223
G1 X189.813 Y105.934 E.01732
G1 X189.813 Y136.969 E.97307
G1 X189.752 Y137.587 E.01947
G1 X189.581 Y138.152 E.0185
G1 X189.303 Y138.672 E.0185
G1 X188.928 Y139.128 E.0185
G1 X188.472 Y139.503 E.0185
G1 X187.952 Y139.781 E.0185
G1 X187.387 Y139.952 E.0185
G1 X186.769 Y140.013 E.01947
G1 X63.231 Y140.013 E3.87345
G1 X62.613 Y139.952 E.01947
G1 X62.048 Y139.781 E.0185
G1 X61.526 Y139.502 E.01855
G1 X61.109 Y139.164 E.01685
G1 X60.669 Y138.628 E.02174
G1 X60.439 Y138.198 E.01526
G1 X60.245 Y137.578 E.02036
G1 X60.191 Y137.141 E.01383
G1 X60.189 Y105.973 E.97722
G1 X60.412 Y106.658 E.02257
G1 X60.816 Y107.375 E.02582
G1 X61.354 Y107.999 E.02582
G1 X62.004 Y108.504 E.02582
G1 X62.742 Y108.869 E.02582
G1 X63.538 Y109.081 E.02582
G1 X64.359 Y109.132 E.02582
G1 X65.175 Y109.018 E.02582
G1 X65.952 Y108.745 E.02582
G1 X66.659 Y108.324 E.02582
G1 X67.269 Y107.771 E.02582
G1 X67.757 Y107.108 E.02582
G1 X68.104 Y106.361 E.02582
G1 X68.296 Y105.568 E.02559
G1 X68.331 Y104.857 E.0223
G1 X68.246 Y104.152 E.02229
G1 X68.177 Y103.909 E.00791
G1 X67.937 Y103.239 E.02231
G1 X67.533 Y102.555 E.02491
G1 X66.924 Y101.898 E.02808
G1 X66.322 Y101.452 E.0235
G1 X65.577 Y101.102 E.02581
G1 X64.789 Y100.908 E.02546
G1 X64.136 Y100.866 E.02049
G1 X63.427 Y100.938 E.02237
G1 X62.637 Y101.172 E.02582
G1 X61.91 Y101.558 E.02582
G1 X61.273 Y102.08 E.02582
G1 X60.752 Y102.718 E.02582
G1 X60.368 Y103.446 E.02582
G1 X60.189 Y104.027 E.01906
G1 X60.187 Y73.031 E.97187
G1 X60.248 Y72.411 E.01952
G1 X60.401 Y71.896 E.01684
G1 X60.727 Y71.286 E.02169
G1 X61.07 Y70.873 E.01684
G1 X61.526 Y70.499 E.01848
G1 X62.094 Y70.201 E.0201
G1 X62.611 Y70.048 E.01692
G1 X63.231 Y69.987 E.01952
G1 X73.847 Y69.989 E.33288
G1 X73.894 Y70.029 E.00192
G1 X73.906 Y74.915 E.1532
G1 X73.984 Y75.512 E.01889
G1 X74.266 Y76.431 E.03013
G1 X74.695 Y77.204 E.02774
G1 X75.268 Y77.878 E.02773
G1 X75.957 Y78.425 E.02757
G1 X76.65 Y78.791 E.02458
G1 X77.241 Y78.984 E.0195
G1 X78.039 Y79.125 E.02541
G1 X78.918 Y79.106 E.02755
G1 X79.605 Y78.969 E.02197
G1 X80.522 Y78.596 E.03104
G1 X81.254 Y78.1 E.02773
G1 X81.877 Y77.465 E.02791
G1 X82.396 Y76.657 E.0301
G1 X82.712 Y75.823 E.02797
G1 X82.866 Y74.85 E.03088
G1 X82.874 Y70.035 E.15097
G1 X82.912 Y69.99 E.00185
G1 X105.823 Y69.987 E.71836
G1 X105.894 Y70.057 E.00311
G1 X105.907 Y74.925 E.15265
G1 X106.016 Y75.666 E.02349
M73 Q0 S108
G1 X106.295 Y76.494 E.02738
G1 X106.653 Y77.14 E.02314
G1 X107.268 Y77.878 E.03013
G1 X107.957 Y78.425 E.02757
G1 X108.65 Y78.791 E.02458
G1 X109.169 Y78.97 E.01721
G1 X110.039 Y79.125 E.02773
G1 X110.918 Y79.106 E.02755
G1 X111.707 Y78.939 E.02529
G1 X112.522 Y78.596 E.02773
G1 X113.254 Y78.1 E.02773
G1 X113.877 Y77.465 E.02791
G1 X114.342 Y76.76 E.02647
G1 X114.712 Y75.823 E.03159
G1 X114.866 Y74.85 E.03088
G1 X114.874 Y70.043 E.15074
M204 S1000
G1 X114.611 Y69.727 F10800
M204 S800
;TYPE:External perimeter
G1 F1200
G1 X114.851 Y69.613 E.00833
G1 X132.778 Y69.61 E.56207
G1 X133.096 Y69.683 E.01023
G1 X133.176 Y69.782 E.00399
G1 X133.271 Y69.967 E.00653
G1 X133.28 Y74.875 E.15386
G1 X133.375 Y75.55 E.02137
G1 X133.627 Y76.316 E.02529
G1 X133.946 Y76.902 E.02092
G1 X134.478 Y77.558 E.02648
G1 X135.135 Y78.093 E.02657
G1 X135.767 Y78.432 E.02248
G1 X136.239 Y78.6 E.01572
G1 X137.036 Y78.748 E.0254
G1 X137.844 Y78.737 E.02534
G1 X138.565 Y78.589 E.02308
G1 X139.314 Y78.281 E.0254
G1 X139.988 Y77.832 E.0254
G1 X140.563 Y77.257 E.02547
G1 X141.045 Y76.518 E.02768
G1 X141.34 Y75.761 E.02548
G1 X141.489 Y74.849 E.02895
G1 X141.497 Y69.981 E.15263
G1 X141.593 Y69.749 E.00787
G1 X141.804 Y69.622 E.00772
G1 X152.797 Y69.61 E.34471
G1 X153.065 Y69.662 E.00855
M73 P0 R107
G1 X153.203 Y69.787 E.00582
G1 X153.271 Y69.976 E.00632
G1 X153.28 Y74.875 E.15358
G1 X153.375 Y75.55 E.02137
G1 X153.627 Y76.316 E.02529
G1 X153.946 Y76.902 E.02092
G1 X154.505 Y77.586 E.0277
G1 X155.135 Y78.093 E.02535
G1 X155.767 Y78.432 E.02249
G1 X156.239 Y78.6 E.0157
G1 X157.036 Y78.748 E.0254
G1 X157.844 Y78.737 E.02534
G1 X158.565 Y78.589 E.02308
G1 X159.314 Y78.281 E.0254
G1 X159.988 Y77.832 E.0254
G1 X160.563 Y77.257 E.02547
G1 X161.045 Y76.518 E.02768
G1 X161.34 Y75.761 E.02548
G1 X161.489 Y74.849 E.02895
G1 X161.497 Y69.982 E.15263
G1 X161.589 Y69.758 E.00758
G1 X161.7 Y69.684 E.00418
G1 X161.904 Y69.61 E.0068
G1 X186.788 Y69.61 E.78021
G1 X187.461 Y69.676 E.02122
G1 X188.097 Y69.869 E.02083
G1 X188.683 Y70.182 E.02083
G1 X189.196 Y70.604 E.02083
G1 X189.618 Y71.117 E.02083
G1 X189.931 Y71.703 E.02083
G1 X190.124 Y72.339 E.02083
G1 X190.19 Y73.012 E.02122
G1 X190.19 Y103.332 E.95065
;WIDTH:0.463022
G1 X190.168 Y103.538 E.00721
;WIDTH:0.506045
G1 X190.147 Y103.743 E.00795
;WIDTH:0.549068
G1 X190.125 Y103.948 E.00869
;WIDTH:0.59209
G1 X190.104 Y104.154 E.00943
G1 X190.126 Y104.957 E.03669
;WIDTH:0.555182
G1 X190.122 Y105.664 E.03009
G1 X190.145 Y105.901 E.01014
;WIDTH:0.510121
G1 X190.167 Y106.138 E.00925
;WIDTH:0.46506
G1 X190.19 Y106.375 E.00836
;WIDTH:0.419999
G1 X190.19 Y136.988 E.95985
G1 X190.124 Y137.661 E.02122
G1 X189.931 Y138.297 E.02083
G1 X189.618 Y138.883 E.02083
G1 X189.196 Y139.396 E.02083
G1 X188.683 Y139.818 E.02083
G1 X188.097 Y140.131 E.02083
G1 X187.461 Y140.324 E.02083
G1 X186.788 Y140.39 E.02122
G1 X63.212 Y140.39 E3.87461
G1 X62.539 Y140.324 E.02122
M73 P1 R107
M73 Q1 S108
G1 X61.903 Y140.131 E.02083
G1 X61.317 Y139.818 E.02085
G1 X60.842 Y139.432 E.01918
G1 X60.354 Y138.838 E.02411
G1 X60.09 Y138.345 E.01754
G1 X59.875 Y137.658 E.02255
G1 X59.814 Y137.164 E.01563
G1 X59.812 Y106.581 E.9589
;WIDTH:0.460509
G1 X59.833 Y106.376 E.00715
;WIDTH:0.501019
G1 X59.853 Y106.171 E.00784
;WIDTH:0.541529
G1 X59.873 Y105.966 E.00854
;WIDTH:0.582038
G1 X59.893 Y105.761 E.00923
G1 X59.875 Y104.95 E.03639
;WIDTH:0.546571
G1 X59.871 Y104.13 E.03433
;WIDTH:0.537924
G1 X59.851 Y103.893 E.00979
;WIDTH:0.498616
G1 X59.832 Y103.656 E.00901
;WIDTH:0.459308
G1 X59.812 Y103.419 E.00824
;WIDTH:0.419999
G1 X59.81 Y73.012 E.95338
G1 X59.876 Y72.338 E.02123
G1 X60.05 Y71.752 E.01917
G1 X60.412 Y71.074 E.02409
G1 X60.803 Y70.604 E.01917
G1 X61.316 Y70.183 E.02082
G1 X61.951 Y69.85 E.02246
G1 X62.538 Y69.676 E.0192
G1 X63.212 Y69.61 E.02123
G1 X73.944 Y69.623 E.3365
G1 X74.161 Y69.73 E.00759
G1 X74.271 Y69.973 E.00834
G1 X74.279 Y74.849 E.15291
G1 X74.345 Y75.406 E.01757
G1 X74.598 Y76.252 E.02769
G1 X74.986 Y76.964 E.02541
G1 X75.505 Y77.586 E.02541
G1 X76.135 Y78.093 E.02535
G1 X76.778 Y78.436 E.02285
G1 X77.311 Y78.614 E.01763
G1 X78.036 Y78.748 E.02309
G1 X78.872 Y78.731 E.02623
G1 X79.695 Y78.536 E.0265
G1 X80.314 Y78.281 E.02101
G1 X80.988 Y77.832 E.02541
G1 X81.563 Y77.257 E.02547
G1 X82.045 Y76.518 E.02768
G1 X82.34 Y75.761 E.02548
G1 X82.489 Y74.849 E.02895
G1 X82.497 Y69.967 E.15307
G1 X82.614 Y69.723 E.0085
G1 X82.856 Y69.613 E.00833
G1 X105.807 Y69.61 E.7196
G1 X105.982 Y69.627 E.00553
G1 X106.179 Y69.758 E.00739
G1 X106.271 Y69.982 E.00758
G1 X106.279 Y74.85 E.15263
G1 X106.375 Y75.55 E.02216
G1 X106.627 Y76.316 E.02529
G1 X106.946 Y76.902 E.02092
G1 X107.505 Y77.586 E.0277
G1 X108.135 Y78.093 E.02535
G1 X108.766 Y78.431 E.02245
G1 X109.239 Y78.6 E.01574
G1 X110.036 Y78.748 E.0254
G1 X110.844 Y78.737 E.02534
G1 X111.565 Y78.589 E.02308
G1 X112.314 Y78.281 E.0254
G1 X112.988 Y77.832 E.0254
G1 X113.563 Y77.257 E.02547
G1 X114.045 Y76.518 E.02768
G1 X114.34 Y75.761 E.02548
G1 X114.489 Y74.849 E.02895
G1 X114.497 Y69.967 E.15307
G1 X114.586 Y69.781 E.00645
M204 S1000
G1 X114.87 Y69.789 F10800
;WIPE_START
G1 F8640
G1 X114.851 Y69.613 E-.07261
G1 X118.651 Y69.612 E-.87739
;WIPE_END
G1 E-.05 F2100
G1 Z.4 F720
G1 X65.942 Y108.315 F10800
G1 Z.2 F720
G1 E1 F2100
M204 S800
G1 F1200
G1 X65.763 Y108.419 E.00647
G1 X65.055 Y108.661 E.02347
G1 X64.312 Y108.758 E.02347
G1 X63.566 Y108.705 E.02347
G1 X62.844 Y108.506 E.02347
G1 X62.176 Y108.168 E.02347
G1 X61.589 Y107.704 E.02347
G1 X61.105 Y107.133 E.02347
G1 X60.743 Y106.477 E.02347
;WIDTH:0.465459
G1 X60.647 Y106.246 E.00881
;WIDTH:0.510919
G1 X60.55 Y106.015 E.00976
;WIDTH:0.556379
G1 X60.454 Y105.783 E.0107
G1 X60.378 Y105.025 E.03254
;WIDTH:0.582091
G1 X60.431 Y104.265 E.03414
G1 X60.505 Y104.088 E.00861
;WIDTH:0.541568
G1 X60.58 Y103.911 E.00796
;WIDTH:0.501045
G1 X60.654 Y103.734 E.00732
;WIDTH:0.460522
G1 X60.729 Y103.557 E.00667
;WIDTH:0.419999
G1 X61.083 Y102.898 E.02347
G1 X61.562 Y102.322 E.02347
G1 X62.145 Y101.852 E.02347
G1 X62.809 Y101.508 E.02347
G1 X63.529 Y101.301 E.02347
G1 X64.169 Y101.242 E.02017
G1 X64.76 Y101.284 E.01858
G1 X65.482 Y101.467 E.02335
G1 X66.157 Y101.791 E.02346
G1 X66.695 Y102.198 E.02115
G1 X67.249 Y102.803 E.02574
G1 X67.61 Y103.426 E.02256
G1 X67.819 Y104.027 E.01996
G1 X67.914 Y104.546 E.01652
G1 X67.958 Y104.937 E.01235
G1 X67.92 Y105.547 E.01917
G1 X67.739 Y106.268 E.0233
G1 X67.417 Y106.944 E.02347
G1 X66.968 Y107.543 E.02347
G1 X66.41 Y108.041 E.02347
G1 X65.993 Y108.284 E.01512
M204 S1000
G1 X65.951 Y108.521 F10800
;WIPE_START
G1 F8640
G1 X65.763 Y108.419 E-.06153
G1 X65.055 Y108.661 E-.17285
G1 X64.312 Y108.758 E-.17285
G1 X63.566 Y108.705 E-.17285
G1 X62.844 Y108.506 E-.17285
G1 X62.176 Y108.168 E-.17286
G1 X62.094 Y108.103 E-.02421
;WIPE_END
G1 E-.05 F2100
G1 Z.4 F720
G1 X127.419 Y108.348 F10800
G1 Z.2 F720
G1 E1 F2100
M204 S800
;TYPE:Perimeter
G1 F1200
G1 X126.752 Y108.745 E.02435
G1 X125.975 Y109.018 E.02582
G1 X125.159 Y109.132 E.02582
G1 X124.338 Y109.081 E.02582
G1 X123.542 Y108.869 E.02582
G1 X122.804 Y108.504 E.02582
G1 X122.154 Y107.999 E.02582
G1 X121.616 Y107.375 E.02582
G1 X121.212 Y106.658 E.02582
G1 X120.959 Y105.874 E.02582
G1 X120.866 Y105.056 E.02582
G1 X120.929 Y104.309 E.02351
G1 X121.085 Y103.717 E.01919
G1 X121.212 Y103.342 E.01242
G1 X121.552 Y102.718 E.0223
G1 X122.073 Y102.08 E.02582
G1 X122.71 Y101.558 E.02582
G1 X123.437 Y101.172 E.02582
G1 X124.227 Y100.938 E.02582
G1 X124.936 Y100.866 E.02236
G1 X125.858 Y100.956 E.02903
G1 X126.539 Y101.163 E.02232
G1 X127.268 Y101.544 E.02578
G1 X127.908 Y102.062 E.02582
G1 X128.341 Y102.564 E.02078
G1 X128.751 Y103.264 E.02546
G1 X129.021 Y104.042 E.02581
G1 X129.131 Y104.857 E.0258
G1 X129.096 Y105.568 E.0223
G1 X128.904 Y106.361 E.02559
G1 X128.557 Y107.108 E.02582
G1 X128.069 Y107.771 E.02582
G1 X127.469 Y108.315 E.0254
M204 S1000
G1 X127.328 Y107.936 F10800
M204 S800
;TYPE:External perimeter
G1 F1200
G1 X127.21 Y108.041 E.00497
G1 X126.563 Y108.419 E.02347
G1 X125.855 Y108.661 E.02347
G1 X125.112 Y108.758 E.02347
G1 X124.366 Y108.705 E.02347
G1 X123.644 Y108.506 E.02347
G1 X122.976 Y108.168 E.02347
G1 X122.389 Y107.704 E.02347
G1 X121.905 Y107.133 E.02347
G1 X121.543 Y106.477 E.02347
G1 X121.319 Y105.763 E.02347
G1 X121.241 Y105.019 E.02347
