; generated by PrusaSlicer 2.5.0+linux-x64-GTK3 on 2022-11-07 at 19:56:02 UTC


;
;

;
;
; 

; external perimeters extrusion width = 0.45mm
; perimeters extrusion width = 0.45mm
; infill extrusion width = 0.45mm
; solid infill extrusion width = 0.45mm
; top infill extrusion width = 0.40mm
; support material extrusion width = 0.35mm
; first layer extrusion width = 0.42mm

; external perimeters extrusion width = 0.45mm
; perimeters extrusion width = 0.45mm
; infill extrusion width = 0.45mm
; solid infill extrusion width = 0.45mm
; top infill extrusion width = 0.40mm
; support material extrusion width = 0.35mm
; first layer extrusion width = 0.42mm

M73 P0 R91
M73 Q0 S91
M201 X1000 Y1000 Z200 E5000 ; sets maximum accelerations, mm/sec^2
M203 X200 Y200 Z12 E120 ; sets maximum feedrates, mm / sec
M204 P1250 R1250 T1250 ; sets acceleration (P, T) and retract acceleration (R), mm/sec^2
M205 X8.00 Y8.00 Z0.40 E4.50 ; sets the jerk limits, mm/sec
M205 S0 T0 ; sets the minimum extruding and travel feed rate, mm/sec
M107
;TYPE:Custom
M862.3 P "MK3S" ; printer model check
M862.1 P0.4 ; nozzle diameter check
M115 U3.9.2 ; tell printer latest fw version
G90 ; use absolute coordinates
M83 ; extruder relative mode
M104 S240 ; set extruder temp
M140 S85 ; set bed temp
M190 S85 ; wait for bed temp
M109 S240 ; wait for extruder temp
G28 W ; home all without mesh bed level
G80 ; mesh bed leveling
G1 Y-3.0 F1000.0 ; go outside print area
G92 E0.0
G1 X60.0 E9.0 F1000.0 ; intro line
G1 X100.0 E12.5 F1000.0 ; intro line
G92 E0.0
M221 S95

; Don't change E values below. Excessive value can damage the printer.
M907 E430 ; set extruder motor current
G21 ; set units to millimeters
G90 ; use absolute coordinates
M83 ; use relative distances for extrusion
M900 K0.08 ; Filament gcode LA 1.5
M900 K45 ; Filament gcode LA 1.0
M107
;LAYER_CHANGE
;Z:0.2
;HEIGHT:0.2
;BEFORE_LAYER_CHANGE
G92 E0.0
;0.2


G1 E-1 F2100
G1 Z.2 F720
;AFTER_LAYER_CHANGE
;0.2
; printing object XT60_pad.stl id:0 copy 0
G1 Z.4
G1 X147.771 Y112.164 F10800
G1 Z.2 F720
G1 E1 F2100
M204 S800
;TYPE:Perimeter
;WIDTH:0.419999
G1 F1200
G1 X147.915 Y111.556 E.01961
G1 X147.979 Y110.586 E.03046
G1 X147.979 Y101.789 E.27583
G1 X147.933 Y100.865 E.02902
G1 X148.093 Y101.063 E.00799
G1 X148.906 Y101.89 E.03635
G1 X148.906 Y112.065 E.31905
G1 X148.396 Y112.086 E.01599
M73 P0 R90
G1 X147.831 Y112.157 E.01786
M204 S1000
G1 E-1 F2100
G1 Z.4 F720
G1 X148.442 Y102.079 F10800
G1 Z.2 F720
G1 E1 F2100
M204 S800
;WIDTH:0.592356
G1 F1200
G1 X148.442 Y110.586 E.38864
;WIDTH:0.624749
G1 X148.426 Y111.088 E.02426
;WIDTH:0.657142
G1 X148.41 Y111.589 E.02561
M204 S1000
;WIPE_START
G1 F8640
G1 X148.426 Y111.088 E-.11579
G1 X148.442 Y110.586 E-.11579
G1 X148.442 Y107.475 E-.71843
;WIPE_END
G1 E-.05 F2100
G1 Z.4 F720
G1 X147.758 Y107.475 F10800
G1 X147.758 Y111.281
G1 X147.451 Y112.306
G1 X140.143 Y112.306
G1 X140.08 Y112.09
G1 X139.823 Y112.164
G1 Z.2 F720
G1 E1 F2100
M204 S800
;WIDTH:0.419999
G1 F1200
G1 X139.395 Y112.1 E.01356
G1 X138.688 Y112.078 E.02217
G1 X138.688 Y101.89 E.31943
G1 X139.661 Y100.862 E.04439
G1 X139.615 Y101.817 E.03
G1 X139.615 Y110.586 E.27495
G1 X139.682 Y111.602 E.03192
G1 X139.808 Y112.106 E.01629
M204 S1000
G1 E-1 F2100
G1 Z.4 F720
G1 X138.311 Y112.444 F10800
G1 Z.2 F720
G1 E1 F2100
M204 S800
;TYPE:External perimeter
G1 F1200
G1 X138.311 Y101.736 E.33574
G1 X139.208 Y100.827 E.04003
G1 X139.442 Y100.53 E.01185
;WIDTH:0.42066
G1 X139.766 Y100.118 E.01646
G1 X140.137 Y99.704 E.01747
;WIDTH:0.42014
G1 X141.124 Y98.659 E.04509
;WIDTH:0.417668
G1 X141.199 Y98.584 E.00329
;WIDTH:0.415855
G1 X142.166 Y97.597 E.04285
;WIDTH:0.419226
G1 X142.432 Y97.367 E.01101
G1 X142.526 Y97.367 E.00294
;WIDTH:0.419044
G1 X145.068 Y97.367 E.0795
;WIDTH:0.419222
G1 X145.162 Y97.367 E.00294
G1 X145.429 Y97.597 E.01101
;WIDTH:0.415874
G1 X146.395 Y98.584 E.04285
;WIDTH:0.41741
G1 X146.459 Y98.648 E.00284
;WIDTH:0.418327
G1 X147.676 Y99.94 E.05537
;WIDTH:0.425068
G1 X148.361 Y100.799 E.03493
;WIDTH:0.419999
G1 X149.283 Y101.735 E.04119
G1 X149.283 Y112.439 E.33562
G1 X148.421 Y112.463 E.02702
G1 X147.219 Y112.636 E.03807
;WIDTH:0.419705
G1 X140.294 Y112.624 E.21697
;WIDTH:0.419999
G1 X139.384 Y112.477 E.02892
G1 X138.371 Y112.445 E.03175
M204 S1000
G1 X138.522 Y112.103 F10800
G1 E-1 F2100
G1 Z.4 F720
G1 X140.202 Y112.12 F10800
G1 Z.2 F720
G1 E1 F2100
M204 S800
G1 F1200
G1 X140.064 Y111.614 E.01644
G1 X139.992 Y110.586 E.0323
G1 X139.992 Y101.817 E.27495
G1 X140.044 Y100.804 E.0318
;WIDTH:0.42066
G1 X140.143 Y100.29 E.01646
G1 X140.412 Y99.961 E.01333
;WIDTH:0.42014
G1 X141.397 Y98.916 E.04505
;WIDTH:0.417668
G1 X141.469 Y98.84 E.00327
;WIDTH:0.415855
G1 X142.403 Y97.822 E.04285
;WIDTH:0.419044
G1 X142.526 Y97.743 E.00456
G1 X145.068 Y97.743 E.0795
G1 X145.191 Y97.822 E.00456
;WIDTH:0.415874
G1 X146.125 Y98.84 E.04285
;WIDTH:0.41741
G1 X146.187 Y98.905 E.0028
;WIDTH:0.418327
G1 X147.403 Y100.197 E.05537
;WIDTH:0.425068
G1 X147.453 Y100.289 E.00335
G1 X147.55 Y100.804 E.01665
;WIDTH:0.419999
G1 X147.602 Y101.808 E.03151
G1 X147.602 Y110.586 E.27524
G1 X147.539 Y111.53 E.02967
G1 X147.393 Y112.12 E.01905
G1 X147.204 Y112.259 E.00734
;WIDTH:0.419705
G1 X140.39 Y112.259 E.21349
;WIDTH:0.419999
G1 X140.25 Y112.156 E.00546
M204 S1000
G1 E-1 F2100
G1 Z.4 F720
G1 X139.184 Y111.597 F10800
G1 Z.2 F720
G1 E1 F2100
M204 S800
;TYPE:Perimeter
;WIDTH:0.657706
G1 F1200
G1 X139.169 Y111.126 E.02409
;WIDTH:0.626183
G1 X139.153 Y110.655 E.02286
;WIDTH:0.59466
G1 X139.152 Y110.586 E.00316
;WIDTH:0.592354
G1 X139.152 Y102.08 E.3886
M204 S1000
; stop printing object XT60_pad.stl id:0 copy 0
; printing object Tail_plug.stl id:1 copy 0
;WIPE_START
G1 F8640
G1 X139.152 Y106.195 E-.95
;WIPE_END
G1 E-.05 F2100
G1 Z.4 F720
G1 X129.837 Y77.271 F10800
G1 Z.2 F720
G1 E1 F2100
M204 S800
;WIDTH:0.419999
G1 F1200
G1 X129.837 Y132.72 E1.73854
G1 X128.715 Y132.701 E.03519
G1 X127.34 Y132.598 E.04324
G1 X125.968 Y132.426 E.04336
G1 X124.606 Y132.186 E.04336
G1 X123.257 Y131.878 E.04336
G1 X121.926 Y131.503 E.04336
G1 X120.615 Y131.063 E.04336
G1 X119.328 Y130.558 E.04336
G1 X118.067 Y129.989 E.04336
G1 X116.837 Y129.358 E.04336
G1 X115.639 Y128.666 E.04336
G1 X114.477 Y127.916 E.04336
G1 X113.355 Y127.109 E.04336
G1 X112.273 Y126.247 E.04336
G1 X111.236 Y125.332 E.04336
G1 X110.246 Y124.366 E.04336
G1 X109.306 Y123.352 E.04336
G1 X108.417 Y122.293 E.04336
G1 X107.582 Y121.19 E.04336
G1 X106.803 Y120.048 E.04336
G1 X106.082 Y118.868 E.04336
G1 X105.42 Y117.653 E.04336
G1 X104.82 Y116.407 E.04336
G1 X104.283 Y115.133 E.04336
G1 X103.81 Y113.833 E.04336
G1 X103.403 Y112.512 E.04336
G1 X103.061 Y111.172 E.04336
G1 X102.787 Y109.816 E.04336
G1 X102.581 Y108.449 E.04336
G1 X102.443 Y107.073 E.04336
G1 X102.375 Y105.691 E.04336
G1 X102.375 Y104.309 E.04336
G1 X102.443 Y102.927 E.04336
G1 X102.581 Y101.551 E.04336
G1 X102.787 Y100.184 E.04336
G1 X103.061 Y98.828 E.04336
G1 X103.403 Y97.488 E.04336
G1 X103.81 Y96.167 E.04336
G1 X104.283 Y94.867 E.04336
G1 X104.82 Y93.593 E.04336
G1 X105.42 Y92.347 E.04336
G1 X106.082 Y91.132 E.04336
G1 X106.803 Y89.952 E.04336
G1 X107.582 Y88.81 E.04336
G1 X108.417 Y87.707 E.04336
G1 X109.306 Y86.648 E.04336
G1 X110.246 Y85.634 E.04336
G1 X111.236 Y84.668 E.04336
G1 X112.273 Y83.753 E.04336
G1 X113.355 Y82.891 E.04336
G1 X114.477 Y82.084 E.04336
G1 X115.639 Y81.334 E.04336
G1 X116.837 Y80.642 E.04336
G1 X118.067 Y80.011 E.04336
G1 X119.328 Y79.442 E.04336
G1 X120.615 Y78.937 E.04336
G1 X121.926 Y78.497 E.04336
G1 X123.257 Y78.122 E.04336
G1 X124.606 Y77.814 E.04336
G1 X125.968 Y77.574 E.04336
G1 X127.34 Y77.402 E.04336
G1 X128.719 Y77.299 E.04336
G1 X129.777 Y77.273 E.03319
M204 S1000
G1 X130.214 Y76.887 F10800
M204 S800
G1 F1200
G1 X130.214 Y133.103 E1.76261
G1 X128.698 Y133.078 E.04756
G1 X127.302 Y132.973 E.04388
G1 X125.911 Y132.799 E.04395
G1 X124.531 Y132.555 E.04395
G1 X123.164 Y132.243 E.04395
G1 X121.815 Y131.864 E.04395
G1 X120.486 Y131.417 E.04395
G1 X119.181 Y130.905 E.04395
G1 X117.904 Y130.329 E.04395
G1 X116.656 Y129.689 E.04395
G1 X115.442 Y128.988 E.04395
G1 X114.265 Y128.228 E.04395
G1 X113.127 Y127.41 E.04395
G1 X112.031 Y126.536 E.04395
G1 X110.98 Y125.608 E.04395
G1 X109.976 Y124.629 E.04395
G1 X109.023 Y123.602 E.04395
G1 X108.122 Y122.528 E.04395
G1 X107.276 Y121.411 E.04395
G1 X106.486 Y120.252 E.04395
G1 X105.755 Y119.056 E.04395
G1 X105.085 Y117.825 E.04395
G1 X104.477 Y116.562 E.04395
G1 X103.932 Y115.271 E.04395
G1 X103.453 Y113.954 E.04395
G1 X103.039 Y112.614 E.04395
G1 X102.694 Y111.256 E.04395
G1 X102.416 Y109.882 E.04395
G1 X102.207 Y108.496 E.04395
G1 X102.067 Y107.101 E.04395
G1 X101.997 Y105.701 E.04395
G1 X101.997 Y104.299 E.04395
G1 X102.067 Y102.899 E.04395
G1 X102.207 Y101.504 E.04395
G1 X102.416 Y100.118 E.04395
G1 X102.694 Y98.744 E.04395
G1 X103.039 Y97.386 E.04395
G1 X103.453 Y96.046 E.04395
G1 X103.932 Y94.729 E.04395
G1 X104.477 Y93.438 E.04395
G1 X105.085 Y92.175 E.04395
G1 X105.755 Y90.944 E.04395
G1 X106.486 Y89.748 E.04395
G1 X107.276 Y88.589 E.04395
G1 X108.122 Y87.472 E.04395
G1 X109.023 Y86.398 E.04395
G1 X109.976 Y85.371 E.04395
G1 X110.98 Y84.392 E.04395
G1 X112.031 Y83.464 E.04395
G1 X113.127 Y82.59 E.04395
G1 X114.265 Y81.772 E.04395
G1 X115.442 Y81.012 E.04395
G1 X116.656 Y80.311 E.04395
G1 X117.904 Y79.671 E.04395
G1 X119.181 Y79.095 E.04395
G1 X120.486 Y78.583 E.04395
G1 X121.815 Y78.136 E.04395
G1 X123.164 Y77.757 E.04395
G1 X124.531 Y77.445 E.04395
G1 X125.911 Y77.201 E.04395
G1 X127.302 Y77.027 E.04395
G1 X128.7 Y76.922 E.04395
G1 X130.154 Y76.887 E.04561
M204 S1000
G1 X130.591 Y76.51 F10800
M204 S800
;TYPE:External perimeter
G1 F1200
G1 X130.591 Y133.486 E1.78645
G1 X128.68 Y133.454 E.05993
G1 X127.265 Y133.348 E.04451
G1 X125.855 Y133.172 E.04454
G1 X124.456 Y132.925 E.04454
G1 X123.071 Y132.609 E.04454
G1 X121.704 Y132.224 E.04454
G1 X120.357 Y131.772 E.04454
G1 X119.035 Y131.253 E.04454
G1 X117.74 Y130.668 E.04454
G1 X116.476 Y130.02 E.04454
G1 X115.246 Y129.31 E.04454
G1 X114.052 Y128.539 E.04454
G1 X112.899 Y127.71 E.04454
G1 X111.788 Y126.825 E.04454
G1 X110.723 Y125.885 E.04454
G1 X109.706 Y124.893 E.04454
G1 X108.74 Y123.851 E.04454
G1 X107.827 Y122.763 E.04454
G1 X106.969 Y121.631 E.04454
G1 X106.169 Y120.457 E.04454
G1 X105.428 Y119.245 E.04454
G1 X104.749 Y117.997 E.04454
G1 X104.133 Y116.718 E.04454
G1 X103.581 Y115.408 E.04454
G1 X103.095 Y114.074 E.04454
G1 X102.676 Y112.716 E.04454
G1 X102.326 Y111.34 E.04454
G1 X102.044 Y109.947 E.04454
G1 X101.833 Y108.543 E.04454
G1 X101.691 Y107.129 E.04454
G1 X101.62 Y105.71 E.04454
G1 X101.62 Y104.29 E.04454
G1 X101.691 Y102.871 E.04454
G1 X101.833 Y101.457 E.04454
G1 X102.044 Y100.053 E.04454
G1 X102.326 Y98.66 E.04454
G1 X102.676 Y97.284 E.04454
G1 X103.095 Y95.926 E.04454
G1 X103.581 Y94.592 E.04454
G1 X104.133 Y93.282 E.04454
G1 X104.749 Y92.003 E.04454
G1 X105.428 Y90.755 E.04454
G1 X106.169 Y89.543 E.04454
G1 X106.969 Y88.369 E.04454
G1 X107.827 Y87.237 E.04454
G1 X108.74 Y86.149 E.04454
G1 X109.706 Y85.107 E.04454
G1 X110.723 Y84.115 E.04454
G1 X111.788 Y83.175 E.04454
G1 X112.899 Y82.29 E.04454
G1 X114.052 Y81.461 E.04454
G1 X115.246 Y80.69 E.04454
G1 X116.476 Y79.98 E.04454
G1 X117.74 Y79.332 E.04454
G1 X119.035 Y78.747 E.04454
G1 X120.357 Y78.228 E.04454
G1 X121.704 Y77.776 E.04454
G1 X123.071 Y77.391 E.04454
G1 X124.456 Y77.075 E.04454
G1 X125.855 Y76.828 E.04454
G1 X127.265 Y76.652 E.04454
G1 X128.681 Y76.546 E.04454
G1 X130.531 Y76.51 E.05802
M204 S1000
G1 X130.396 Y76.859 F10800
G1 E-1 F2100
G1 Z.4 F720
G1 X126.404 Y86.403 F10800
G1 Z.2 F720
G1 E1 F2100
M204 S800
;TYPE:Perimeter
G1 F1200
G1 X126.476 Y86.495 E.00366
G1 X126.727 Y86.995 E.01755
G1 X126.874 Y87.535 E.01755
G1 X126.911 Y88.094 E.01755
G1 X126.837 Y88.649 E.01755
G1 X126.654 Y89.178 E.01755
G1 X126.37 Y89.66 E.01755
G1 X125.996 Y90.077 E.01755
G1 X125.547 Y90.411 E.01755
G1 X125.041 Y90.65 E.01755
G1 X124.521 Y90.781 E.01682
G1 X124.077 Y90.811 E.01393
G1 X123.521 Y90.751 E.01754
G1 X123.039 Y90.605 E.01579
G1 X122.566 Y90.359 E.01671
G1 X122.158 Y90.035 E.01635
G1 X121.788 Y89.602 E.01784
G1 X121.53 Y89.142 E.01655
G1 X121.366 Y88.649 E.01629
G1 X121.292 Y88.094 E.01755
G1 X121.329 Y87.535 E.01755
G1 X121.476 Y86.995 E.01755
G1 X121.727 Y86.495 E.01754
G1 X122.099 Y86.026 E.01878
G1 X122.518 Y85.675 E.01713
G1 X122.987 Y85.416 E.01679
G1 X123.528 Y85.246 E.01779
G1 X124.073 Y85.186 E.01718
G1 X124.612 Y85.233 E.01695
G1 X125.215 Y85.419 E.0198
G1 X125.705 Y85.691 E.01755
G1 X126.13 Y86.054 E.01755
G1 X126.367 Y86.356 E.01201
M204 S1000
G1 X126.106 Y86.627 F10800
M204 S800
G1 F1200
G1 X126.367 Y87.106 E.0171
G1 X126.499 Y87.573 E.0152
G1 X126.536 Y88.056 E.0152
G1 X126.476 Y88.538 E.0152
G1 X126.323 Y88.998 E.0152
G1 X126.081 Y89.418 E.0152
G1 X125.761 Y89.782 E.0152
G1 X125.375 Y90.076 E.0152
G1 X124.938 Y90.287 E.0152
G1 X124.483 Y90.406 E.01476
G1 X124.106 Y90.435 E.01187
G1 X123.623 Y90.388 E.0152
G1 X123.16 Y90.246 E.0152
G1 X122.733 Y90.014 E.0152
G1 X122.361 Y89.703 E.0152
G1 X122.058 Y89.325 E.0152
G1 X121.836 Y88.894 E.0152
G1 X121.704 Y88.427 E.0152
G1 X121.667 Y88.056 E.01169
G1 X121.706 Y87.558 E.01569
G1 X121.875 Y87.012 E.0179
G1 X122.113 Y86.593 E.01511
G1 X122.355 Y86.303 E.01187
G1 X122.726 Y85.991 E.0152
G1 X123.151 Y85.758 E.0152
G1 X123.615 Y85.614 E.0152
G1 X124.097 Y85.565 E.0152
G1 X124.58 Y85.612 E.01521
G1 X125.043 Y85.754 E.0152
G1 X125.469 Y85.986 E.0152
G1 X125.842 Y86.297 E.0152
G1 X126.069 Y86.58 E.01139
M204 S1000
G1 X125.813 Y86.856 F10800
M204 S800
;TYPE:External perimeter
G1 F1200
G1 X126.006 Y87.217 E.01286
G1 X126.124 Y87.61 E.01286
G1 X126.161 Y88.019 E.01286
G1 X126.116 Y88.426 E.01286
G1 X125.992 Y88.817 E.01286
G1 X125.792 Y89.176 E.01286
G1 X125.526 Y89.487 E.01286
G1 X125.203 Y89.74 E.01286
G1 X124.836 Y89.924 E.01286
G1 X124.445 Y90.031 E.0127
G1 X124.134 Y90.059 E.00981
G1 X123.725 Y90.025 E.01285
G1 X123.332 Y89.91 E.01286
G1 X122.968 Y89.72 E.01286
G1 X122.65 Y89.461 E.01286
G1 X122.389 Y89.144 E.01286
G1 X122.197 Y88.783 E.01286
G1 X122.079 Y88.39 E.01286
G1 X122.042 Y88.019 E.01169
G1 X122.087 Y87.574 E.01403
G1 X122.211 Y87.183 E.01286
G1 X122.407 Y86.828 E.0127
G1 X122.605 Y86.585 E.00981
G1 X122.915 Y86.317 E.01285
G1 X123.272 Y86.115 E.01286
G1 X123.661 Y85.988 E.01286
G1 X124.069 Y85.941 E.01286
G1 X124.477 Y85.975 E.01286
G1 X124.871 Y86.09 E.01286
G1 X125.234 Y86.28 E.01286
G1 X125.553 Y86.539 E.01286
G1 X125.775 Y86.809 E.01098
M204 S1000
G1 X126.213 Y86.829 F10800
;WIPE_START
G1 F8640
G1 X126.006 Y87.217 E-.1083
G1 X126.124 Y87.61 E-.09469
G1 X126.161 Y88.019 E-.09469
G1 X126.116 Y88.426 E-.09469
G1 X125.992 Y88.817 E-.09469
G1 X125.792 Y89.176 E-.09469
G1 X125.526 Y89.487 E-.09469
G1 X125.203 Y89.74 E-.09469
G1 X124.836 Y89.924 E-.09469
G1 X124.485 Y90.02 E-.08419
;WIPE_END
G1 E-.05 F2100
G1 Z.4 F720
G1 X123.676 Y119.234 F10800
G1 Z.2 F720
G1 E1 F2100
M204 S800
;TYPE:Perimeter
G1 F1200
G1 X124.125 Y119.189 E.01415
G1 X124.682 Y119.249 E.01754
G1 X125.215 Y119.419 E.01755
G1 X125.705 Y119.691 E.01755
G1 X126.13 Y120.054 E.01755
G1 X126.476 Y120.495 E.01755
G1 X126.727 Y120.995 E.01755
G1 X126.874 Y121.535 E.01755
G1 X126.911 Y122.094 E.01755
G1 X126.837 Y122.649 E.01755
G1 X126.654 Y123.178 E.01755
G1 X126.37 Y123.66 E.01755
G1 X125.996 Y124.077 E.01755
G1 X125.547 Y124.411 E.01755
G1 X125.041 Y124.65 E.01755
G1 X124.521 Y124.781 E.01682
G1 X124.077 Y124.811 E.01393
G1 X123.521 Y124.751 E.01754
G1 X122.988 Y124.581 E.01755
G1 X122.498 Y124.309 E.01755
G1 X122.072 Y123.946 E.01755
G1 X121.727 Y123.505 E.01755
G1 X121.476 Y123.005 E.01755
G1 X121.332 Y122.49 E.01676
G1 X121.292 Y122.094 E.01249
G1 X121.329 Y121.535 E.01755
G1 X121.476 Y120.995 E.01755
G1 X121.727 Y120.495 E.01755
G1 X122.072 Y120.054 E.01755
G1 X122.498 Y119.691 E.01755
G1 X122.988 Y119.419 E.01755
G1 X123.521 Y119.249 E.01754
G1 X123.617 Y119.24 E.00302
M204 S1000
G1 X123.666 Y119.608 F10800
M204 S800
G1 F1200
G1 X124.097 Y119.565 E.01357
G1 X124.58 Y119.612 E.0152
G1 X125.043 Y119.754 E.0152
G1 X125.469 Y119.986 E.0152
G1 X125.842 Y120.297 E.0152
G1 X126.145 Y120.675 E.0152
