; generated by PrusaSlicer 2.5.0+linux-x64-GTK3 on 2022-11-07 at 19:51:31 UTC


;
;

;
;
; 

; external perimeters extrusion width = 0.45mm
; perimeters extrusion width = 0.45mm
; infill extrusion width = 0.45mm
; solid infill extrusion width = 0.45mm
; top infill extrusion width = 0.40mm
; support material extrusion width = 0.35mm
; first layer extrusion width = 0.42mm

M73 P0 R5
M73 Q0 S5
M201 X1000 Y1000 Z200 E5000 ; sets maximum accelerations, mm/sec^2
M203 X200 Y200 Z12 E120 ; sets maximum feedrates, mm / sec
M204 P1250 R1250 T1250 ; sets acceleration (P, T) and retract acceleration (R), mm/sec^2
M205 X8.00 Y8.00 Z0.40 E4.50 ; sets the jerk limits, mm/sec
M205 S0 T0 ; sets the minimum extruding and travel feed rate, mm/sec
M107
;TYPE:Custom
M862.3 P "MK3S" ; printer model check
M862.1 P0.4 ; nozzle diameter check
M115 U3.9.2 ; tell printer latest fw version
G90 ; use absolute coordinates
M83 ; extruder relative mode
M104 S240 ; set extruder temp
M140 S85 ; set bed temp
M190 S85 ; wait for bed temp
M109 S240 ; wait for extruder temp
G28 W ; home all without mesh bed level
G80 ; mesh bed leveling
G1 Y-3.0 F1000.0 ; go outside print area
G92 E0.0
G1 X60.0 E9.0 F1000.0 ; intro line
G1 X100.0 E12.5 F1000.0 ; intro line
G92 E0.0
M221 S95

; Don't change E values below. Excessive value can damage the printer.
M907 E430 ; set extruder motor current
G21 ; set units to millimeters
G90 ; use absolute coordinates
M83 ; use relative distances for extrusion
M900 K0.08 ; Filament gcode LA 1.5
M900 K45 ; Filament gcode LA 1.0
M107
;LAYER_CHANGE
;Z:0.2
;HEIGHT:0.2
;BEFORE_LAYER_CHANGE
G92 E0.0
;0.2


M73 P1 R5
M73 Q1 S5
G1 E-1 F2100
M73 P2 R4
G1 Z.2 F720
;AFTER_LAYER_CHANGE
;0.2
; printing object Vitulus_text.stl id:0 copy 0
G1 Z.4
G1 X197.331 Y112.731 F10800
M73 Q2 S5
G1 Z.2 F720
G1 E1 F2100
M204 S800
;TYPE:Perimeter
;WIDTH:0.462779
G1 F1200
G1 X197.471 Y112.645 E.00572
;WIDTH:0.421291
G1 X197.615 Y112.555 E.00534
G1 X197.446 Y112.814 E.0097
;WIDTH:0.462779
G1 X197.278 Y113.072 E.01077
;WIDTH:0.504267
G1 X197.11 Y113.331 E.01183
G1 X196.968 Y113.395 E.00597
G1 X196.611 Y112.821 E.02591
;WIDTH:0.477299
G1 X196.462 Y112.57 E.01055
G1 X196.688 Y112.695 E.00932
;WIDTH:0.504267
G1 X196.913 Y112.82 E.0099
G1 X197.182 Y112.823 E.01031
G1 X197.28 Y112.762 E.00443
M204 S1000
G1 E-1 F2100
G1 Z.4 F720
G1 X195.354 Y110.46 F10800
G1 Z.2 F720
G1 E1 F2100
M204 S800
;WIDTH:0.501281
G1 F1200
G1 X194.874 Y110.215 E.02056
G1 X194.608 Y110.215 E.01011
G1 X194.387 Y110.344 E.00975
G1 X194.699 Y109.789 E.02425
;WIDTH:0.507226
G1 X194.714 Y109.216 E.02213
G1 X195.066 Y109.902 E.02978
;WIDTH:0.501281
G1 X195.327 Y110.407 E.02164
M204 S1000
G1 E-1 F2100
G1 Z.4 F720
G1 X193.062 Y112.55 F10800
G1 Z.2 F720
G1 E1 F2100
M204 S800
;WIDTH:0.413081
G1 F1200
G1 X192.881 Y112.821 E.01005
;WIDTH:0.458529
G1 X192.699 Y113.093 E.01128
;WIDTH:0.503977
G1 X192.518 Y113.364 E.01252
G1 X192.413 Y113.388 E.00414
G1 X192.209 Y113.086 E.01397
G1 X191.914 Y112.581 E.02242
G1 X192.369 Y112.82 E.0197
G1 X192.632 Y112.823 E.01007
G1 X192.775 Y112.732 E.00652
;WIDTH:0.458529
G1 X192.919 Y112.641 E.00588
;WIDTH:0.413081
G1 X193.012 Y112.582 E.00339
M204 S1000
G1 X192.374 Y112.401 F10800
M204 S800
;TYPE:External perimeter
;WIDTH:0.419999
G1 F1200
G1 X192.637 Y112.404 E.00824
G1 X192.787 Y112.332 E.00522
G1 X192.957 Y112.034 E.01077
;WIDTH:0.457985
G1 X193.023 Y111.956 E.00351
;WIDTH:0.495971
G1 X193.089 Y111.878 E.00383
;WIDTH:0.533957
G1 X193.154 Y111.8 E.00416
;WIDTH:0.571943
G1 X193.22 Y111.723 E.00448
G1 X193.928 Y110.45 E.06409
;WIDTH:0.558852
G1 X194.067 Y110.156 E.01394
;WIDTH:0.512568
G1 X194.201 Y109.87 E.01233
;WIDTH:0.466284
G1 X194.335 Y109.584 E.01111
;WIDTH:0.419999
G1 X194.339 Y109.406 E.00558
G1 X192.178 Y105.315 E.14507
G1 X193.205 Y105.315 E.03219
G1 X196.751 Y112.298 E.24557
G1 X196.918 Y112.401 E.00613
M73 P3 R4
M73 Q3 S5
G1 X197.186 Y112.404 E.00842
G1 X197.354 Y112.306 E.00609
G1 X201.089 Y105.315 E.24852
G1 X201.97 Y105.315 E.0276
G1 X197.662 Y113.215 E.28212
G1 X197.357 Y113.693 E.01778
G1 X197.093 Y113.817 E.00916
G1 X196.925 Y113.813 E.00526
G1 X196.748 Y113.753 E.00585
G1 X196.526 Y113.524 E.01001
G1 X195.039 Y110.733 E.09917
G1 X194.873 Y110.633 E.00608
G1 X194.608 Y110.632 E.00832
;WIDTH:0.466297
G1 X194.532 Y110.654 E.00278
;WIDTH:0.512595
G1 X194.456 Y110.676 E.00308
;WIDTH:0.558892
G1 X194.38 Y110.698 E.00339
;WIDTH:0.571943
G1 X193.683 Y111.978 E.06409
G1 X193.652 Y112.075 E.00448
;WIDTH:0.533957
G1 X193.622 Y112.172 E.00416
;WIDTH:0.495971
G1 X193.591 Y112.269 E.00383
;WIDTH:0.457985
G1 X193.56 Y112.366 E.00351
;WIDTH:0.419999
G1 X192.963 Y113.473 E.03945
G1 X192.801 Y113.672 E.00805
G1 X192.587 Y113.811 E.008
G1 X192.245 Y113.785 E.01075
G1 X191.981 Y113.544 E.0112
G1 X187.493 Y105.315 E.29389
G1 X188.501 Y105.315 E.03163
G1 X192.21 Y112.301 E.24798
G1 X192.323 Y112.37 E.00415
M204 S1000
G1 X192.416 Y112.66 F10800
G1 X193.062 Y112.55
M204 S800
;TYPE:Perimeter
;WIDTH:0.367632
G1 F1200
G1 X193.257 Y112.203 E.01075
M204 S1000
;WIPE_START
G1 F8640
G1 X193.062 Y112.55 E-.09191
;WIPE_END
G1 E-.90809 F2100
G1 Z.4 F720
G1 X192.898 Y112.457 F10800
G1 X195.086 Y109.363
G1 X196.424 Y111.997
G1 X196.663 Y112.468
M73 P4 R4
G1 X196.462 Y112.57
M73 Q4 S5
G1 Z.2 F720
G1 E1 F2100
M204 S800
;WIDTH:0.45033
G1 F1200
G1 X196.406 Y112.474 E.00378
;WIDTH:0.483834
G1 X195.4 Y110.54 E.07989
;WIDTH:0.49278
G1 X195.354 Y110.46 E.00346
M204 S1000
G1 E-1 F2100
G1 Z.4 F720
G1 X192.927 Y105.767 F10800
G1 Z.2 F720
G1 E1 F2100
M204 S800
;WIDTH:0.569144
G1 F1200
G1 X193.819 Y107.487 E.08477
;WIDTH:0.538224
G1 X194.71 Y109.207 E.07979
;WIDTH:0.507304
G1 X194.714 Y109.216 E.00038
M204 S1000
;WIPE_START
G1 F8640
G1 X194.71 Y109.207 E-.00225
G1 X193.819 Y107.487 E-.44734
G1 X192.927 Y105.767 E-.44734
;WIPE_END
G1 E-.10308 F2100
G1 Z.4 F720
G1 X193.191 Y105.633 F10800
G1 X194.563 Y109.497
G1 X192.839 Y112.562
G1 X192.168 Y112.554
G1 X190.013 Y108.494
G1 X188.488 Y105.622
G1 X188.236 Y105.756
G1 Z.2 F720
G1 E1 F2100
M204 S800
;WIDTH:0.548362
G1 F1200
G1 X190.047 Y109.122 E.16063
;WIDTH:0.50506
G1 X191.858 Y112.487 E.14687
;WIDTH:0.47061
G1 X191.914 Y112.581 E.00387
M204 S1000
;WIPE_START
G1 F8640
G1 X191.858 Y112.487 E-.02513
G1 X190.047 Y109.122 E-.8825
G1 X189.96 Y108.96 E-.04237
;WIPE_END
G1 E-.05 F2100
G1 Z.4 F720
M73 Q4 S4
G1 X190.194 Y108.836 F10800
G1 X192.168 Y112.554
G1 X192.839 Y112.562
G1 X195.086 Y109.363
G1 X196.707 Y112.555
G1 X197.393 Y112.562
G1 X200.975 Y105.86
G1 X201.118 Y105.592
G1 X201.321 Y105.7
G1 Z.2 F720
G1 E1 F2100
M204 S800
;WIDTH:0.436764
G1 F1200
G1 X199.493 Y109.085 E.12598
;WIDTH:0.404192
G1 X197.666 Y112.471 E.11556
;WIDTH:0.379802
G1 X197.615 Y112.555 E.00277
M204 S1000
;WIPE_START
M73 P5 R4
M73 Q5 S4
G1 F8640
G1 X197.666 Y112.471 E-.02284
G1 X199.493 Y109.085 E-.88824
G1 X199.573 Y108.937 E-.03892
;WIPE_END
G1 E-.05 F2100
G1 Z.4 F720
G1 X199.761 Y109.04 F10800
G1 X196.732 Y113.551
G1 X195.08 Y110.477
G1 X194.402 Y110.476
G1 X192.15 Y113.52
G1 X190.34 Y110.212
G1 X185.62 Y110.863
G1 X185.62 Y110.775
G1 X184.528 Y110.775
G1 X184.528 Y111.014
G1 Z.2 F720
G1 E1 F2100
M204 S800
;WIDTH:0.493932
G1 F1200
G1 X184.566 Y111.024 E.00149
G1 X184.349 Y111.078 E.00838
;WIDTH:0.50317
G1 X184.189 Y111.187 E.00741
G1 X184.079 Y111.346 E.00743
;WIDTH:0.49481
G1 X184.027 Y111.617 E.01035
G1 X183.975 Y111.346 E.01035
;WIDTH:0.50317
G1 X183.865 Y111.187 E.00743
G1 X183.705 Y111.077 E.00742
;WIDTH:0.495813
G1 X183.436 Y111.024 E.01033
G1 X183.705 Y110.971 E.01033
;WIDTH:0.50317
G1 X183.865 Y110.861 E.00742
G1 X183.974 Y110.701 E.00742
;WIDTH:0.492381
G1 X184.027 Y110.482 E.00839
G1 X184.08 Y110.701 E.00839
;WIDTH:0.50317
G1 X184.189 Y110.861 E.00742
G1 X184.349 Y110.97 E.00741
;WIDTH:0.493932
G1 X184.469 Y111 E.00464
M204 S1000
G1 E-1 F2100
G1 Z.4 F720
G1 X183.436 Y110.619 F10800
G1 Z.2 F720
G1 E1 F2100
M204 S800
;TYPE:External perimeter
;WIDTH:0.419999
G1 F1200
G1 X183.569 Y110.564 E.00452
G1 X183.625 Y110.431 E.00453
G1 X183.625 Y105.315 E.1604
G1 X184.43 Y105.315 E.02524
G1 X184.43 Y110.431 E.1604
G1 X184.485 Y110.564 E.00453
G1 X184.618 Y110.619 E.00451
G1 X185.775 Y110.619 E.03629
G1 X185.775 Y111.428 E.02537
G1 X184.618 Y111.428 E.03629
G1 X184.485 Y111.483 E.00451
G1 X184.43 Y111.617 E.00453
G1 X184.43 Y113.828 E.06934
G1 X183.625 Y113.828 E.02524
G1 X183.625 Y111.617 E.06934
G1 X183.569 Y111.483 E.00453
G1 X183.436 Y111.428 E.00451
G1 X179.375 Y111.428 E.12732
G1 X178.585 Y111.36 E.02486
G1 X178.149 Y111.253 E.01408
G1 X177.63 Y110.997 E.01815
G1 X177.311 Y110.739 E.01286
G1 X177.085 Y110.447 E.01158
G1 X176.876 Y109.987 E.01583
G1 X176.758 Y109.483 E.01624
G1 X176.713 Y108.905 E.01815
M73 P6 R4
G1 X176.712 Y105.315 E.11258
G1 X177.521 Y105.315 E.02537
G1 X177.521 Y108.766 E.10819
M73 Q6 S4
G1 X177.593 Y109.44 E.02127
G1 X177.805 Y109.953 E.01739
G1 X178.171 Y110.321 E.01629
G1 X178.68 Y110.535 E.01729
G1 X179.279 Y110.618 E.01897
G1 X183.376 Y110.619 E.12847
M204 S1000
G1 X183.537 Y110.722 F10800
G1 E-1 F2100
G1 Z.4 F720
G1 X184.027 Y105.718 F10800
G1 Z.2 F720
G1 E1 F2100
M204 S800
;TYPE:Perimeter
;WIDTH:0.470842
G1 F1200
G1 X184.027 Y110.431 E.1677
;WIDTH:0.475356
G1 X184.027 Y110.482 E.00186
M204 S1000
G1 X183.436 Y111.024 F10800
M204 S800
;WIDTH:0.476002
G1 F1200
G1 X179.393 Y111.023 E.1456
;WIDTH:0.496748
G1 X178.621 Y110.946 E.02926
;WIDTH:0.519998
G1 X178.299 Y110.851 E.01333
;WIDTH:0.538192
G1 X177.823 Y110.606 E.02203
G1 X177.437 Y110.191 E.02332
;WIDTH:0.537328
G1 X177.206 Y109.589 E.02655
;WIDTH:0.495112
G1 X177.122 Y108.89 E.02647
;WIDTH:0.483324
G1 X177.117 Y108.766 E.00455
;WIDTH:0.47486
G1 X177.117 Y105.72 E.1094
M204 S1000
;WIPE_START
G1 F8640
G1 X177.117 Y108.766 E-.70334
G1 X177.122 Y108.89 E-.02866
G1 X177.206 Y109.589 E-.16255
G1 X177.292 Y109.813 E-.05545
;WIPE_END
G1 E-.05 F2100
G1 Z.4 F720
G1 X177.517 Y109.733 F10800
G1 X177.548 Y109.808
G1 X177.578 Y109.874
G1 X177.611 Y109.938
G1 X177.647 Y110.001
G1 X177.686 Y110.062
G1 X177.723 Y110.115
G1 X177.76 Y110.163
G1 X177.799 Y110.208
G1 X177.839 Y110.251
G1 X177.87 Y110.283
G1 X177.904 Y110.314
G1 X177.953 Y110.356
G1 X178.004 Y110.396
G1 X178.055 Y110.433
G1 X178.108 Y110.468
G1 X178.163 Y110.501
G1 X178.218 Y110.532
G1 X178.274 Y110.56
G1 X178.332 Y110.587
G1 X178.39 Y110.611
G1 X178.449 Y110.634
G1 X178.51 Y110.654
G1 X178.571 Y110.673
G1 X178.632 Y110.69
G1 X178.696 Y110.706
G1 X178.78 Y110.724
G1 X178.877 Y110.74
G1 X178.975 Y110.753
G1 X179.076 Y110.763
G1 X179.178 Y110.77
G1 X179.271 Y110.774
G1 X179.361 Y110.775
G1 X184.274 Y110.775
G1 X185.371 Y110.775
G1 X185.371 Y111.024
G1 Z.2 F720
G1 E1 F2100
M204 S800
;WIDTH:0.47501
G1 F1200
G1 X184.618 Y111.024 E.02704
;WIDTH:0.47954
G1 X184.566 Y111.024 E.00188
M204 S1000
G1 E-1 F2100
G1 Z.4 F720
G1 X184.027 Y113.426 F10800
G1 Z.2 F720
G1 E1 F2100
M204 S800
;WIDTH:0.470842
G1 F1200
G1 X184.027 Y111.617 E.06437
M204 S1000
;WIPE_START
G1 F8640
G1 X184.027 Y113.426 E-.41769
;WIPE_END
G1 E-.58231 F2100
G1 Z.4 F720
G1 X183.78 Y113.426 F10800
G1 X192.076 Y113.395
G1 X193.872 Y111.463
M73 P7 R4
G1 X194.402 Y110.476
M73 Q7 S4
G1 X195.08 Y110.477
G1 X197.355 Y113.452
G1 X197.397 Y113.375
G1 X204.952 Y113.673
G1 X204.952 Y113.346
G1 Z.2 F720
G1 E1 F2100
M204 S800
;WIDTH:0.435075
G1 F1200
G1 X204.965 Y113.354 E.00049
;WIDTH:0.474696
G1 X205.089 Y113.424 E.0051
G1 X204.877 Y113.443 E.00765
;WIDTH:0.435075
G1 X204.665 Y113.463 E.00694
;WIDTH:0.395454
G1 X204.453 Y113.483 E.00624
;WIDTH:0.392958
G1 X204.471 Y113.3 E.00537
;WIDTH:0.430083
G1 X204.49 Y113.116 E.00594
;WIDTH:0.467208
G1 X204.509 Y112.932 E.00651
G1 X204.578 Y113.026 E.00413
;WIDTH:0.430083
G1 X204.648 Y113.12 E.00377
;WIDTH:0.392958
G1 X204.718 Y113.214 E.00341
;WIDTH:0.395454
G1 X204.842 Y113.284 E.00416
;WIDTH:0.435075
G1 X204.9 Y113.317 E.00219
M204 S1000
G1 X205.089 Y113.019 F10800
M204 S800
;TYPE:External perimeter
;WIDTH:0.419999
G1 F1200
G1 X204.958 Y112.966 E.00443
G1 X204.9 Y112.831 E.00462
G1 X204.9 Y106.313 E.20436
G1 X204.958 Y106.177 E.00461
G1 X205.089 Y106.124 E.00444
G1 X209.087 Y106.124 E.12537
G1 X209.805 Y106.203 E.02265
G1 X210.387 Y106.377 E.01902
G1 X210.838 Y106.606 E.01588
G1 X211.245 Y106.9 E.01574
G1 X211.701 Y107.378 E.0207
G1 X211.978 Y107.842 E.01696
G1 X212.153 Y108.218 E.013
G1 X212.304 Y108.682 E.01531
G1 X212.394 Y109.342 E.0209
G1 X212.364 Y110.091 E.02348
G1 X212.25 Y110.6 E.01636
G1 X212.066 Y111.105 E.01686
G1 X211.873 Y111.471 E.01297
G1 X211.568 Y111.907 E.0167
G1 X211.181 Y112.282 E.01689
G1 X210.717 Y112.599 E.01763
G1 X210.161 Y112.848 E.01908
G1 X209.602 Y112.982 E.01802
G1 X209.088 Y113.019 E.01616
G1 X205.149 Y113.019 E.12352
M204 S1000
G1 X204.99 Y113.12 F10800
G1 E-1 F2100
G1 Z.4 F720
G1 X204.108 Y113.828 F10800
G1 Z.2 F720
G1 E1 F2100
M204 S800
G1 F1200
G1 X204.108 Y105.315 E.26692
G1 X209.125 Y105.321 E.15731
G1 X209.693 Y105.362 E.01785
M73 P8 R4
G1 X210.234 Y105.462 E.01726
G1 X210.752 Y105.627 E.01704
G1 X211.313 Y105.905 E.01961
G1 X211.789 Y106.234 E.01814
G1 X212.16 Y106.587 E.01608
G1 X212.475 Y106.983 E.01585
G1 X212.739 Y107.427 E.01619
G1 X212.959 Y107.942 E.01758
M73 Q8 S4
G1 X213.106 Y108.473 E.01725
G1 X213.187 Y109.045 E.01812
G1 X213.198 Y109.704 E.02069
G1 X213.153 Y110.212 E.016
G1 X213.031 Y110.799 E.0188
G1 X212.806 Y111.427 E.02091
G1 X212.547 Y111.921 E.01748
G1 X212.037 Y112.589 E.02637
G1 X211.46 Y113.088 E.02392
G1 X210.737 Y113.495 E.02601
G1 X210.054 Y113.721 E.02257
G1 X209.191 Y113.827 E.02726
G1 X204.168 Y113.828 E.15749
M204 S1000
G1 X204.306 Y113.481 F10800
G1 X204.509 Y112.932
M204 S800
;TYPE:Perimeter
;WIDTH:0.467208
G1 F1200
G1 X204.504 Y112.831 E.0036
;WIDTH:0.458346
G1 X204.504 Y106.313 E.22515
;WIDTH:0.500356
G1 X204.525 Y106.214 E.00385
;WIDTH:0.542366
G1 X204.546 Y106.114 E.00421
;WIDTH:0.584376
G1 X204.567 Y106.015 E.00456
;WIDTH:0.626386
G1 X204.588 Y105.916 E.00492
;WIDTH:0.668396
G1 X204.609 Y105.817 E.00527
G1 X204.729 Y105.793 E.00636
;WIDTH:0.619725
G1 X204.849 Y105.769 E.00587
;WIDTH:0.571054
G1 X204.969 Y105.744 E.00537
;WIDTH:0.522383
G1 X205.089 Y105.72 E.00488
;WIDTH:0.473712
G1 X209.087 Y105.722 E.14322
;WIDTH:0.469362
G1 X209.599 Y105.755 E.01819
;WIDTH:0.48268
G1 X210.135 Y105.858 E.01995
;WIDTH:0.516484
G1 X210.75 Y106.083 E.02577
;WIDTH:0.526928
G1 X211.203 Y106.336 E.0209
;WIDTH:0.52741
G1 X211.556 Y106.603 E.01784
G1 X212.009 Y107.083 E.0266
;WIDTH:0.53134
G1 X212.352 Y107.623 E.02599
G1 X212.557 Y108.083 E.02045
;WIDTH:0.51671
G1 X212.712 Y108.623 E.02212
;WIDTH:0.488732
G1 X212.791 Y109.289 E.02485
;WIDTH:0.466752
G1 X212.763 Y110.108 E.02889
;WIDTH:0.471056
G1 X212.643 Y110.69 E.02115
;WIDTH:0.47221
G1 X212.436 Y111.265 E.02181
;WIDTH:0.475202
G1 X212.205 Y111.703 E.01779
G1 X211.891 Y112.133 E.01915
;WIDTH:0.458212
G1 X211.455 Y112.569 E.02128
G1 X210.938 Y112.927 E.02172
;WIDTH:0.462998
G1 X210.323 Y113.213 E.02369
G1 X209.692 Y113.367 E.02268
;WIDTH:0.47757
G1 X209.088 Y113.423 E.02192
;WIDTH:0.474696
G1 X205.089 Y113.424 E.14359
M204 S1000
;WIPE_START
G1 F8640
G1 X209.088 Y113.423 E-.92348
G1 X209.166 Y113.421 E-.01794
G1 X209.203 Y113.417 E-.00858
;WIPE_END
G1 E-.05 F2100
G1 Z.4 F720
G1 X209.212 Y113.671 F10800
G1 X204.264 Y113.673
G1 X204.264 Y112.105
G1 X198.871 Y110.672
G1 X196.679 Y113.478
G1 X195.08 Y110.477
G1 X194.402 Y110.476
M73 P9 R4
G1 X192.15 Y113.52
G1 X189.188 Y108.098
G1 X184.274 Y106.792
G1 X183.78 Y106.661
M73 Q9 S4
G1 X154.947 Y98.998
G1 X153.116 Y98.512
G1 X147.421 Y96.427
G1 X147.421 Y96.998
G1 Z.2 F720
G1 E1 F2100
M204 S800
;WIDTH:0.364802
G1 F1200
G1 X147.421 Y105.798 E.23552
;WIDTH:0.365218
G1 X147.421 Y105.844 E.00125
;WIDTH:0.367155
G1 X147.396 Y106.62 E.02091
;WIDTH:0.372113
G1 X147.32 Y107.367 E.02055
;WIDTH:0.385398
G1 X147.196 Y108.099 E.02115
;WIDTH:0.398876
G1 X146.998 Y108.819 E.02212
;WIDTH:0.417313
G1 X146.752 Y109.455 E.02121
;WIDTH:0.438206
G1 X146.455 Y110.02 E.02099
;WIDTH:0.44338
G1 X146.156 Y110.441 E.01718
;WIDTH:0.444711
G1 X145.795 Y110.844 E.0181
;WIDTH:0.448806
G1 X145.376 Y111.219 E.01899
G1 X144.865 Y111.571 E.02094
;WIDTH:0.440433
G1 X144.287 Y111.877 E.02159
;WIDTH:0.430458
G1 X143.555 Y112.169 E.02541
