; generated by PrusaSlicer 2.6.0-alpha6+linux-x64-GTK3 on 2023-05-26 at 16:15:47 UTC


;
;
; 

; external perimeters extrusion width = 0.45mm
; perimeters extrusion width = 0.45mm
; infill extrusion width = 0.45mm
; solid infill extrusion width = 0.45mm
; top infill extrusion width = 0.40mm
; first layer extrusion width = 0.42mm

M73 P0 R26
M73 Q0 S26
M201 X1000 Y1000 Z200 E5000 ; sets maximum accelerations, mm/sec^2
M203 X200 Y200 Z12 E120 ; sets maximum feedrates, mm / sec
M204 S1250 T1250 ; sets acceleration (S) and retract acceleration (R), mm/sec^2
M205 X8.00 Y8.00 Z0.40 E4.50 ; sets the jerk limits, mm/sec
M205 S0 T0 ; sets the minimum extruding and travel feed rate, mm/sec
;TYPE:Custom
M862.3 P "MK3S" ; printer model check
M862.1 P0.4 ; nozzle diameter check
M115 U3.11.0 ; tell printer latest fw version
G90 ; use absolute coordinates
M83 ; extruder relative mode
M104 S240 ; set extruder temp
M140 S85 ; set bed temp
M190 S85 ; wait for bed temp
M109 S240 ; wait for extruder temp
G28 W ; home all without mesh bed level
G80 ; mesh bed leveling

G1 Z0.2 F720
G1 Y-3 F1000 ; go outside print area
G92 E0
G1 X60 E9 F1000 ; intro line
G1 X100 E12.5 F1000 ; intro line

G92 E0
M221 S95

; Don't change E values below. Excessive value can damage the printer.
M907 E430 ; set extruder motor current
G21 ; set units to millimeters
G90 ; use absolute coordinates
M83 ; use relative distances for extrusion
M900 K0.08 ; Filament gcode LA 1.5
M900 K45 ; Filament gcode LA 1.0
M107
;LAYER_CHANGE
;Z:0.2
;HEIGHT:0.2
;BEFORE_LAYER_CHANGE
G92 E0.0
;0.2


G1 E-1 F2100
G1 Z.2 F720
;AFTER_LAYER_CHANGE
;0.2
G1 Z.4
G1 X109.015 Y85.613 F10800
G1 Z.2 F720
G1 E1 F2100
M204 S800
;TYPE:Skirt/Brim
;WIDTH:0.42
G1 F1200
G1 X110.06 Y84.737 E.04275
G1 X111 Y84.543 E.03009
G1 X139 Y84.543 E.87792
G1 X140.307 Y84.935 E.04278
G1 X141.183 Y85.98 E.04275
G1 X141.377 Y86.92 E.03009
G1 X141.377 Y123.08 E1.13377
G1 X140.985 Y124.387 E.04278
G1 X139.94 Y125.263 E.04275
G1 X139 Y125.457 E.03009
G1 X111 Y125.457 E.87792
G1 X109.693 Y125.065 E.04278
G1 X108.817 Y124.02 E.04275
G1 X108.623 Y123.08 E.03009
G1 X108.623 Y86.92 E1.13377
G1 X108.997 Y85.67 E.04091
M204 S1000
; printing object MainUnit-10pinAdapter-adapter.stl id:0 copy 3
;WIPE_START
G1 F8640
G1 X110.06 Y84.737 E-.32658
G1 X111 Y84.543 E-.22162
G1 X112.957 Y84.543 E-.4518
;WIPE_END
G1 Z.4 F720
G1 X114.853 Y121.49 F10800
G1 Z.2 F720
G1 E1 F2100
M204 S800
;TYPE:Perimeter
;WIDTH:0.566512
G1 F1200
G1 X115.029 Y121.783 E.01488
;WIDTH:0.567588
G1 X115.465 Y122.106 E.02367
;WIDTH:0.572384
G1 X115.751 Y122.217 E.01351
G1 X115.036 Y122.22 E.03148
;WIDTH:0.566512
G1 X113.786 Y122.238 E.05443
G1 X114.274 Y122.085 E.02227
G1 X114.526 Y121.911 E.01333
G1 X114.818 Y121.539 E.02059
M204 S1000
;WIPE_START
G1 F8640
G1 X115.029 Y121.783 E-.07448
G1 X115.465 Y122.106 E-.12529
G1 X115.751 Y122.217 E-.07084
G1 X115.036 Y122.22 E-.1651
G1 X113.786 Y122.238 E-.28866
G1 X114.274 Y122.085 E-.11809
G1 X114.526 Y121.911 E-.07071
G1 X114.758 Y121.615 E-.08683
;WIPE_END
G1 Z.4 F720
G1 X117.393 Y121.49 F10800
G1 Z.2 F720
M73 Q1 S26
G1 E1 F2100
M204 S800
G1 F1200
G1 X117.569 Y121.783 E.01488
;WIDTH:0.567588
G1 X118.005 Y122.106 E.02367
;WIDTH:0.572384
G1 X118.291 Y122.217 E.01351
G1 X117.576 Y122.22 E.03148
;WIDTH:0.566512
G1 X116.326 Y122.238 E.05443
G1 X116.814 Y122.085 E.02227
M73 P1 R26
G1 X117.066 Y121.911 E.01333
G1 X117.358 Y121.539 E.02059
M204 S1000
;WIPE_START
G1 F8640
G1 X117.569 Y121.783 E-.07448
G1 X118.005 Y122.106 E-.12529
G1 X118.291 Y122.217 E-.07084
G1 X117.576 Y122.22 E-.1651
G1 X116.326 Y122.238 E-.28866
G1 X116.814 Y122.085 E-.11809
G1 X117.066 Y121.911 E-.07071
G1 X117.298 Y121.615 E-.08683
;WIPE_END
G1 Z.4 F720
G1 X119.933 Y121.49 F10800
G1 Z.2 F720
G1 E1 F2100
M204 S800
G1 F1200
G1 X120.109 Y121.783 E.01488
;WIDTH:0.567588
G1 X120.545 Y122.106 E.02367
;WIDTH:0.572384
G1 X120.831 Y122.217 E.01351
G1 X120.116 Y122.22 E.03148
;WIDTH:0.566512
G1 X118.866 Y122.238 E.05443
G1 X119.354 Y122.085 E.02227
G1 X119.606 Y121.911 E.01333
G1 X119.898 Y121.539 E.02059
M204 S1000
;WIPE_START
G1 F8640
G1 X120.109 Y121.783 E-.07448
G1 X120.545 Y122.106 E-.12529
G1 X120.831 Y122.217 E-.07084
G1 X120.116 Y122.22 E-.1651
G1 X118.866 Y122.238 E-.28866
G1 X119.354 Y122.085 E-.11809
G1 X119.606 Y121.911 E-.07071
G1 X119.838 Y121.615 E-.08683
;WIPE_END
G1 Z.4 F720
G1 X122.473 Y121.49 F10800
G1 Z.2 F720
G1 E1 F2100
M204 S800
;WIDTH:0.566511
G1 F1200
G1 X122.649 Y121.783 E.01488
;WIDTH:0.567587
G1 X123.085 Y122.106 E.02367
;WIDTH:0.572384
G1 X123.371 Y122.217 E.01351
G1 X122.656 Y122.22 E.03148
;WIDTH:0.566511
G1 X121.406 Y122.238 E.05443
G1 X121.894 Y122.085 E.02227
G1 X122.146 Y121.911 E.01333
G1 X122.438 Y121.539 E.02059
M204 S1000
;WIPE_START
G1 F8640
G1 X122.649 Y121.783 E-.07448
G1 X123.085 Y122.106 E-.12529
G1 X123.371 Y122.217 E-.07084
G1 X122.656 Y122.22 E-.1651
G1 X121.406 Y122.238 E-.28866
G1 X121.894 Y122.085 E-.11809
G1 X122.146 Y121.911 E-.07071
G1 X122.378 Y121.615 E-.08683
;WIPE_END
G1 Z.4 F720
G1 X125.013 Y121.49 F10800
G1 Z.2 F720
G1 E1 F2100
M204 S800
;WIDTH:0.566512
G1 F1200
G1 X125.189 Y121.783 E.01488
;WIDTH:0.567588
G1 X125.625 Y122.106 E.02367
;WIDTH:0.572384
G1 X125.911 Y122.217 E.01351
G1 X125.196 Y122.22 E.03148
;WIDTH:0.566512
G1 X123.946 Y122.238 E.05443
G1 X124.434 Y122.085 E.02227
G1 X124.686 Y121.911 E.01333
G1 X124.978 Y121.539 E.02059
M204 S1000
;WIPE_START
G1 F8640
G1 X125.189 Y121.783 E-.07448
G1 X125.625 Y122.106 E-.12529
G1 X125.911 Y122.217 E-.07084
G1 X125.196 Y122.22 E-.1651
G1 X123.946 Y122.238 E-.28866
G1 X124.434 Y122.085 E-.11809
G1 X124.686 Y121.911 E-.07071
G1 X124.918 Y121.615 E-.08683
;WIPE_END
G1 Z.4 F720
G1 X127.553 Y121.49 F10800
G1 Z.2 F720
G1 E1 F2100
M204 S800
G1 F1200
G1 X127.729 Y121.783 E.01488
;WIDTH:0.567588
G1 X128.165 Y122.106 E.02367
;WIDTH:0.572384
G1 X128.451 Y122.217 E.01351
G1 X127.736 Y122.22 E.03148
;WIDTH:0.566512
G1 X126.486 Y122.238 E.05443
G1 X126.974 Y122.085 E.02227
G1 X127.226 Y121.911 E.01333
G1 X127.518 Y121.539 E.02059
M204 S1000
;WIPE_START
G1 F8640
G1 X127.729 Y121.783 E-.07448
G1 X128.165 Y122.106 E-.12529
G1 X128.451 Y122.217 E-.07084
G1 X127.736 Y122.22 E-.1651
G1 X126.486 Y122.238 E-.28866
G1 X126.974 Y122.085 E-.11809
G1 X127.226 Y121.911 E-.07071
G1 X127.458 Y121.615 E-.08683
;WIPE_END
G1 Z.4 F720
G1 X129.026 Y122.238 F10800
G1 Z.2 F720
G1 E1 F2100
M204 S800
G1 F1200
G1 X129.514 Y122.085 E.02227
G1 X129.766 Y121.911 E.01333
G1 X130.093 Y121.49 E.02321
G1 X130.269 Y121.783 E.01488
;WIDTH:0.567588
M73 P1 R25
G1 X130.705 Y122.106 E.02367
;WIDTH:0.572384
G1 X130.991 Y122.217 E.01351
G1 X130.276 Y122.22 E.03148
;WIDTH:0.566512
G1 X129.086 Y122.236 E.05181
M204 S1000
;WIPE_START
G1 F8640
G1 X129.514 Y122.085 E-.1048
G1 X129.766 Y121.911 E-.07071
G1 X130.093 Y121.49 E-.12309
G1 X130.269 Y121.783 E-.07892
G1 X130.705 Y122.106 E-.12529
G1 X130.991 Y122.217 E-.07084
G1 X130.276 Y122.22 E-.1651
G1 X129.145 Y122.235 E-.26125
;WIPE_END
G1 Z.4 F720
G1 X132.633 Y121.49 F10800
G1 Z.2 F720
G1 E1 F2100
M204 S800
;WIDTH:0.566511
G1 F1200
G1 X132.809 Y121.783 E.01488
;WIDTH:0.567587
G1 X133.245 Y122.106 E.02367
;WIDTH:0.572384
G1 X133.531 Y122.217 E.01351
G1 X132.816 Y122.22 E.03148
;WIDTH:0.566511
G1 X131.566 Y122.238 E.05443
G1 X132.054 Y122.085 E.02227
G1 X132.306 Y121.911 E.01333
G1 X132.598 Y121.539 E.02059
M204 S1000
;WIPE_START
G1 F8640
G1 X132.809 Y121.783 E-.07448
G1 X133.245 Y122.106 E-.12529
G1 X133.531 Y122.217 E-.07084
G1 X132.816 Y122.22 E-.1651
G1 X131.566 Y122.238 E-.28866
G1 X132.054 Y122.085 E-.11809
G1 X132.306 Y121.911 E-.07071
G1 X132.538 Y121.615 E-.08683
;WIPE_END
G1 Z.4 F720
G1 X135.173 Y121.49 F10800
G1 Z.2 F720
G1 E1 F2100
M204 S800
G1 F1200
G1 X135.349 Y121.783 E.01488
;WIDTH:0.567587
G1 X135.785 Y122.106 E.02367
;WIDTH:0.572384
G1 X136.071 Y122.217 E.01351
G1 X135.356 Y122.22 E.03148
;WIDTH:0.566511
G1 X134.106 Y122.238 E.05443
G1 X134.594 Y122.085 E.02227
G1 X134.846 Y121.911 E.01333
G1 X135.138 Y121.539 E.02059
M204 S1000
;WIPE_START
G1 F8640
G1 X135.349 Y121.783 E-.07448
G1 X135.785 Y122.106 E-.12529
G1 X136.071 Y122.217 E-.07084
G1 X135.356 Y122.22 E-.1651
G1 X134.106 Y122.238 E-.28866
G1 X134.594 Y122.085 E-.11809
G1 X134.846 Y121.911 E-.07071
G1 X135.078 Y121.615 E-.08683
;WIPE_END
G1 Z.4 F720
G1 X136.539 Y119.377 F10800
G1 Z.2 F720
G1 E1 F2100
M204 S800
;WIDTH:0.520216
G1 F1200
G1 X136.746 Y119.36 E.00824
;WIDTH:0.486811
G1 X136.952 Y119.344 E.00763
;WIDTH:0.453405
G1 X137.159 Y119.327 E.00709
;WIDTH:0.419999
G1 X138.213 Y119.327 E.03305
;WIDTH:0.420115
G1 X138.213 Y120.232 E.02838
;WIDTH:0.423567
G1 X138.213 Y121.388 E.03659
;WIDTH:0.419999
G1 X138.213 Y122.293 E.02838
G1 X137.159 Y122.293 E.03305
;WIDTH:0.456516
G1 X136.988 Y122.275 E.00591
;WIDTH:0.493032
G1 X136.817 Y122.256 E.00644
;WIDTH:0.529548
G1 X136.646 Y122.238 E.00696
G1 X136.753 Y122.192 E.00471
;WIDTH:0.496804
G1 X137.042 Y122.027 E.01256
;WIDTH:0.458402
G1 X137.331 Y121.862 E.0115
;WIDTH:0.419999
G1 X137.527 Y121.641 E.00926
G1 X137.718 Y121.328 E.0115
;WIDTH:0.423567
G1 X137.83 Y120.81 E.01677
G1 X137.718 Y120.292 E.01677
;WIDTH:0.420115
G1 X137.592 Y120.052 E.0085
;WIDTH:0.419999
G1 X137.331 Y119.758 E.01233
G1 X137.108 Y119.604 E.0085
;WIDTH:0.453405
G1 X136.918 Y119.528 E.00698
;WIDTH:0.486811
G1 X136.729 Y119.453 E.00751
;WIDTH:0.520216
G1 X136.595 Y119.399 E.00573
M204 S1000
;WIPE_START
G1 F8640
G1 X136.746 Y119.36 E-.03601
G1 X136.952 Y119.344 E-.04771
G1 X137.159 Y119.327 E-.04796
G1 X138.213 Y119.327 E-.24337
G1 X138.213 Y120.232 E-.20897
G1 X138.213 Y121.388 E-.26692
G1 X138.213 Y122.034 E-.14906
;WIPE_END
G1 Z.4 F720
G1 X135.203 Y120.079 F10800
G1 Z.2 F720
G1 E1 F2100
M204 S800
;WIDTH:0.566511
G1 F1200
G1 X135.173 Y120.13 E.00258
G1 X135.107 Y120.004 E.00619
G1 X134.846 Y119.709 E.01715
G1 X134.594 Y119.535 E.01333
G1 X134.222 Y119.405 E.01716
;WIDTH:0.546444
G1 X133.999 Y119.377 E.00941
;WIDTH:0.566511
G1 X134.619 Y119.4 E.02701
G1 X135.356 Y119.4 E.03209
;WIDTH:0.577392
G1 X136.037 Y119.406 E.03027
G1 X135.784 Y119.513 E.01221
;WIDTH:0.569425
G1 X135.349 Y119.837 E.02375
;WIDTH:0.566511
G1 X135.234 Y120.028 E.00971
M204 S1000
G1 X135.417 Y120.614 F10800
M204 S800
;TYPE:External perimeter
;WIDTH:0.489577
G1 F1200
G1 X135.551 Y120.376 E.01014
;WIDTH:0.454788
G1 X135.684 Y120.138 E.00934
;WIDTH:0.419999
G1 X136.116 Y119.855 E.01619
G1 X136.606 Y119.817 E.01541
G1 X137.049 Y120.008 E.01513
G1 X137.352 Y120.382 E.01509
G1 X137.446 Y120.855 E.01512
G1 X137.31 Y121.318 E.01513
G1 X136.974 Y121.664 E.01512
G1 X136.516 Y121.814 E.01511
G1 X136.041 Y121.735 E.0151
G1 X135.657 Y121.443 E.01513
;WIDTH:0.450002
G1 X135.54 Y121.225 E.00837
;WIDTH:0.480004
G1 X135.422 Y121.007 E.00901
;WIDTH:0.489577
G1 X135.418 Y120.674 E.01237
M204 S1000
;WIPE_START
G1 F8640
G1 X135.551 Y120.376 E-.07535
G1 X135.684 Y120.138 E-.06295
G1 X136.116 Y119.855 E-.11925
G1 X136.606 Y119.817 E-.11348
G1 X137.049 Y120.008 E-.11139
G1 X137.352 Y120.382 E-.11114
G1 X137.446 Y120.855 E-.11135
G1 X137.31 Y121.318 E-.11142
G1 X136.974 Y121.664 E-.11136
G1 X136.676 Y121.761 E-.07231
;WIPE_END
G1 Z.4 F720
G1 X136.037 Y119.406 F10800
G1 Z.2 F720
G1 E1 F2100
M204 S800
;TYPE:Perimeter
;WIDTH:0.577392
G1 F1200
G1 X136.288 Y119.391 E.01117
;WIDTH:0.548804
G1 X136.539 Y119.377 E.01057
M204 S1000
;WIPE_START
G1 F8640
G1 X136.288 Y119.391 E-.05805
G1 X136.037 Y119.406 E-.05806
;WIPE_END
G1 E-.88389 F2100
G1 Z.4 F720
G1 X136.646 Y122.238 F10800
G1 Z.2 F720
G1 E1 F2100
M204 S800
;WIDTH:0.572384
G1 F1200
G1 X136.071 Y122.217 E.02533
M204 S1000
;WIPE_START
G1 F8640
G1 X136.646 Y122.238 E-.13286
;WIPE_END
G1 E-.86714 F2100
G1 Z.4 F720
G1 X132.663 Y120.079 F10800
G1 Z.2 F720
G1 E1 F2100
M204 S800
;WIDTH:0.566511
G1 F1200
G1 X132.633 Y120.13 E.00258
G1 X132.567 Y120.004 E.00619
G1 X132.306 Y119.709 E.01715
G1 X132.054 Y119.535 E.01333
G1 X131.682 Y119.405 E.01716
;WIDTH:0.546444
G1 X131.459 Y119.377 E.00941
;WIDTH:0.566511
G1 X132.079 Y119.4 E.02701
G1 X132.816 Y119.4 E.03209
;WIDTH:0.577392
G1 X133.497 Y119.406 E.03027
G1 X133.244 Y119.513 E.01221
;WIDTH:0.569425
G1 X132.809 Y119.837 E.02375
;WIDTH:0.566511
G1 X132.694 Y120.028 E.00971
M204 S1000
G1 X132.877 Y120.614 F10800
M204 S800
;TYPE:External perimeter
;WIDTH:0.489576
G1 F1200
G1 X133.011 Y120.376 E.01014
;WIDTH:0.454788
G1 X133.144 Y120.138 E.00934
;WIDTH:0.419999
G1 X133.576 Y119.855 E.01619
G1 X134.066 Y119.817 E.01541
G1 X134.509 Y120.008 E.01513
G1 X134.812 Y120.382 E.01509
;WIDTH:0.460872
G1 X134.882 Y120.596 E.00782
;WIDTH:0.501744
G1 X134.953 Y120.81 E.0086
G1 X134.861 Y121.064 E.01031
;WIDTH:0.460872
G1 X134.77 Y121.318 E.00938
;WIDTH:0.419999
G1 X134.434 Y121.664 E.01512
G1 X133.976 Y121.814 E.01511
G1 X133.501 Y121.735 E.0151
G1 X133.117 Y121.443 E.01513
;WIDTH:0.450002
G1 X133 Y121.225 E.00837
;WIDTH:0.480005
G1 X132.882 Y121.007 E.00901
;WIDTH:0.489576
G1 X132.878 Y120.674 E.01237
M204 S1000
;WIPE_START
G1 F8640
G1 X133.011 Y120.376 E-.07535
G1 X133.144 Y120.138 E-.06295
G1 X133.576 Y119.855 E-.11925
G1 X134.066 Y119.817 E-.11348
G1 X134.509 Y120.008 E-.11139
G1 X134.812 Y120.382 E-.11114
G1 X134.882 Y120.596 E-.05199
G1 X134.953 Y120.81 E-.05206
G1 X134.861 Y121.064 E-.06238
G1 X134.77 Y121.318 E-.0623
G1 X134.434 Y121.664 E-.11136
G1 X134.161 Y121.753 E-.06635
;WIPE_END
G1 Z.4 F720
G1 X133.497 Y119.406 F10800
G1 Z.2 F720
G1 E1 F2100
M204 S800
;TYPE:Perimeter
;WIDTH:0.577392
G1 F1200
G1 X133.748 Y119.391 E.01117
;WIDTH:0.548804
G1 X133.999 Y119.377 E.01057
M204 S1000
;WIPE_START
G1 F8640
G1 X133.748 Y119.391 E-.05805
G1 X133.497 Y119.406 E-.05806
;WIPE_END
G1 E-.88389 F2100
G1 Z.4 F720
G1 X134.106 Y122.238 F10800
G1 Z.2 F720
G1 E1 F2100
M204 S800
;WIDTH:0.572384
G1 F1200
G1 X133.531 Y122.217 E.02533
M204 S1000
;WIPE_START
G1 F8640
G1 X134.106 Y122.238 E-.13286
;WIPE_END
G1 E-.86714 F2100
G1 Z.4 F720
G1 X130.386 Y119.75 F10800
G1 Z.2 F720
G1 E1 F2100
M204 S800
;WIDTH:0.569426
G1 F1200
G1 X130.269 Y119.837 E.00638
;WIDTH:0.566511
G1 X130.093 Y120.13 E.01488
G1 X130.027 Y120.004 E.00619
G1 X129.766 Y119.709 E.01715
G1 X129.514 Y119.535 E.01333
G1 X129.142 Y119.405 E.01716
;WIDTH:0.546444
G1 X128.919 Y119.377 E.00941
;WIDTH:0.566511
G1 X129.539 Y119.4 E.02701
G1 X130.276 Y119.4 E.03209
;WIDTH:0.577394
G1 X130.957 Y119.406 E.03027
G1 X130.704 Y119.513 E.01221
;WIDTH:0.569426
G1 X130.434 Y119.714 E.01474
M204 S1000
G1 X130.471 Y120.376 F10800
M204 S800
;TYPE:External perimeter
;WIDTH:0.454788
G1 F1200
G1 X130.604 Y120.138 E.00934
;WIDTH:0.419999
G1 X131.036 Y119.855 E.01619
G1 X131.526 Y119.817 E.01541
G1 X131.969 Y120.008 E.01513
G1 X132.272 Y120.382 E.01509
;WIDTH:0.460872
G1 X132.342 Y120.596 E.00782
;WIDTH:0.501744
G1 X132.413 Y120.81 E.0086
G1 X132.321 Y121.064 E.01031
;WIDTH:0.460872
G1 X132.23 Y121.318 E.00938
;WIDTH:0.419999
G1 X131.894 Y121.664 E.01512
G1 X131.436 Y121.814 E.01511
G1 X130.961 Y121.735 E.0151
G1 X130.577 Y121.443 E.01513
;WIDTH:0.450002
G1 X130.46 Y121.225 E.00837
;WIDTH:0.480004
G1 X130.342 Y121.007 E.00901
;WIDTH:0.489576
G1 X130.337 Y120.614 E.0146
G1 X130.441 Y120.428 E.00791
M204 S1000
;WIPE_START
G1 F8640
G1 X130.604 Y120.138 E-.07681
G1 X131.036 Y119.855 E-.11925
G1 X131.526 Y119.817 E-.11348
G1 X131.969 Y120.008 E-.11139
G1 X132.272 Y120.382 E-.11114
G1 X132.342 Y120.596 E-.05199
G1 X132.413 Y120.81 E-.05206
G1 X132.321 Y121.064 E-.06238
G1 X132.23 Y121.318 E-.0623
G1 X131.894 Y121.664 E-.11136
G1 X131.436 Y121.814 E-.11128
G1 X131.365 Y121.802 E-.01656
;WIPE_END
G1 Z.4 F720
G1 X130.957 Y119.406 F10800
G1 Z.2 F720
G1 E1 F2100
M204 S800
;TYPE:Perimeter
;WIDTH:0.577394
G1 F1200
G1 X131.208 Y119.391 E.01117
;WIDTH:0.548805
G1 X131.459 Y119.377 E.01057
M204 S1000
;WIPE_START
G1 F8640
G1 X131.208 Y119.391 E-.05805
G1 X130.957 Y119.406 E-.05806
;WIPE_END
G1 E-.88389 F2100
G1 Z.4 F720
G1 X131.566 Y122.238 F10800
G1 Z.2 F720
G1 E1 F2100
M204 S800
;WIDTH:0.572384
G1 F1200
G1 X130.991 Y122.217 E.02533
M204 S1000
;WIPE_START
G1 F8640
G1 X131.566 Y122.238 E-.13286
;WIPE_END
G1 E-.86714 F2100
G1 Z.4 F720
G1 X127.55 Y120.099 F10800
G1 Z.2 F720
G1 E1 F2100
M204 S800
;WIDTH:0.566512
G1 F1200
