; generated by PrusaSlicer 2.5.0+linux-x64-GTK3 on 2022-11-08 at 14:38:38 UTC


;
;

;
;
; 

; external perimeters extrusion width = 0.45mm
; perimeters extrusion width = 0.45mm
; infill extrusion width = 0.45mm
; solid infill extrusion width = 0.45mm
; top infill extrusion width = 0.40mm
; support material extrusion width = 0.35mm
; first layer extrusion width = 0.42mm

; external perimeters extrusion width = 0.45mm
; perimeters extrusion width = 0.45mm
; infill extrusion width = 0.45mm
; solid infill extrusion width = 0.45mm
; top infill extrusion width = 0.40mm
; support material extrusion width = 0.35mm
; first layer extrusion width = 0.42mm

M73 P0 R173
M73 Q0 S176
M201 X1000 Y1000 Z200 E5000 ; sets maximum accelerations, mm/sec^2
M203 X200 Y200 Z12 E120 ; sets maximum feedrates, mm / sec
M204 P1250 R1250 T1250 ; sets acceleration (P, T) and retract acceleration (R), mm/sec^2
M205 X8.00 Y8.00 Z0.40 E4.50 ; sets the jerk limits, mm/sec
M205 S0 T0 ; sets the minimum extruding and travel feed rate, mm/sec
M107
;TYPE:Custom
M862.3 P "MK3S" ; printer model check
M862.1 P0.4 ; nozzle diameter check
M115 U3.9.2 ; tell printer latest fw version
G90 ; use absolute coordinates
M83 ; extruder relative mode
M104 S240 ; set extruder temp
M140 S85 ; set bed temp
M190 S85 ; wait for bed temp
M109 S240 ; wait for extruder temp
G28 W ; home all without mesh bed level
G80 ; mesh bed leveling
G1 Y-3.0 F1000.0 ; go outside print area
G92 E0.0
G1 X60.0 E9.0 F1000.0 ; intro line
G1 X100.0 E12.5 F1000.0 ; intro line
G92 E0.0
M221 S95

; Don't change E values below. Excessive value can damage the printer.
M907 E430 ; set extruder motor current
G21 ; set units to millimeters
G90 ; use absolute coordinates
M83 ; use relative distances for extrusion
M900 K0.08 ; Filament gcode LA 1.5
M900 K45 ; Filament gcode LA 1.0
M107
;LAYER_CHANGE
;Z:0.2
;HEIGHT:0.2
;BEFORE_LAYER_CHANGE
G92 E0.0
;0.2


M73 P0 R172
G1 E-1 F2100
G1 Z.2 F720
;AFTER_LAYER_CHANGE
;0.2
; printing object FrontFaceCamCover.stl id:0 copy 0
G1 Z.4
G1 X191.848 Y157.897 F10800
G1 Z.2 F720
G1 E1 F2100
M204 S800
;TYPE:Perimeter
;WIDTH:0.419999
G1 F1200
G1 X191.263 Y157.641 E.02002
G1 X190.487 Y157.468 E.02495
G1 X189.775 Y157.446 E.02232
G1 X188.978 Y157.571 E.0253
G1 X188.392 Y157.772 E.01944
G1 X187.969 Y157.998 E.01502
G1 X187.535 Y158.274 E.01612
G1 X186.946 Y158.824 E.02528
G1 X186.595 Y159.293 E.01837
G1 X186.39 Y159.666 E.01333
G1 X186.148 Y160.217 E.01886
G1 X185.998 Y160.818 E.01944
G1 X185.948 Y161.319 E.01579
G1 X185.955 Y161.752 E.01358
G1 X186.021 Y162.312 E.01767
G1 X186.261 Y163.083 E.0253
G1 X186.647 Y163.79 E.02528
G1 X187.166 Y164.408 E.02528
G1 X187.796 Y164.911 E.02528
G1 X188.514 Y165.279 E.02528
G1 X189.29 Y165.498 E.02528
G1 X190.093 Y165.56 E.02527
G1 X190.881 Y165.465 E.02488
G1 X191.397 Y165.312 E.01687
G1 X191.848 Y165.105 E.01558
G1 X191.836 Y183.336 E.57162
G1 X129.164 Y183.336 E1.96502
G1 X129.164 Y26.664 E4.91232
M73 Q0 S175
G1 X191.836 Y26.664 E1.96503
G1 X191.841 Y44.893 E.57156
G1 X191.263 Y44.641 E.01976
G1 X190.487 Y44.468 E.02495
G1 X189.775 Y44.446 E.02232
G1 X188.978 Y44.571 E.0253
G1 X188.222 Y44.85 E.02528
G1 X187.535 Y45.274 E.02528
G1 X186.946 Y45.824 E.02528
G1 X186.478 Y46.481 E.02529
G1 X186.148 Y47.217 E.02528
G1 X185.971 Y47.985 E.02472
G1 X185.941 Y48.599 E.01927
G1 X186.023 Y49.319 E.02273
G1 X186.275 Y50.11 E.02602
G1 X186.647 Y50.79 E.02432
G1 X187.023 Y51.26 E.01885
G1 X187.381 Y51.588 E.01524
G1 X187.796 Y51.911 E.01648
G1 X188.514 Y52.279 E.02528
G1 X189.29 Y52.498 E.02528
G1 X190.093 Y52.56 E.02527
G1 X190.881 Y52.465 E.02488
G1 X191.397 Y52.312 E.01687
G1 X191.848 Y52.105 E.01558
G1 X191.847 Y157.837 E3.31515
M204 S1000
G1 X192.259 Y158.63 F10800
M204 S800
G1 F1200
G1 X191.772 Y158.278 E.01884
G1 X191.174 Y158.008 E.02058
G1 X190.467 Y157.844 E.02275
G1 X189.825 Y157.82 E.02014
G1 X189.1 Y157.927 E.02296
G1 X188.412 Y158.175 E.02294
G1 X187.786 Y158.555 E.02294
G1 X187.248 Y159.05 E.02294
G1 X186.897 Y159.519 E.01837
G1 X186.73 Y159.828 E.01099
G1 X186.514 Y160.308 E.01652
G1 X186.348 Y161.008 E.02255
G1 X186.316 Y161.565 E.0175
G1 X186.384 Y162.209 E.02028
G1 X186.596 Y162.91 E.02296
G1 X186.941 Y163.555 E.02294
G1 X187.408 Y164.119 E.02294
G1 X187.976 Y164.579 E.02294
G1 X188.624 Y164.918 E.02294
G1 X189.327 Y165.123 E.02294
G1 X190.056 Y165.184 E.02293
G1 X190.774 Y165.103 E.02266
G1 X191.29 Y164.951 E.01687
G1 X191.799 Y164.709 E.01766
G1 X192.262 Y164.348 E.01841
G1 X192.213 Y165.5 E.03613
G1 X192.213 Y183.713 E.57106
G1 X128.787 Y183.713 E1.98867
G1 X128.787 Y26.287 E4.93597
G1 X192.213 Y26.287 E1.98867
G1 X192.219 Y45.031 E.58772
G1 X192.259 Y45.63 E.0188
G1 X191.772 Y45.278 E.01884
G1 X191.174 Y45.008 E.02058
G1 X190.467 Y44.844 E.02275
G1 X189.825 Y44.82 E.02014
G1 X189.1 Y44.927 E.02296
G1 X188.412 Y45.175 E.02294
G1 X187.786 Y45.555 E.02294
G1 X187.248 Y46.05 E.02294
G1 X186.818 Y46.643 E.02294
G1 X186.514 Y47.308 E.02294
G1 X186.348 Y48.011 E.02265
G1 X186.316 Y48.565 E.0174
G1 X186.386 Y49.216 E.02051
G1 X186.596 Y49.91 E.02272
G1 X186.855 Y50.412 E.01773
G1 X187.071 Y50.717 E.01172
G1 X187.408 Y51.119 E.01642
G1 X187.976 Y51.579 E.02294
G1 X188.624 Y51.918 E.02294
G1 X189.327 Y52.123 E.02294
G1 X190.056 Y52.184 E.02293
G1 X190.774 Y52.103 E.02266
G1 X191.29 Y51.951 E.01687
G1 X191.799 Y51.709 E.01766
G1 X192.262 Y51.348 E.01841
G1 X192.213 Y52.5 E.03613
G1 X192.213 Y157.455 E3.2908
G1 X192.256 Y158.57 E.03498
M204 S1000
G1 E-1 F2100
G1 Z.4 F720
G1 X192.79 Y160.138 F10800
G1 Z.2 F720
G1 E1 F2100
M204 S800
;TYPE:External perimeter
G1 F1200
G1 X192.475 Y159.633 E.01867
G1 X192.257 Y159.243 E.01401
G1 X192.013 Y158.932 E.01239
G1 X191.611 Y158.619 E.016
G1 X191.084 Y158.374 E.01821
G1 X190.446 Y158.221 E.02055
G1 X189.874 Y158.194 E.01796
G1 X189.223 Y158.284 E.02062
G1 X188.603 Y158.501 E.0206
G1 X188.038 Y158.836 E.0206
G1 X187.519 Y159.318 E.02219
G1 X187.159 Y159.805 E.019
G1 X186.88 Y160.4 E.0206
G1 X186.724 Y161.031 E.02038
G1 X186.692 Y161.532 E.01574
G1 X186.747 Y162.105 E.01807
G1 X186.931 Y162.737 E.02062
G1 X187.235 Y163.319 E.0206
G1 X187.649 Y163.829 E.0206
G1 X188.156 Y164.248 E.0206
G1 X188.735 Y164.558 E.0206
G1 X189.364 Y164.748 E.0206
G1 X190.019 Y164.809 E.0206
G1 X190.667 Y164.741 E.02045
G1 X191.213 Y164.577 E.01788
G1 X191.668 Y164.347 E.01596
G1 X192.053 Y164.026 E.01575
G1 X192.79 Y162.85 E.0435
G1 X192.79 Y163.483 E.01983
G1 X192.623 Y164.492 E.03208
G1 X192.59 Y165.5 E.03162
G1 X192.59 Y184.09 E.58289
G1 X128.41 Y184.09 E2.01232
G1 X128.41 Y25.91 E4.95961
G1 X192.59 Y25.91 E2.01232
M73 P0 R171
G1 X192.595 Y45.011 E.5989
G1 X192.625 Y45.534 E.01641
G1 X192.79 Y46.517 E.03128
G1 X192.79 Y47.138 E.01946
G1 X192.475 Y46.633 E.01867
G1 X192.257 Y46.243 E.01401
G1 X192.013 Y45.932 E.01239
G1 X191.611 Y45.619 E.016
G1 X191.084 Y45.374 E.01821
G1 X190.446 Y45.221 E.02055
G1 X189.874 Y45.194 E.01796
G1 X189.223 Y45.284 E.02062
G1 X188.603 Y45.501 E.0206
G1 X188.038 Y45.836 E.0206
G1 X187.55 Y46.277 E.0206
G1 X187.159 Y46.805 E.02061
G1 X186.88 Y47.4 E.0206
G1 X186.724 Y48.029 E.02033
G1 X186.692 Y48.532 E.01579
G1 X186.749 Y49.112 E.01829
G1 X186.945 Y49.764 E.02133
G1 X187.235 Y50.319 E.01964
G1 X187.649 Y50.829 E.0206
G1 X188.156 Y51.248 E.0206
G1 X188.735 Y51.558 E.0206
G1 X189.364 Y51.748 E.0206
G1 X190.019 Y51.809 E.0206
M73 Q0 S174
G1 X190.667 Y51.741 E.02045
G1 X191.213 Y51.577 E.01788
G1 X191.668 Y51.347 E.01596
G1 X192.053 Y51.026 E.01575
G1 X192.79 Y49.85 E.0435
G1 X192.79 Y50.483 E.01983
G1 X192.623 Y51.492 E.03208
G1 X192.59 Y52.5 E.03162
G1 X192.59 Y157.455 E3.2908
G1 X192.625 Y158.533 E.03382
G1 X192.79 Y159.517 E.03129
G1 X192.79 Y160.078 E.01758
M204 S1000
G1 X192.632 Y159.771 F10800
;WIPE_START
G1 F8640
G1 X192.475 Y159.633 E-.12592
G1 X192.257 Y159.243 E-.10317
G1 X192.013 Y158.932 E-.09123
G1 X191.611 Y158.619 E-.11781
G1 X191.084 Y158.374 E-.13413
G1 X190.446 Y158.221 E-.15133
G1 X189.874 Y158.194 E-.13227
G1 X189.47 Y158.25 E-.09414
;WIPE_END
G1 E-.05 F2100
G1 Z.4 F720
G1 X189.438 Y158.081 F10800
G1 X168.449 Y148.087
G1 X167.952 Y147.847
G1 X167.467 Y147.583
G1 X166.996 Y147.296
G1 X166.54 Y146.985
G1 X166.101 Y146.652
G1 X165.678 Y146.297
G1 X165.273 Y145.922
G1 X164.888 Y145.527
G1 X164.523 Y145.113
G1 X164.179 Y144.682
G1 X163.857 Y144.234
G1 X163.558 Y143.77
G1 X163.282 Y143.292
G1 X163.03 Y142.801
G1 X162.803 Y142.298
G1 X162.601 Y141.785
G1 X162.426 Y141.262
G1 X162.276 Y140.731
G1 X162.154 Y140.193
G1 X151.916 Y87.14
G1 X151.916 Y72.667
G1 X151.906 Y72.259
G1 X151.875 Y71.846
G1 X151.823 Y71.434
G1 X151.751 Y71.026
G1 X151.659 Y70.622
G1 X151.546 Y70.222
G1 X151.414 Y69.829
G1 X151.263 Y69.443
G1 X151.092 Y69.066
G1 X150.903 Y68.697
G1 X150.696 Y68.337
G1 X150.471 Y67.989
G1 X150.229 Y67.652
G1 X149.97 Y67.328
G1 X149.696 Y67.017
G1 X149.406 Y66.721
G1 X149.103 Y66.439
G1 X131.702 Y51.093
G1 X131.586 Y50.985
G1 X131.519 Y50.92
G1 X131.456 Y50.852
G1 X131.35 Y50.732
G1 X131.29 Y50.661
G1 X131.234 Y50.587
G1 X131.141 Y50.457
G1 X131.089 Y50.38
G1 X131.04 Y50.301
G1 X130.96 Y50.163
G1 X130.916 Y50.081
G1 X130.875 Y49.997
G1 X130.81 Y49.852
G1 X130.774 Y49.766
G1 X130.742 Y49.679
G1 X130.691 Y49.528
G1 X130.664 Y49.439
G1 X130.641 Y49.348
G1 X130.605 Y49.193
G1 X130.587 Y49.102
G1 X130.573 Y49.01
G1 X130.553 Y48.852
G1 X130.544 Y48.759
G1 X130.539 Y48.666
G1 X130.535 Y48.507
G1 X130.535 Y48.414
G1 X130.54 Y48.321
G1 X130.552 Y48.162
G1 X130.561 Y48.069
G1 X130.575 Y47.977
G1 X130.603 Y47.82
G1 X130.621 Y47.729
G1 X130.644 Y47.638
G1 X130.687 Y47.485
G1 X130.715 Y47.396
G1 X130.746 Y47.309
G1 X130.805 Y47.16
G1 X130.841 Y47.075
G1 X130.881 Y46.991
G1 X130.954 Y46.849
G1 X130.977 Y46.806
G1 X130.468 Y46.529
G1 Z.2 F720
G1 E1 F2100
M204 S800
;TYPE:Perimeter
G1 F1200
G1 X130.948 Y45.826 E.02669
G1 X131.557 Y45.258 E.0261
G1 X132.248 Y44.838 E.02535
G1 X133.008 Y44.563 E.02535
G1 X133.808 Y44.445 E.02536
G1 X134.522 Y44.472 E.0224
G1 X135.3 Y44.653 E.02504
G1 X136.037 Y44.987 E.02536
G1 X136.692 Y45.46 E.02535
G1 X137.241 Y46.054 E.02535
G1 X137.662 Y46.745 E.02535
G1 X137.937 Y47.505 E.02535
G1 X138.034 Y48.128 E.01976
G1 X138.052 Y48.608 E.01506
G1 X138.014 Y49.113 E.01587
G1 X137.813 Y49.896 E.02535
G1 X137.461 Y50.624 E.02535
G1 X136.972 Y51.267 E.02535
G1 X136.364 Y51.801 E.02535
G1 X135.663 Y52.204 E.02535
G1 X134.896 Y52.46 E.02535
G1 X134.094 Y52.56 E.02535
G1 X133.288 Y52.498 E.02535
G1 X132.51 Y52.277 E.02535
G1 X131.791 Y51.907 E.02535
G1 X131.159 Y51.402 E.02535
G1 X130.641 Y50.781 E.02535
G1 X130.255 Y50.07 E.02535
G1 X130.018 Y49.297 E.02537
G1 X129.94 Y48.583 E.02251
G1 X129.971 Y48.005 E.01815
G1 X130.093 Y47.396 E.01948
G1 X130.389 Y46.644 E.02535
G1 X130.434 Y46.578 E.00249
M204 S1000
G1 X130.778 Y46.731 F10800
M204 S800
G1 F1200
G1 X131.255 Y46.046 E.02616
G1 X131.806 Y45.541 E.02346
G1 X132.436 Y45.165 E.023
G1 X133.128 Y44.921 E.023
G1 X133.855 Y44.819 E.02301
G1 X134.499 Y44.849 E.02022
G1 X135.207 Y45.019 E.02283
G1 X135.873 Y45.327 E.02301
G1 X136.465 Y45.761 E.02301
G1 X136.959 Y46.304 E.02301
G1 X137.335 Y46.933 E.02301
G1 X137.579 Y47.625 E.02301
G1 X137.66 Y48.175 E.01741
G1 X137.676 Y48.58 E.0127
G1 X137.638 Y49.084 E.01587
G1 X137.45 Y49.794 E.02301
G1 X137.126 Y50.452 E.02301
G1 X136.677 Y51.032 E.02301
G1 X136.122 Y51.512 E.02301
G1 X135.483 Y51.873 E.02301
G1 X134.785 Y52.1 E.02301
G1 X134.056 Y52.184 E.02301
G1 X133.325 Y52.122 E.02301
G1 X132.621 Y51.917 E.02301
G1 X131.971 Y51.576 E.02301
G1 X131.402 Y51.113 E.02301
G1 X130.936 Y50.546 E.02301
G1 X130.591 Y49.898 E.02301
G1 X130.381 Y49.195 E.02302
G1 X130.316 Y48.551 E.02029
G1 X130.34 Y48.08 E.0148
G1 X130.463 Y47.471 E.01948
G1 X130.744 Y46.78 E.02338
M204 S1000
G1 X131.085 Y46.936 F10800
M204 S800
;TYPE:External perimeter
G1 F1200
G1 X131.561 Y46.266 E.02578
G1 X132.056 Y45.824 E.02081
G1 X132.624 Y45.491 E.02066
G1 X133.248 Y45.278 E.02066
G1 X133.902 Y45.193 E.02067
G1 X134.476 Y45.225 E.01805
G1 X135.114 Y45.384 E.02061
G1 X135.71 Y45.667 E.02066
G1 X136.237 Y46.061 E.02066
G1 X136.676 Y46.553 E.02066
G1 X137.009 Y47.122 E.02066
G1 X137.222 Y47.745 E.02066
G1 X137.308 Y48.399 E.02066
G1 X137.262 Y49.056 E.02066
G1 X137.087 Y49.691 E.02066
G1 X136.79 Y50.28 E.02066
G1 X136.382 Y50.797 E.02066
G1 X135.88 Y51.224 E.02066
G1 X135.303 Y51.542 E.02066
G1 X134.674 Y51.74 E.02066
G1 X134.019 Y51.809 E.02066
G1 X133.363 Y51.747 E.02066
G1 X132.732 Y51.557 E.02066
G1 X132.151 Y51.245 E.02066
G1 X131.644 Y50.824 E.02066
G1 X131.23 Y50.311 E.02066
G1 X130.926 Y49.726 E.02066
G1 X130.744 Y49.093 E.02067
G1 X130.692 Y48.519 E.01807
G1 X130.71 Y48.154 E.01144
G1 X130.833 Y47.545 E.01948
G1 X131.062 Y46.992 E.01877
M204 S1000
G1 X130.88 Y46.593 F10800
;WIPE_START
G1 F8640
G1 X131.561 Y46.266 E-.2034
G1 X132.056 Y45.824 E-.15327
G1 X132.624 Y45.491 E-.15213
G1 X133.248 Y45.278 E-.15212
G1 X133.902 Y45.193 E-.1522
G1 X134.476 Y45.225 E-.13293
G1 X134.493 Y45.229 E-.00396
;WIPE_END
G1 E-.05 F2100
G1 Z.4 F720
G1 X134.513 Y45.072 F10800
G1 X134.517 Y45.073
G1 X134.608 Y45.089
G1 X134.764 Y45.121
G1 X134.855 Y45.141
G1 X134.945 Y45.167
G1 X135.097 Y45.213
G1 X135.185 Y45.243
G1 X135.272 Y45.277
G1 X135.419 Y45.339
G1 X135.504 Y45.377
G1 X135.587 Y45.42
G1 X135.727 Y45.496
G1 X135.807 Y45.543
G1 X135.885 Y45.593
G1 X136.017 Y45.683
G1 X136.093 Y45.737
G1 X136.166 Y45.795
G1 X136.288 Y45.898
G1 X136.357 Y45.959
G1 X136.424 Y46.024
G1 X136.535 Y46.138
G1 X136.599 Y46.207
G1 X136.659 Y46.278
G1 X136.758 Y46.403
G1 X136.814 Y46.477
G1 X136.867 Y46.554
G1 X136.953 Y46.688
G1 X137.002 Y46.767
G1 X137.046 Y46.849
G1 X137.119 Y46.991
G1 X137.159 Y47.075
G1 X137.195 Y47.16
G1 X137.254 Y47.309
G1 X137.285 Y47.396
G1 X137.313 Y47.485
G1 X137.356 Y47.638
G1 X137.379 Y47.729
G1 X137.397 Y47.82
G1 X137.425 Y47.977
G1 X137.439 Y48.069
G1 X137.448 Y48.162
G1 X137.46 Y48.321
G1 X137.465 Y48.414
G1 X137.465 Y48.507
G1 X137.461 Y48.666
G1 X137.456 Y48.759
G1 X137.447 Y48.852
G1 X137.427 Y49.01
G1 X137.413 Y49.102
G1 X137.395 Y49.193
G1 X137.359 Y49.348
G1 X137.336 Y49.439
G1 X137.309 Y49.528
G1 X137.258 Y49.679
G1 X137.226 Y49.766
G1 X137.19 Y49.852
G1 X137.125 Y49.997
G1 X137.084 Y50.081
G1 X137.04 Y50.163
G1 X136.96 Y50.301
G1 X136.911 Y50.38
G1 X136.859 Y50.457
G1 X136.766 Y50.587
G1 X136.71 Y50.661
G1 X136.65 Y50.732
G1 X136.544 Y50.852
G1 X136.481 Y50.92
G1 X136.414 Y50.985
G1 X136.295 Y51.096
G1 X140.576 Y64.927
G1 X140.374 Y64.373
G1 Z.2 F720
G1 E1 F2100
M204 S800
;TYPE:Perimeter
G1 F1200
G1 X141.335 Y64.067 E.03161
G1 X142.012 Y63.912 E.02177
G1 X142.538 Y63.824 E.01674
G1 X143.331 Y63.765 E.02492
G1 X144.219 Y63.782 E.02786
G1 X145.043 Y63.881 E.02603
G1 X145.969 Y64.081 E.02969
G1 X146.813 Y64.36 E.02786
G1 X147.624 Y64.721 E.02786
G1 X148.396 Y65.161 E.02786
G1 X149.12 Y65.676 E.02786
G1 X149.683 Y66.166 E.02341
G1 X150.09 Y66.577 E.01811
G1 X150.458 Y66.98 E.01713
G1 X150.938 Y67.614 E.02492
G1 X151.261 Y68.134 E.01921
G1 X151.563 Y68.686 E.01972
G1 X151.795 Y69.168 E.01677
G1 X152.011 Y69.749 E.01943
G1 X152.256 Y70.583 E.02726
G1 X152.383 Y71.199 E.01972
G1 X152.464 Y71.739 E.01713
G1 X152.513 Y72.624 E.02776
G1 X152.514 Y137.329 E2.0288
G1 X152.441 Y138.335 E.03162
G1 X152.377 Y138.847 E.01618
G1 X152.249 Y139.48 E.02025
G1 X152.1 Y139.98 E.01635
G1 X151.804 Y140.789 E.02701
G1 X151.545 Y141.356 E.01955
G1 X151.23 Y141.934 E.02063
G1 X150.945 Y142.361 E.0161
G1 X150.493 Y142.965 E.02365
G1 X150.166 Y143.354 E.01595
G1 X149.714 Y143.801 E.01992
G1 X149.241 Y144.217 E.01976
G1 X148.84 Y144.537 E.01608
G1 X148.265 Y144.913 E.02153
G1 X147.752 Y145.196 E.01837
G1 X146.921 Y145.596 E.02892
G1 X146.059 Y145.894 E.02858
G1 X145.078 Y146.115 E.03154
G1 X143.892 Y146.233 E.03737
G1 X143.224 Y146.224 E.02096
G1 X142.099 Y146.112 E.03546
G1 X141.231 Y145.919 E.02786
G1 X140.391 Y145.642 E.02775
G1 X139.622 Y145.3 E.02636
G1 X138.804 Y144.839 E.02946
G1 X138.08 Y144.324 E.02786
G1 X137.41 Y143.74 E.02786
G1 X136.802 Y143.092 E.02786
G1 X136.262 Y142.386 E.02786
G1 X135.795 Y141.63 E.02786
G1 X135.405 Y140.832 E.02786
G1 X135.097 Y139.998 E.02786
G1 X134.873 Y139.139 E.02786
